backend/assets/luts/cool_teal.cube
TITLE "Cool Teal"
LUT_3D_SIZE 5
0.020000 0.080000 0.120000
0.246711 0.066844 0.100266
0.473422 0.053688 0.080532
0.700133 0.040532 0.060798
0.926844 0.027376 0.041064
0.013543 0.294172 0.081258
0.240254 0.281016 0.061524
0.466965 0.267860 0.041790
0.693676 0.254704 0.022056
0.920387 0.241548 0.002322
0.007086 0.508344 0.042516
0.233797 0.495188 0.022782
0.460508 0.482032 0.003048
0.690000 0.480000 0.000000
0.920000 0.480000 0.000000
0.000629 0.722516 0.003774
0.230000 0.720000 0.000000
0.460000 0.720000 0.000000
0.690000 0.720000 0.000000
0.920000 0.720000 0.000000
0.000000 0.960000 0.000000
0.230000 0.960000 0.000000
0.460000 0.960000 0.000000
0.690000 0.960000 0.000000
0.920000 0.960000 0.000000
0.018746 0.074984 0.374976
0.245457 0.061828 0.355242
0.472168 0.048672 0.335508
0.698879 0.035516 0.315774
0.925590 0.022360 0.296040
0.012289 0.289156 0.336234
0.239000 0.276000 0.316500
0.465711 0.262844 0.296766
0.692422 0.249688 0.277032
0.920000 0.240000 0.262500
0.005832 0.503328 0.297492
0.232543 0.490172 0.277758
0.460000 0.480000 0.262500
0.690000 0.480000 0.262500
0.920000 0.480000 0.262500
0.000000 0.720000 0.262500
0.230000 0.720000 0.262500
0.460000 0.720000 0.262500
0.690000 0.720000 0.262500
0.920000 0.720000 0.262500
0.000000 0.960000 0.262500
0.230000 0.960000 0.262500
0.460000 0.960000 0.262500
0.690000 0.960000 0.262500
0.920000 0.960000 0.262500
0.017492 0.069968 0.629952
0.244203 0.056812 0.610218
0.470914 0.043656 0.590484
0.697625 0.030500 0.570750
0.924336 0.017344 0.551016
0.011035 0.284140 0.591210
0.237746 0.270984 0.571476
0.464457 0.257828 0.551742
0.691168 0.244672 0.532008
0.920000 0.240000 0.525000
0.004578 0.498312 0.552468
0.231289 0.485156 0.532734
0.460000 0.480000 0.525000
0.690000 0.480000 0.525000
0.920000 0.480000 0.525000
0.000000 0.720000 0.525000
0.230000 0.720000 0.525000
0.460000 0.720000 0.525000
0.690000 0.720000 0.525000
0.920000 0.720000 0.525000
0.000000 0.960000 0.525000
0.230000 0.960000 0.525000
0.460000 0.960000 0.525000
0.690000 0.960000 0.525000
0.920000 0.960000 0.525000
0.016238 0.064952 0.884928
0.242949 0.051796 0.865194
0.469660 0.038640 0.845460
0.696371 0.025484 0.825726
0.923082 0.012328 0.805992
0.009781 0.279124 0.846186
0.236492 0.265968 0.826452
0.463203 0.252812 0.806718
0.690000 0.240000 0.787500
0.920000 0.240000 0.787500
0.003324 0.493296 0.807444
0.230035 0.480140 0.787710
0.460000 0.480000 0.787500
0.690000 0.480000 0.787500
0.920000 0.480000 0.787500
0.000000 0.720000 0.787500
0.230000 0.720000 0.787500
0.460000 0.720000 0.787500
0.690000 0.720000 0.787500
0.920000 0.720000 0.787500
0.000000 0.960000 0.787500
0.230000 0.960000 0.787500
0.460000 0.960000 0.787500
0.690000 0.960000 0.787500
0.920000 0.960000 0.787500
0.014984 0.059936 1.000000
0.241695 0.046780 1.000000
0.468406 0.033624 1.000000
0.695117 0.020468 1.000000
0.921828 0.007312 1.000000
0.008527 0.274108 1.000000
0.235238 0.260952 1.000000
0.461949 0.247796 1.000000
0.690000 0.240000 1.000000
0.920000 0.240000 1.000000
0.002070 0.488280 1.000000
0.230000 0.480000 1.000000
0.460000 0.480000 1.000000
0.690000 0.480000 1.000000
0.920000 0.480000 1.000000
0.000000 0.720000 1.000000
0.230000 0.720000 1.000000
0.460000 0.720000 1.000000
0.690000 0.720000 1.000000
0.920000 0.720000 1.000000
0.000000 0.960000 1.000000
0.230000 0.960000 1.000000
0.460000 0.960000 1.000000
0.690000 0.960000 1.000000
0.920000 0.960000 1.000000
