backend/assets/luts/cool_teal.cube
TITLE "Cool Teal"
LUT_3D_SIZE 9
0.020000 0.080000 0.120000
0.133356 0.073422 0.110133
0.246711 0.066844 0.100266
0.360067 0.060266 0.090399
0.473422 0.053688 0.080532
0.586778 0.047110 0.070665
0.700133 0.040532 0.060798
0.813489 0.033954 0.050931
0.926844 0.027376 0.041064
0.016771 0.187086 0.100629
0.130127 0.180508 0.090762
0.243483 0.173930 0.080895
0.356838 0.167352 0.071028
0.470194 0.160774 0.061161
0.583549 0.154196 0.051294
0.696905 0.147618 0.041427
0.810260 0.141040 0.031560
0.923616 0.134462 0.021693
0.013543 0.294172 0.081258
0.126898 0.287594 0.071391
0.240254 0.281016 0.061524
0.353610 0.274438 0.051657
0.466965 0.267860 0.041790
0.580321 0.261282 0.031923
0.693676 0.254704 0.022056
0.807032 0.248126 0.012189
0.920387 0.241548 0.002322
0.010315 0.401258 0.061887
0.123670 0.394680 0.052020
0.237026 0.388102 0.042153
0.350381 0.381524 0.032286
0.463736 0.374946 0.022419
0.577092 0.368368 0.012552
0.690448 0.361790 0.002685
0.805000 0.360000 0.000000
0.920000 0.360000 0.000000
0.007086 0.508344 0.042516
0.120442 0.501766 0.032649
0.233797 0.495188 0.022782
0.347153 0.488610 0.012915
0.460508 0.482032 0.003048
0.575000 0.480000 0.000000
0.690000 0.480000 0.000000
0.805000 0.480000 0.000000
0.920000 0.480000 0.000000
0.003858 0.615430 0.023145
0.117213 0.608852 0.013278
0.230569 0.602274 0.003411
0.345000 0.600000 0.000000
0.460000 0.600000 0.000000
0.575000 0.600000 0.000000
0.690000 0.600000 0.000000
0.805000 0.600000 0.000000
0.920000 0.600000 0.000000
0.000629 0.722516 0.003774
0.115000 0.720000 0.000000
0.230000 0.720000 0.000000
0.345000 0.720000 0.000000
0.460000 0.720000 0.000000
0.575000 0.720000 0.000000
0.690000 0.720000 0.000000
0.805000 0.720000 0.000000
0.920000 0.720000 0.000000
0.000000 0.840000 0.000000
0.115000 0.840000 0.000000
0.230000 0.840000 0.000000
0.345000 0.840000 0.000000
0.460000 0.840000 0.000000
0.575000 0.840000 0.000000
0.690000 0.840000 0.000000
0.805000 0.840000 0.000000
0.920000 0.840000 0.000000
0.000000 0.960000 0.000000
0.115000 0.960000 0.000000
0.230000 0.960000 0.000000
0.345000 0.960000 0.000000
0.460000 0.960000 0.000000
0.575000 0.960000 0.000000
0.690000 0.960000 0.000000
0.805000 0.960000 0.000000
0.920000 0.960000 0.000000
0.019373 0.077492 0.247488
0.132728 0.070914 0.237621
0.246084 0.064336 0.227754
0.359440 0.057758 0.217887
0.472795 0.051180 0.208020
0.586151 0.044602 0.198153
0.699506 0.038024 0.188286
0.812862 0.031446 0.178419
0.926217 0.024868 0.168552
0.016144 0.184578 0.228117
0.129500 0.178000 0.218250
0.242856 0.171422 0.208383
0.356211 0.164844 0.198516
0.469566 0.158266 0.188649
0.582922 0.151688 0.178782
0.696278 0.145110 0.168915
0.809633 0.138532 0.159048
0.922988 0.131954 0.149181
0.012916 0.291664 0.208746
0.126272 0.285086 0.198879
0.239627 0.278508 0.189012
0.352983 0.271930 0.179145
0.466338 0.265352 0.169278
0.579694 0.258774 0.159411
0.693049 0.252196 0.149544
0.806405 0.245618 0.139677
0.920000 0.240000 0.131250
0.009687 0.398750 0.189375
0.123043 0.392172 0.179508
0.236399 0.385594 0.169641
0.349754 0.379016 0.159774
0.463110 0.372438 0.149907
0.576465 0.365860 0.140040
0.690000 0.360000 0.131250
0.805000 0.360000 0.131250
0.920000 0.360000 0.131250
0.006459 0.505836 0.170004
0.119815 0.499258 0.160137
0.233170 0.492680 0.150270
0.346526 0.486102 0.140403
0.460000 0.480000 0.131250
0.575000 0.480000 0.131250
0.690000 0.480000 0.131250
0.805000 0.480000 0.131250
0.920000 0.480000 0.131250
0.003231 0.612922 0.150633
0.116586 0.606344 0.140766
0.230000 0.600000 0.131250
0.345000 0.600000 0.131250
0.460000 0.600000 0.131250
0.575000 0.600000 0.131250
0.690000 0.600000 0.131250
0.805000 0.600000 0.131250
0.920000 0.600000 0.131250
0.000002 0.720008 0.131262
0.115000 0.720000 0.131250
0.230000 0.720000 0.131250
0.345000 0.720000 0.131250
0.460000 0.720000 0.131250
0.575000 0.720000 0.131250
0.690000 0.720000 0.131250
0.805000 0.720000 0.131250
0.920000 0.720000 0.131250
0.000000 0.840000 0.131250
0.115000 0.840000 0.131250
0.230000 0.840000 0.131250
0.345000 0.840000 0.131250
0.460000 0.840000 0.131250
0.575000 0.840000 0.131250
0.690000 0.840000 0.131250
0.805000 0.840000 0.131250
0.920000 0.840000 0.131250
0.000000 0.960000 0.131250
0.115000 0.960000 0.131250
0.230000 0.960000 0.131250
0.345000 0.960000 0.131250
0.460000 0.960000 0.131250
0.575000 0.960000 0.131250
0.690000 0.960000 0.131250
0.805000 0.960000 0.131250
0.920000 0.960000 0.131250
0.018746 0.074984 0.374976
0.132102 0.068406 0.365109
0.245457 0.061828 0.355242
0.358813 0.055250 0.345375
0.472168 0.048672 0.335508
0.585524 0.042094 0.325641
0.698879 0.035516 0.315774
0.812235 0.028938 0.305907
0.925590 0.022360 0.296040
0.015518 0.182070 0.355605
0.128873 0.175492 0.345738
0.242229 0.168914 0.335871
0.355584 0.162336 0.326004
0.468940 0.155758 0.316137
0.582295 0.149180 0.306270
0.695651 0.142602 0.296403
0.809006 0.136024 0.286536
0.922362 0.129446 0.276669
0.012289 0.289156 0.336234
0.125644 0.282578 0.326367
0.239000 0.276000 0.316500
0.352356 0.269422 0.306633
0.465711 0.262844 0.296766
0.579067 0.256266 0.286899
0.692422 0.249688 0.277032
0.805778 0.243110 0.267165
0.920000 0.240000 0.262500
0.009061 0.396242 0.316863
0.122416 0.389664 0.306996
0.235771 0.383086 0.297129
0.349127 0.376508 0.287262
0.462483 0.369930 0.277395
0.575838 0.363352 0.267528
0.690000 0.360000 0.262500
0.805000 0.360000 0.262500
0.920000 0.360000 0.262500
0.005832 0.503328 0.297492
0.119188 0.496750 0.287625
0.232543 0.490172 0.277758
0.345899 0.483594 0.267891
0.460000 0.480000 0.262500
0.575000 0.480000 0.262500
0.690000 0.480000 0.262500
0.805000 0.480000 0.262500
0.920000 0.480000 0.262500
0.002603 0.610414 0.278121
0.115959 0.603836 0.268254
0.230000 0.600000 0.262500
0.345000 0.600000 0.262500
0.460000 0.600000 0.262500
0.575000 0.600000 0.262500
0.690000 0.600000 0.262500
0.805000 0.600000 0.262500
0.920000 0.600000 0.262500
0.000000 0.720000 0.262500
0.115000 0.720000 0.262500
0.230000 0.720000 0.262500
0.345000 0.720000 0.262500
0.460000 0.720000 0.262500
0.575000 0.720000 0.262500
0.690000 0.720000 0.262500
0.805000 0.720000 0.262500
0.920000 0.720000 0.262500
0.000000 0.840000 0.262500
0.115000 0.840000 0.262500
0.230000 0.840000 0.262500
0.345000 0.840000 0.262500
0.460000 0.840000 0.262500
0.575000 0.840000 0.262500
0.690000 0.840000 0.262500
0.805000 0.840000 0.262500
0.920000 0.840000 0.262500
0.000000 0.960000 0.262500
0.115000 0.960000 0.262500
0.230000 0.960000 0.262500
0.345000 0.960000 0.262500
0.460000 0.960000 0.262500
0.575000 0.960000 0.262500
0.690000 0.960000 0.262500
0.805000 0.960000 0.262500
0.920000 0.960000 0.262500
0.018119 0.072476 0.502464
0.131474 0.065898 0.492597
0.244830 0.059320 0.482730
0.358186 0.052742 0.472863
0.471541 0.046164 0.462996
0.584897 0.039586 0.453129
0.698252 0.033008 0.443262
0.811608 0.026430 0.433395
0.924963 0.019852 0.423528
0.014891 0.179562 0.483093
0.128246 0.172984 0.473226
0.241601 0.166406 0.463359
0.354957 0.159828 0.453492
0.468313 0.153250 0.443625
0.581668 0.146672 0.433758
0.695024 0.140094 0.423891
0.808379 0.133516 0.414024
0.921735 0.126938 0.404157
0.011662 0.286648 0.463722
0.125018 0.280070 0.453855
0.238373 0.273492 0.443988
0.351729 0.266914 0.434121
0.465084 0.260336 0.424254
0.578440 0.253758 0.414387
0.691795 0.247180 0.404520
0.805151 0.240602 0.394653
0.920000 0.240000 0.393750
0.008434 0.393734 0.444351
0.121789 0.387156 0.434484
0.235145 0.380578 0.424617
0.348500 0.374000 0.414750
0.461856 0.367422 0.404883
0.575211 0.360844 0.395016
0.690000 0.360000 0.393750
0.805000 0.360000 0.393750
0.920000 0.360000 0.393750
0.005205 0.500820 0.424980
0.118560 0.494242 0.415113
0.231916 0.487664 0.405246
0.345272 0.481086 0.395379
0.460000 0.480000 0.393750
0.575000 0.480000 0.393750
0.690000 0.480000 0.393750
0.805000 0.480000 0.393750
0.920000 0.480000 0.393750
0.001977 0.607906 0.405609
0.115332 0.601328 0.395742
0.230000 0.600000 0.393750
0.345000 0.600000 0.393750
0.460000 0.600000 0.393750
0.575000 0.600000 0.393750
0.690000 0.600000 0.393750
0.805000 0.600000 0.393750
0.920000 0.600000 0.393750
0.000000 0.720000 0.393750
0.115000 0.720000 0.393750
0.230000 0.720000 0.393750
0.345000 0.720000 0.393750
0.460000 0.720000 0.393750
0.575000 0.720000 0.393750
0.690000 0.720000 0.393750
0.805000 0.720000 0.393750
0.920000 0.720000 0.393750
0.000000 0.840000 0.393750
0.115000 0.840000 0.393750
0.230000 0.840000 0.393750
0.345000 0.840000 0.393750
0.460000 0.840000 0.393750
0.575000 0.840000 0.393750
0.690000 0.840000 0.393750
0.805000 0.840000 0.393750
0.920000 0.840000 0.393750
0.000000 0.960000 0.393750
0.115000 0.960000 0.393750
0.230000 0.960000 0.393750
0.345000 0.960000 0.393750
0.460000 0.960000 0.393750
0.575000 0.960000 0.393750
0.690000 0.960000 0.393750
0.805000 0.960000 0.393750
0.920000 0.960000 0.393750
0.017492 0.069968 0.629952
0.130848 0.063390 0.620085
0.244203 0.056812 0.610218
0.357559 0.050234 0.600351
0.470914 0.043656 0.590484
0.584270 0.037078 0.580617
0.697625 0.030500 0.570750
0.810981 0.023922 0.560883
0.924336 0.017344 0.551016
0.014264 0.177054 0.610581
0.127619 0.170476 0.600714
0.240975 0.163898 0.590847
0.354330 0.157320 0.580980
0.467686 0.150742 0.571113
0.581041 0.144164 0.561246
0.694397 0.137586 0.551379
0.807752 0.131008 0.541512
0.921108 0.124430 0.531645
0.011035 0.284140 0.591210
0.124391 0.277562 0.581343
0.237746 0.270984 0.571476
0.351102 0.264406 0.561609
0.464457 0.257828 0.551742
0.577813 0.251250 0.541875
0.691168 0.244672 0.532008
0.805000 0.240000 0.525000
0.920000 0.240000 0.525000
0.007806 0.391226 0.571839
0.121162 0.384648 0.561972
0.234518 0.378070 0.552105
0.347873 0.371492 0.542238
0.461229 0.364914 0.532371
0.575000 0.360000 0.525000
0.690000 0.360000 0.525000
0.805000 0.360000 0.525000
0.920000 0.360000 0.525000
0.004578 0.498312 0.552468
0.117934 0.491734 0.542601
0.231289 0.485156 0.532734
0.345000 0.480000 0.525000
0.460000 0.480000 0.525000
0.575000 0.480000 0.525000
0.690000 0.480000 0.525000
0.805000 0.480000 0.525000
0.920000 0.480000 0.525000
0.001350 0.605398 0.533097
0.115000 0.600000 0.525000
0.230000 0.600000 0.525000
0.345000 0.600000 0.525000
0.460000 0.600000 0.525000
0.575000 0.600000 0.525000
0.690000 0.600000 0.525000
0.805000 0.600000 0.525000
0.920000 0.600000 0.525000
0.000000 0.720000 0.525000
0.115000 0.720000 0.525000
0.230000 0.720000 0.525000
0.345000 0.720000 0.525000
0.460000 0.720000 0.525000
0.575000 0.720000 0.525000
0.690000 0.720000 0.525000
0.805000 0.720000 0.525000
0.920000 0.720000 0.525000
0.000000 0.840000 0.525000
0.115000 0.840000 0.525000
0.230000 0.840000 0.525000
0.345000 0.840000 0.525000
0.460000 0.840000 0.525000
0.575000 0.840000 0.525000
0.690000 0.840000 0.525000
0.805000 0.840000 0.525000
0.920000 0.840000 0.525000
0.000000 0.960000 0.525000
0.115000 0.960000 0.525000
0.230000 0.960000 0.525000
0.345000 0.960000 0.525000
0.460000 0.960000 0.525000
0.575000 0.960000 0.525000
0.690000 0.960000 0.525000
0.805000 0.960000 0.525000
0.920000 0.960000 0.525000
0.016865 0.067460 0.757440
0.130221 0.060882 0.747573
0.243576 0.054304 0.737706
0.356932 0.047726 0.727839
0.470287 0.041148 0.717972
0.583643 0.034570 0.708105
0.696998 0.027992 0.698238
0.810354 0.021414 0.688371
0.923709 0.014836 0.678504
0.013636 0.174546 0.738069
0.126992 0.167968 0.728202
0.240348 0.161390 0.718335
0.353703 0.154812 0.708468
0.467059 0.148234 0.698601
0.580414 0.141656 0.688734
0.693770 0.135078 0.678867
0.807125 0.128500 0.669000
0.920481 0.121922 0.659133
0.010408 0.281632 0.718698
0.123763 0.275054 0.708831
0.237119 0.268476 0.698964
0.350475 0.261898 0.689097
0.463830 0.255320 0.679230
0.577186 0.248742 0.669363
0.690541 0.242164 0.659496
0.805000 0.240000 0.656250
0.920000 0.240000 0.656250
0.007179 0.388718 0.699327
0.120535 0.382140 0.689460
0.233891 0.375562 0.679593
0.347246 0.368984 0.669726
0.460601 0.362406 0.659859
0.575000 0.360000 0.656250
0.690000 0.360000 0.656250
0.805000 0.360000 0.656250
0.920000 0.360000 0.656250
0.003951 0.495804 0.679956
0.117307 0.489226 0.670089
0.230662 0.482648 0.660222
0.345000 0.480000 0.656250
0.460000 0.480000 0.656250
0.575000 0.480000 0.656250
0.690000 0.480000 0.656250
0.805000 0.480000 0.656250
0.920000 0.480000 0.656250
0.000722 0.602890 0.660585
0.115000 0.600000 0.656250
0.230000 0.600000 0.656250
0.345000 0.600000 0.656250
0.460000 0.600000 0.656250
0.575000 0.600000 0.656250
0.690000 0.600000 0.656250
0.805000 0.600000 0.656250
0.920000 0.600000 0.656250
0.000000 0.720000 0.656250
0.115000 0.720000 0.656250
0.230000 0.720000 0.656250
0.345000 0.720000 0.656250
0.460000 0.720000 0.656250
0.575000 0.720000 0.656250
0.690000 0.720000 0.656250
0.805000 0.720000 0.656250
0.920000 0.720000 0.656250
0.000000 0.840000 0.656250
0.115000 0.840000 0.656250
0.230000 0.840000 0.656250
0.345000 0.840000 0.656250
0.460000 0.840000 0.656250
0.575000 0.840000 0.656250
0.690000 0.840000 0.656250
0.805000 0.840000 0.656250
0.920000 0.840000 0.656250
0.000000 0.960000 0.656250
0.115000 0.960000 0.656250
0.230000 0.960000 0.656250
0.345000 0.960000 0.656250
0.460000 0.960000 0.656250
0.575000 0.960000 0.656250
0.690000 0.960000 0.656250
0.805000 0.960000 0.656250
0.920000 0.960000 0.656250
0.016238 0.064952 0.884928
0.129594 0.058374 0.875061
0.242949 0.051796 0.865194
0.356305 0.045218 0.855327
0.469660 0.038640 0.845460
0.583016 0.032062 0.835593
0.696371 0.025484 0.825726
0.809727 0.018906 0.815859
0.923082 0.012328 0.805992
0.013009 0.172038 0.865557
0.126365 0.165460 0.855690
0.239721 0.158882 0.845823
0.353076 0.152304 0.835956
0.466431 0.145726 0.826089
0.579787 0.139148 0.816222
0.693143 0.132570 0.806355
0.806498 0.125992 0.796488
0.920000 0.120000 0.787500
0.009781 0.279124 0.846186
0.123137 0.272546 0.836319
0.236492 0.265968 0.826452
0.349848 0.259390 0.816585
0.463203 0.252812 0.806718
0.576559 0.246234 0.796851
0.690000 0.240000 0.787500
0.805000 0.240000 0.787500
0.920000 0.240000 0.787500
0.006552 0.386210 0.826815
0.119908 0.379632 0.816948
0.233264 0.373054 0.807081
0.346619 0.366476 0.797214
0.460000 0.360000 0.787500
0.575000 0.360000 0.787500
0.690000 0.360000 0.787500
0.805000 0.360000 0.787500
0.920000 0.360000 0.787500
0.003324 0.493296 0.807444
0.116680 0.486718 0.797577
0.230035 0.480140 0.787710
0.345000 0.480000 0.787500
0.460000 0.480000 0.787500
0.575000 0.480000 0.787500
0.690000 0.480000 0.787500
0.805000 0.480000 0.787500
0.920000 0.480000 0.787500
0.000095 0.600382 0.788073
0.115000 0.600000 0.787500
0.230000 0.600000 0.787500
0.345000 0.600000 0.787500
0.460000 0.600000 0.787500
0.575000 0.600000 0.787500
0.690000 0.600000 0.787500
0.805000 0.600000 0.787500
0.920000 0.600000 0.787500
0.000000 0.720000 0.787500
0.115000 0.720000 0.787500
0.230000 0.720000 0.787500
0.345000 0.720000 0.787500
0.460000 0.720000 0.787500
0.575000 0.720000 0.787500
0.690000 0.720000 0.787500
0.805000 0.720000 0.787500
0.920000 0.720000 0.787500
0.000000 0.840000 0.787500
0.115000 0.840000 0.787500
0.230000 0.840000 0.787500
0.345000 0.840000 0.787500
0.460000 0.840000 0.787500
0.575000 0.840000 0.787500
0.690000 0.840000 0.787500
0.805000 0.840000 0.787500
0.920000 0.840000 0.787500
0.000000 0.960000 0.787500
0.115000 0.960000 0.787500
0.230000 0.960000 0.787500
0.345000 0.960000 0.787500
0.460000 0.960000 0.787500
0.575000 0.960000 0.787500
0.690000 0.960000 0.787500
0.805000 0.960000 0.787500
0.920000 0.960000 0.787500
0.015611 0.062444 1.000000
0.128967 0.055866 1.000000
0.242322 0.049288 0.992682
0.355678 0.042710 0.982815
0.469033 0.036132 0.972948
0.582389 0.029554 0.963081
0.695744 0.022976 0.953214
0.809100 0.016398 0.943347
0.922455 0.009820 0.933480
0.012382 0.169530 0.993045
0.125738 0.162952 0.983178
0.239094 0.156374 0.973311
0.352449 0.149796 0.963444
0.465805 0.143218 0.953577
0.579160 0.136640 0.943710
0.692516 0.130062 0.933843
0.805871 0.123484 0.923976
0.920000 0.120000 0.918750
0.009154 0.276616 0.973674
0.122510 0.270038 0.963807
0.235865 0.263460 0.953940
0.349221 0.256882 0.944073
0.462576 0.250304 0.934206
0.575932 0.243726 0.924339
0.690000 0.240000 0.918750
0.805000 0.240000 0.918750
0.920000 0.240000 0.918750
0.005925 0.383702 0.954303
0.119281 0.377124 0.944436
0.232636 0.370546 0.934569
0.345992 0.363968 0.924702
0.460000 0.360000 0.918750
0.575000 0.360000 0.918750
0.690000 0.360000 0.918750
0.805000 0.360000 0.918750
0.920000 0.360000 0.918750
0.002697 0.490788 0.934932
0.116053 0.484210 0.925065
0.230000 0.480000 0.918750
0.345000 0.480000 0.918750
0.460000 0.480000 0.918750
0.575000 0.480000 0.918750
0.690000 0.480000 0.918750
0.805000 0.480000 0.918750
0.920000 0.480000 0.918750
0.000000 0.600000 0.918750
0.115000 0.600000 0.918750
0.230000 0.600000 0.918750
0.345000 0.600000 0.918750
0.460000 0.600000 0.918750
0.575000 0.600000 0.918750
0.690000 0.600000 0.918750
0.805000 0.600000 0.918750
0.920000 0.600000 0.918750
0.000000 0.720000 0.918750
0.115000 0.720000 0.918750
0.230000 0.720000 0.918750
0.345000 0.720000 0.918750
0.460000 0.720000 0.918750
0.575000 0.720000 0.918750
0.690000 0.720000 0.918750
0.805000 0.720000 0.918750
0.920000 0.720000 0.918750
0.000000 0.840000 0.918750
0.115000 0.840000 0.918750
0.230000 0.840000 0.918750
0.345000 0.840000 0.918750
0.460000 0.840000 0.918750
0.575000 0.840000 0.918750
0.690000 0.840000 0.918750
0.805000 0.840000 0.918750
0.920000 0.840000 0.918750
0.000000 0.960000 0.918750
0.115000 0.960000 0.918750
0.230000 0.960000 0.918750
0.345000 0.960000 0.918750
0.460000 0.960000 0.918750
0.575000 0.960000 0.918750
0.690000 0.960000 0.918750
0.805000 0.960000 0.918750
0.920000 0.960000 0.918750
0.014984 0.059936 1.000000
0.128339 0.053358 1.000000
0.241695 0.046780 1.000000
0.355051 0.040202 1.000000
0.468406 0.033624 1.000000
0.581762 0.027046 1.000000
0.695117 0.020468 1.000000
0.808473 0.013890 1.000000
0.921828 0.007312 1.000000
0.011755 0.167022 1.000000
0.125111 0.160444 1.000000
0.238466 0.153866 1.000000
0.351822 0.147288 1.000000
0.465178 0.140710 1.000000
0.578533 0.134132 1.000000
0.691889 0.127554 1.000000
0.805244 0.120976 1.000000
0.920000 0.120000 1.000000
0.008527 0.274108 1.000000
0.121883 0.267530 1.000000
0.235238 0.260952 1.000000
0.348594 0.254374 1.000000
0.461949 0.247796 1.000000
0.575305 0.241218 1.000000
0.690000 0.240000 1.000000
0.805000 0.240000 1.000000
0.920000 0.240000 1.000000
0.005298 0.381194 1.000000
0.118654 0.374616 1.000000
0.232010 0.368038 1.000000
0.345365 0.361460 1.000000
0.460000 0.360000 1.000000
0.575000 0.360000 1.000000
0.690000 0.360000 1.000000
0.805000 0.360000 1.000000
0.920000 0.360000 1.000000
0.002070 0.488280 1.000000
0.115426 0.481702 1.000000
0.230000 0.480000 1.000000
0.345000 0.480000 1.000000
0.460000 0.480000 1.000000
0.575000 0.480000 1.000000
0.690000 0.480000 1.000000
0.805000 0.480000 1.000000
0.920000 0.480000 1.000000
0.000000 0.600000 1.000000
0.115000 0.600000 1.000000
0.230000 0.600000 1.000000
0.345000 0.600000 1.000000
0.460000 0.600000 1.000000
0.575000 0.600000 1.000000
0.690000 0.600000 1.000000
0.805000 0.600000 1.000000
0.920000 0.600000 1.000000
0.000000 0.720000 1.000000
0.115000 0.720000 1.000000
0.230000 0.720000 1.000000
0.345000 0.720000 1.000000
0.460000 0.720000 1.000000
0.575000 0.720000 1.000000
0.690000 0.720000 1.000000
0.805000 0.720000 1.000000
0.920000 0.720000 1.000000
0.000000 0.840000 1.000000
0.115000 0.840000 1.000000
0.230000 0.840000 1.000000
0.345000 0.840000 1.000000
0.460000 0.840000 1.000000
0.575000 0.840000 1.000000
0.690000 0.840000 1.000000
0.805000 0.840000 1.000000
0.920000 0.840000 1.000000
0.000000 0.960000 1.000000
0.115000 0.960000 1.000000
0.230000 0.960000 1.000000
0.345000 0.960000 1.000000
0.460000 0.960000 1.000000
0.575000 0.960000 1.000000
0.690000 0.960000 1.000000
0.805000 0.960000 1.000000
0.920000 0.960000 1.000000
