backend/assets/luts/cool_teal.cube
TITLE "Cool Teal"
LUT_3D_SIZE 33
0.020000 0.080000 0.120000
0.048339 0.078355 0.117533
0.076678 0.076711 0.115067
0.105017 0.075066 0.112600
0.133356 0.073422 0.110133
0.161694 0.071777 0.107666
0.190033 0.070133 0.105200
0.218372 0.068488 0.102733
0.246711 0.066844 0.100266
0.275050 0.065199 0.097799
0.303389 0.063555 0.095333
0.331728 0.061911 0.092866
0.360067 0.060266 0.090399
0.388405 0.058621 0.087932
0.416744 0.056977 0.085465
0.445083 0.055333 0.082999
0.473422 0.053688 0.080532
0.501761 0.052043 0.078065
0.530100 0.050399 0.075598
0.558439 0.048754 0.073132
0.586778 0.047110 0.070665
0.615116 0.045465 0.068198
0.643455 0.043821 0.065731
0.671794 0.042176 0.063265
0.700133 0.040532 0.060798
0.728472 0.038887 0.058331
0.756811 0.037243 0.055864
0.785150 0.035598 0.053398
0.813489 0.033954 0.050931
0.841827 0.032309 0.048464
0.870166 0.030665 0.045998
0.898505 0.029020 0.043531
0.926844 0.027376 0.041064
0.019193 0.106772 0.115157
0.047532 0.105127 0.112690
0.075871 0.103483 0.110224
0.104210 0.101838 0.107757
0.132548 0.100194 0.105290
0.160887 0.098549 0.102823
0.189226 0.096905 0.100357
0.217565 0.095260 0.097890
0.245904 0.093615 0.095423
0.274243 0.091971 0.092956
0.302582 0.090327 0.090490
0.330921 0.088682 0.088023
0.359259 0.087037 0.085556
0.387598 0.085393 0.083089
0.415937 0.083749 0.080623
0.444276 0.082104 0.078156
0.472615 0.080459 0.075689
0.500954 0.078815 0.073222
0.529293 0.077171 0.070756
0.557632 0.075526 0.068289
0.585970 0.073881 0.065822
0.614309 0.072237 0.063355
0.642648 0.070593 0.060889
0.670987 0.068948 0.058422
0.699326 0.067303 0.055955
0.727665 0.065659 0.053489
0.756004 0.064015 0.051022
0.784342 0.062370 0.048555
0.812681 0.060725 0.046088
0.841020 0.059081 0.043622
0.869359 0.057437 0.041155
0.897698 0.055792 0.038688
0.926037 0.054148 0.036221
0.018386 0.133543 0.110314
0.046725 0.131899 0.107848
0.075064 0.130254 0.105381
0.103402 0.128609 0.102914
0.131741 0.126965 0.100447
0.160080 0.125321 0.097981
0.188419 0.123676 0.095514
0.216758 0.122032 0.093047
0.245097 0.120387 0.090581
0.273436 0.118743 0.088114
0.301775 0.117098 0.085647
0.330113 0.115454 0.083180
0.358452 0.113809 0.080713
0.386791 0.112165 0.078247
0.415130 0.110520 0.075780
0.443469 0.108876 0.073313
0.471808 0.107231 0.070846
0.500147 0.105586 0.068380
0.528486 0.103942 0.065913
0.556824 0.102297 0.063446
0.585163 0.100653 0.060979
0.613502 0.099008 0.058513
0.641841 0.097364 0.056046
0.670180 0.095719 0.053579
0.698519 0.094075 0.051112
0.726858 0.092430 0.048646
0.755197 0.090786 0.046179
0.783535 0.089141 0.043712
0.811874 0.087497 0.041245
0.840213 0.085852 0.038779
0.868552 0.084208 0.036312
0.896891 0.082563 0.033845
0.925230 0.080919 0.031378
0.017579 0.160314 0.105472
0.045917 0.158670 0.103005
0.074256 0.157025 0.100538
0.102595 0.155381 0.098071
0.130934 0.153736 0.095605
0.159273 0.152092 0.093138
0.187612 0.150448 0.090671
0.215951 0.148803 0.088204
0.244290 0.147158 0.085738
0.272629 0.145514 0.083271
0.300967 0.143870 0.080804
0.329306 0.142225 0.078338
0.357645 0.140580 0.075871
0.385984 0.138936 0.073404
0.414323 0.137292 0.070937
0.442662 0.135647 0.068471
0.471001 0.134002 0.066004
0.499339 0.132358 0.063537
0.527678 0.130713 0.061070
0.556017 0.129069 0.058603
0.584356 0.127424 0.056137
0.612695 0.125780 0.053670
0.641034 0.124136 0.051203
0.669373 0.122491 0.048736
0.697712 0.120846 0.046270
0.726051 0.119202 0.043803
0.754389 0.117557 0.041336
0.782728 0.115913 0.038869
0.811067 0.114268 0.036403
0.839406 0.112624 0.033936
0.867745 0.110980 0.031469
0.896084 0.109335 0.029002
0.924423 0.107690 0.026536
0.016771 0.187086 0.100629
0.045110 0.185441 0.098162
0.073449 0.183797 0.095695
0.101788 0.182152 0.093229
0.130127 0.180508 0.090762
0.158466 0.178864 0.088295
0.186805 0.177219 0.085828
0.215144 0.175574 0.083362
0.243483 0.173930 0.080895
0.271821 0.172286 0.078428
0.300160 0.170641 0.075962
0.328499 0.168996 0.073495
0.356838 0.167352 0.071028
0.385177 0.165708 0.068561
0.413516 0.164063 0.066095
0.441855 0.162418 0.063628
0.470194 0.160774 0.061161
0.498532 0.159129 0.058694
0.526871 0.157485 0.056227
0.555210 0.155840 0.053761
0.583549 0.154196 0.051294
0.611888 0.152552 0.048827
0.640227 0.150907 0.046361
0.668566 0.149262 0.043894
0.696905 0.147618 0.041427
0.725243 0.145973 0.038960
0.753582 0.144329 0.036493
0.781921 0.142684 0.034027
0.810260 0.141040 0.031560
0.838599 0.139396 0.029093
0.866938 0.137751 0.026627
0.895277 0.136106 0.024160
0.923616 0.134462 0.021693
0.015964 0.213857 0.095786
0.044303 0.212213 0.093319
0.072642 0.210568 0.090853
0.100981 0.208924 0.088386
0.129320 0.207280 0.085919
0.157659 0.205635 0.083452
0.185998 0.203991 0.080986
0.214337 0.202346 0.078519
0.242675 0.200702 0.076052
0.271014 0.199057 0.073585
0.299353 0.197412 0.071119
0.327692 0.195768 0.068652
0.356031 0.194124 0.066185
0.384370 0.192479 0.063718
0.412709 0.190834 0.061252
0.441048 0.189190 0.058785
0.469386 0.187546 0.056318
0.497725 0.185901 0.053851
0.526064 0.184256 0.051385
0.554403 0.182612 0.048918
0.582742 0.180968 0.046451
0.611081 0.179323 0.043985
0.639420 0.177679 0.041518
0.667759 0.176034 0.039051
0.696097 0.174389 0.036584
0.724436 0.172745 0.034117
0.752775 0.171100 0.031651
0.781114 0.169456 0.029184
0.809453 0.167812 0.026717
0.837792 0.166167 0.024251
0.866131 0.164523 0.021784
0.894470 0.162878 0.019317
0.922808 0.161233 0.016850
0.015157 0.240629 0.090943
0.043496 0.238984 0.088477
0.071835 0.237340 0.086010
0.100174 0.235696 0.083543
0.128513 0.234051 0.081076
0.156852 0.232407 0.078610
0.185191 0.230762 0.076143
0.213529 0.229117 0.073676
0.241868 0.227473 0.071209
0.270207 0.225828 0.068743
0.298546 0.224184 0.066276
0.326885 0.222540 0.063809
0.355224 0.220895 0.061343
0.383563 0.219250 0.058876
0.411902 0.217606 0.056409
0.440240 0.215962 0.053942
0.468579 0.214317 0.051476
0.496918 0.212672 0.049009
0.525257 0.211028 0.046542
0.553596 0.209384 0.044075
0.581935 0.207739 0.041608
0.610274 0.206094 0.039142
0.638613 0.204450 0.036675
0.666951 0.202805 0.034208
0.695290 0.201161 0.031741
0.723629 0.199516 0.029275
0.751968 0.197872 0.026808
0.780307 0.196227 0.024341
0.808646 0.194583 0.021874
0.836985 0.192938 0.019408
0.865324 0.191294 0.016941
0.893662 0.189649 0.014474
0.922001 0.188005 0.012007
0.014350 0.267400 0.086101
0.042689 0.265756 0.083634
0.071028 0.264111 0.081167
0.099367 0.262467 0.078700
0.127706 0.260823 0.076234
0.156045 0.259178 0.073767
0.184383 0.257533 0.071300
0.212722 0.255889 0.068833
0.241061 0.254244 0.066367
0.269400 0.252600 0.063900
0.297739 0.250955 0.061433
0.326078 0.249311 0.058966
0.354417 0.247666 0.056500
0.382756 0.246022 0.054033
0.411094 0.244377 0.051566
0.439433 0.242733 0.049099
0.467772 0.241088 0.046633
0.496111 0.239444 0.044166
0.524450 0.237799 0.041699
0.552789 0.236155 0.039232
0.581128 0.234511 0.036766
0.609467 0.232866 0.034299
0.637805 0.231221 0.031832
0.666144 0.229577 0.029365
0.694483 0.227932 0.026899
0.722822 0.226288 0.024432
0.751161 0.224643 0.021965
0.779500 0.222999 0.019498
0.807839 0.221354 0.017032
0.836178 0.219710 0.014565
0.864516 0.218065 0.012098
0.892855 0.216421 0.009631
0.921194 0.214776 0.007165
0.013543 0.294172 0.081258
0.041882 0.292527 0.078791
0.070221 0.290883 0.076325
0.098560 0.289239 0.073858
0.126898 0.287594 0.071391
0.155237 0.285949 0.068924
0.183576 0.284305 0.066457
0.211915 0.282660 0.063991
0.240254 0.281016 0.061524
0.268593 0.279371 0.059057
0.296932 0.277727 0.056590
0.325271 0.276083 0.054124
0.353610 0.274438 0.051657
0.381948 0.272793 0.049190
0.410287 0.271149 0.046723
0.438626 0.269504 0.044257
0.466965 0.267860 0.041790
0.495304 0.266215 0.039323
0.523643 0.264571 0.036856
0.551982 0.262927 0.034390
0.580321 0.261282 0.031923
0.608659 0.259637 0.029456
0.636998 0.257993 0.026989
0.665337 0.256348 0.024523
0.693676 0.254704 0.022056
0.722015 0.253059 0.019589
0.750354 0.251415 0.017122
0.778693 0.249770 0.014656
0.807032 0.248126 0.012189
0.835370 0.246481 0.009722
0.863709 0.244837 0.007255
0.892048 0.243192 0.004789
0.920387 0.241548 0.002322
0.012736 0.320944 0.076415
0.041075 0.319299 0.073949
0.069414 0.317655 0.071482
0.097753 0.316010 0.069015
0.126091 0.314366 0.066548
0.154430 0.312721 0.064081
0.182769 0.311077 0.061615
0.211108 0.309432 0.059148
0.239447 0.307788 0.056681
0.267786 0.306143 0.054214
0.296125 0.304499 0.051748
0.324464 0.302854 0.049281
0.352802 0.301210 0.046814
0.381141 0.299565 0.044347
0.409480 0.297921 0.041881
0.437819 0.296276 0.039414
0.466158 0.294631 0.036947
0.494497 0.292987 0.034480
0.522836 0.291343 0.032014
0.551175 0.289698 0.029547
0.579513 0.288054 0.027080
0.607852 0.286409 0.024614
0.636191 0.284765 0.022147
0.664530 0.283120 0.019680
0.692869 0.281475 0.017213
0.721208 0.279831 0.014747
0.749547 0.278187 0.012280
0.777886 0.276542 0.009813
0.806224 0.274898 0.007346
0.834563 0.273253 0.004880
0.862902 0.271609 0.002413
0.891250 0.270000 0.000000
0.920000 0.270000 0.000000
0.011929 0.347715 0.071572
0.040268 0.346071 0.069106
0.068607 0.344426 0.066639
0.096945 0.342781 0.064172
0.125284 0.341137 0.061705
0.153623 0.339492 0.059239
0.181962 0.337848 0.056772
0.210301 0.336203 0.054305
0.238640 0.334559 0.051839
0.266979 0.332915 0.049372
0.295318 0.331270 0.046905
0.323656 0.329626 0.044438
0.351995 0.327981 0.041972
0.380334 0.326336 0.039505
0.408673 0.324692 0.037038
0.437012 0.323047 0.034571
0.465351 0.321403 0.032104
0.493690 0.319759 0.029638
0.522029 0.318114 0.027171
0.550367 0.316470 0.024704
0.578706 0.314825 0.022238
0.607045 0.313180 0.019771
0.635384 0.311536 0.017304
0.663723 0.309891 0.014837
0.692062 0.308247 0.012370
0.720401 0.306603 0.009904
0.748740 0.304958 0.007437
0.777078 0.303313 0.004970
0.805417 0.301669 0.002504
0.833756 0.300024 0.000037
0.862500 0.300000 0.000000
0.891250 0.300000 0.000000
0.920000 0.300000 0.000000
0.011122 0.374486 0.066730
0.039461 0.372842 0.064263
0.067799 0.371197 0.061796
0.096138 0.369553 0.059329
0.124477 0.367908 0.056863
0.152816 0.366264 0.054396
0.181155 0.364619 0.051929
0.209494 0.362975 0.049462
0.237833 0.361330 0.046996
0.266172 0.359686 0.044529
0.294510 0.358041 0.042062
0.322849 0.356397 0.039596
0.351188 0.354752 0.037129
0.379527 0.353108 0.034662
0.407866 0.351463 0.032195
0.436205 0.349819 0.029728
0.464544 0.348174 0.027262
0.492883 0.346530 0.024795
0.521221 0.344885 0.022328
0.549560 0.343241 0.019861
0.577899 0.341596 0.017395
0.606238 0.339952 0.014928
0.634577 0.338307 0.012461
0.662916 0.336663 0.009994
0.691255 0.335018 0.007528
0.719593 0.333374 0.005061
0.747932 0.331729 0.002594
0.776271 0.330085 0.000127
0.805000 0.330000 0.000000
0.833750 0.330000 0.000000
0.862500 0.330000 0.000000
0.891250 0.330000 0.000000
0.920000 0.330000 0.000000
0.010315 0.401258 0.061887
0.038653 0.399613 0.059420
0.066992 0.397969 0.056953
0.095331 0.396324 0.054487
0.123670 0.394680 0.052020
0.152009 0.393035 0.049553
0.180348 0.391391 0.047086
0.208687 0.389746 0.044620
0.237026 0.388102 0.042153
0.265364 0.386458 0.039686
0.293703 0.384813 0.037220
0.322042 0.383168 0.034753
0.350381 0.381524 0.032286
0.378720 0.379879 0.029819
0.407059 0.378235 0.027352
0.435398 0.376590 0.024886
0.463736 0.374946 0.022419
0.492075 0.373302 0.019952
0.520414 0.371657 0.017486
0.548753 0.370012 0.015019
0.577092 0.368368 0.012552
0.605431 0.366723 0.010085
0.633770 0.365079 0.007618
0.662109 0.363434 0.005152
0.690448 0.361790 0.002685
0.718786 0.360146 0.000218
0.747500 0.360000 0.000000
0.776250 0.360000 0.000000
0.805000 0.360000 0.000000
0.833750 0.360000 0.000000
0.862500 0.360000 0.000000
0.891250 0.360000 0.000000
0.920000 0.360000 0.000000
0.009507 0.428030 0.057044
0.037846 0.426385 0.054577
0.066185 0.424741 0.052111
0.094524 0.423096 0.049644
0.122863 0.421451 0.047177
0.151202 0.419807 0.044710
0.179541 0.418162 0.042244
0.207880 0.416518 0.039777
0.236218 0.414874 0.037310
0.264557 0.413229 0.034843
0.292896 0.411585 0.032377
0.321235 0.409940 0.029910
0.349574 0.408296 0.027443
0.377913 0.406651 0.024976
0.406252 0.405006 0.022510
0.434591 0.403362 0.020043
0.462929 0.401718 0.017576
0.491268 0.400073 0.015109
0.519607 0.398429 0.012643
0.547946 0.396784 0.010176
0.576285 0.395140 0.007709
0.604624 0.393495 0.005242
0.632963 0.391850 0.002776
0.661301 0.390206 0.000309
0.690000 0.390000 0.000000
0.718750 0.390000 0.000000
0.747500 0.390000 0.000000
0.776250 0.390000 0.000000
0.805000 0.390000 0.000000
0.833750 0.390000 0.000000
0.862500 0.390000 0.000000
0.891250 0.390000 0.000000
0.920000 0.390000 0.000000
0.008700 0.454801 0.052201
0.037039 0.453156 0.049735
0.065378 0.451512 0.047268
0.093717 0.449867 0.044801
0.122056 0.448223 0.042334
0.150395 0.446578 0.039868
0.178734 0.444934 0.037401
0.207072 0.443290 0.034934
0.235411 0.441645 0.032467
0.263750 0.440000 0.030001
0.292089 0.438356 0.027534
0.320428 0.436711 0.025067
0.348767 0.435067 0.022600
0.377106 0.433422 0.020134
0.405445 0.431778 0.017667
0.433783 0.430134 0.015200
0.462122 0.428489 0.012734
0.490461 0.426844 0.010267
0.518800 0.425200 0.007800
0.547139 0.423555 0.005333
0.575478 0.421911 0.002866
0.603817 0.420266 0.000400
0.632500 0.420000 0.000000
0.661250 0.420000 0.000000
0.690000 0.420000 0.000000
0.718750 0.420000 0.000000
0.747500 0.420000 0.000000
0.776250 0.420000 0.000000
0.805000 0.420000 0.000000
0.833750 0.420000 0.000000
0.862500 0.420000 0.000000
0.891250 0.420000 0.000000
0.920000 0.420000 0.000000
0.007893 0.481572 0.047359
0.036232 0.479928 0.044892
0.064571 0.478283 0.042425
0.092910 0.476639 0.039959
0.121249 0.474994 0.037492
0.149588 0.473350 0.035025
0.177926 0.471705 0.032558
0.206265 0.470061 0.030092
0.234604 0.468416 0.027625
0.262943 0.466772 0.025158
0.291282 0.465127 0.022691
0.319621 0.463483 0.020224
0.347960 0.461838 0.017758
0.376299 0.460194 0.015291
0.404637 0.458549 0.012824
0.432976 0.456905 0.010358
0.461315 0.455260 0.007891
0.489654 0.453616 0.005424
0.517993 0.451971 0.002957
0.546332 0.450327 0.000490
0.575000 0.450000 0.000000
0.603750 0.450000 0.000000
0.632500 0.450000 0.000000
0.661250 0.450000 0.000000
0.690000 0.450000 0.000000
0.718750 0.450000 0.000000
0.747500 0.450000 0.000000
0.776250 0.450000 0.000000
0.805000 0.450000 0.000000
0.833750 0.450000 0.000000
0.862500 0.450000 0.000000
0.891250 0.450000 0.000000
0.920000 0.450000 0.000000
0.007086 0.508344 0.042516
0.035425 0.506699 0.040049
0.063764 0.505055 0.037582
0.092103 0.503410 0.035116
0.120442 0.501766 0.032649
0.148780 0.500121 0.030182
0.177119 0.498477 0.027715
0.205458 0.496833 0.025249
0.233797 0.495188 0.022782
0.262136 0.493543 0.020315
0.290475 0.491899 0.017848
0.318814 0.490254 0.015382
0.347153 0.488610 0.012915
0.375491 0.486965 0.010448
0.403830 0.485321 0.007981
0.432169 0.483677 0.005515
0.460508 0.482032 0.003048
0.488847 0.480387 0.000581
0.517500 0.480000 0.000000
0.546250 0.480000 0.000000
0.575000 0.480000 0.000000
0.603750 0.480000 0.000000
0.632500 0.480000 0.000000
0.661250 0.480000 0.000000
0.690000 0.480000 0.000000
0.718750 0.480000 0.000000
0.747500 0.480000 0.000000
0.776250 0.480000 0.000000
0.805000 0.480000 0.000000
0.833750 0.480000 0.000000
0.862500 0.480000 0.000000
0.891250 0.480000 0.000000
0.920000 0.480000 0.000000
0.006279 0.535115 0.037673
0.034618 0.533471 0.035207
0.062957 0.531826 0.032740
0.091296 0.530182 0.030273
0.119634 0.528537 0.027806
0.147973 0.526893 0.025340
0.176312 0.525249 0.022873
0.204651 0.523604 0.020406
0.232990 0.521960 0.017939
0.261329 0.520315 0.015473
0.289668 0.518671 0.013006
0.318007 0.517026 0.010539
0.346345 0.515382 0.008072
0.374684 0.513737 0.005605
0.403023 0.512093 0.003139
0.431362 0.510448 0.000672
0.460000 0.510000 0.000000
0.488750 0.510000 0.000000
0.517500 0.510000 0.000000
0.546250 0.510000 0.000000
0.575000 0.510000 0.000000
0.603750 0.510000 0.000000
0.632500 0.510000 0.000000
0.661250 0.510000 0.000000
0.690000 0.510000 0.000000
0.718750 0.510000 0.000000
0.747500 0.510000 0.000000
0.776250 0.510000 0.000000
0.805000 0.510000 0.000000
0.833750 0.510000 0.000000
0.862500 0.510000 0.000000
0.891250 0.510000 0.000000
0.920000 0.510000 0.000000
0.005472 0.561887 0.032830
0.033811 0.560243 0.030364
0.062150 0.558598 0.027897
0.090488 0.556953 0.025430
0.118827 0.555309 0.022963
0.147166 0.553665 0.020497
0.175505 0.552020 0.018030
0.203844 0.550376 0.015563
0.232183 0.548731 0.013096
0.260522 0.547087 0.010630
0.288861 0.545442 0.008163
0.317199 0.543798 0.005696
0.345538 0.542153 0.003229
0.373877 0.540509 0.000763
0.402500 0.540000 0.000000
0.431250 0.540000 0.000000
0.460000 0.540000 0.000000
0.488750 0.540000 0.000000
0.517500 0.540000 0.000000
0.546250 0.540000 0.000000
0.575000 0.540000 0.000000
0.603750 0.540000 0.000000
0.632500 0.540000 0.000000
0.661250 0.540000 0.000000
0.690000 0.540000 0.000000
0.718750 0.540000 0.000000
0.747500 0.540000 0.000000
0.776250 0.540000 0.000000
0.805000 0.540000 0.000000
0.833750 0.540000 0.000000
0.862500 0.540000 0.000000
0.891250 0.540000 0.000000
0.920000 0.540000 0.000000
0.004665 0.588658 0.027988
0.033004 0.587014 0.025521
0.061342 0.585369 0.023054
0.089681 0.583725 0.020587
0.118020 0.582081 0.018121
0.146359 0.580436 0.015654
0.174698 0.578791 0.013187
0.203037 0.577147 0.010721
0.231376 0.575502 0.008254
0.259715 0.573858 0.005787
0.288053 0.572213 0.003320
0.316392 0.570569 0.000854
0.345000 0.570000 0.000000
0.373750 0.570000 0.000000
0.402500 0.570000 0.000000
0.431250 0.570000 0.000000
0.460000 0.570000 0.000000
0.488750 0.570000 0.000000
0.517500 0.570000 0.000000
0.546250 0.570000 0.000000
0.575000 0.570000 0.000000
0.603750 0.570000 0.000000
0.632500 0.570000 0.000000
0.661250 0.570000 0.000000
0.690000 0.570000 0.000000
0.718750 0.570000 0.000000
0.747500 0.570000 0.000000
0.776250 0.570000 0.000000
0.805000 0.570000 0.000000
0.833750 0.570000 0.000000
0.862500 0.570000 0.000000
0.891250 0.570000 0.000000
0.920000 0.570000 0.000000
0.003858 0.615430 0.023145
0.032196 0.613785 0.020678
0.060535 0.612141 0.018212
0.088874 0.610496 0.015745
0.117213 0.608852 0.013278
0.145552 0.607208 0.010811
0.173891 0.605563 0.008345
0.202230 0.603919 0.005878
0.230569 0.602274 0.003411
0.258907 0.600630 0.000944
0.287500 0.600000 0.000000
0.316250 0.600000 0.000000
0.345000 0.600000 0.000000
0.373750 0.600000 0.000000
0.402500 0.600000 0.000000
0.431250 0.600000 0.000000
0.460000 0.600000 0.000000
0.488750 0.600000 0.000000
0.517500 0.600000 0.000000
0.546250 0.600000 0.000000
0.575000 0.600000 0.000000
0.603750 0.600000 0.000000
0.632500 0.600000 0.000000
0.661250 0.600000 0.000000
0.690000 0.600000 0.000000
0.718750 0.600000 0.000000
0.747500 0.600000 0.000000
0.776250 0.600000 0.000000
0.805000 0.600000 0.000000
0.833750 0.600000 0.000000
0.862500 0.600000 0.000000
0.891250 0.600000 0.000000
0.920000 0.600000 0.000000
0.003050 0.642201 0.018302
0.031389 0.640557 0.015835
0.059728 0.638912 0.013369
0.088067 0.637268 0.010902
0.116406 0.635624 0.008435
0.144745 0.633979 0.005968
0.173084 0.632335 0.003502
0.201423 0.630690 0.001035
0.230000 0.630000 0.000000
0.258750 0.630000 0.000000
0.287500 0.630000 0.000000
0.316250 0.630000 0.000000
0.345000 0.630000 0.000000
0.373750 0.630000 0.000000
0.402500 0.630000 0.000000
0.431250 0.630000 0.000000
0.460000 0.630000 0.000000
0.488750 0.630000 0.000000
0.517500 0.630000 0.000000
0.546250 0.630000 0.000000
0.575000 0.630000 0.000000
0.603750 0.630000 0.000000
0.632500 0.630000 0.000000
0.661250 0.630000 0.000000
0.690000 0.630000 0.000000
0.718750 0.630000 0.000000
0.747500 0.630000 0.000000
0.776250 0.630000 0.000000
0.805000 0.630000 0.000000
0.833750 0.630000 0.000000
0.862500 0.630000 0.000000
0.891250 0.630000 0.000000
0.920000 0.630000 0.000000
0.002243 0.668973 0.013459
0.030582 0.667328 0.010993
0.058921 0.665684 0.008526
0.087260 0.664039 0.006059
0.115599 0.662395 0.003592
0.143938 0.660750 0.001126
0.172500 0.660000 0.000000
0.201250 0.660000 0.000000
0.230000 0.660000 0.000000
0.258750 0.660000 0.000000
0.287500 0.660000 0.000000
0.316250 0.660000 0.000000
0.345000 0.660000 0.000000
0.373750 0.660000 0.000000
0.402500 0.660000 0.000000
0.431250 0.660000 0.000000
0.460000 0.660000 0.000000
0.488750 0.660000 0.000000
0.517500 0.660000 0.000000
0.546250 0.660000 0.000000
0.575000 0.660000 0.000000
0.603750 0.660000 0.000000
0.632500 0.660000 0.000000
0.661250 0.660000 0.000000
0.690000 0.660000 0.000000
0.718750 0.660000 0.000000
0.747500 0.660000 0.000000
0.776250 0.660000 0.000000
0.805000 0.660000 0.000000
0.833750 0.660000 0.000000
0.862500 0.660000 0.000000
0.891250 0.660000 0.000000
0.920000 0.660000 0.000000
0.001436 0.695744 0.008617
0.029775 0.694100 0.006150
0.058114 0.692455 0.003683
0.086453 0.690811 0.001216
0.115000 0.690000 0.000000
0.143750 0.690000 0.000000
0.172500 0.690000 0.000000
0.201250 0.690000 0.000000
0.230000 0.690000 0.000000
0.258750 0.690000 0.000000
0.287500 0.690000 0.000000
0.316250 0.690000 0.000000
0.345000 0.690000 0.000000
0.373750 0.690000 0.000000
0.402500 0.690000 0.000000
0.431250 0.690000 0.000000
0.460000 0.690000 0.000000
0.488750 0.690000 0.000000
0.517500 0.690000 0.000000
0.546250 0.690000 0.000000
0.575000 0.690000 0.000000
0.603750 0.690000 0.000000
0.632500 0.690000 0.000000
0.661250 0.690000 0.000000
0.690000 0.690000 0.000000
0.718750 0.690000 0.000000
0.747500 0.690000 0.000000
0.776250 0.690000 0.000000
0.805000 0.690000 0.000000
0.833750 0.690000 0.000000
0.862500 0.690000 0.000000
0.891250 0.690000 0.000000
0.920000 0.690000 0.000000
0.000629 0.722516 0.003774
0.028968 0.720871 0.001307
0.057500 0.720000 0.000000
0.086250 0.720000 0.000000
0.115000 0.720000 0.000000
0.143750 0.720000 0.000000
0.172500 0.720000 0.000000
0.201250 0.720000 0.000000
0.230000 0.720000 0.000000
0.258750 0.720000 0.000000
0.287500 0.720000 0.000000
0.316250 0.720000 0.000000
0.345000 0.720000 0.000000
0.373750 0.720000 0.000000
0.402500 0.720000 0.000000
0.431250 0.720000 0.000000
0.460000 0.720000 0.000000
0.488750 0.720000 0.000000
0.517500 0.720000 0.000000
0.546250 0.720000 0.000000
0.575000 0.720000 0.000000
0.603750 0.720000 0.000000
0.632500 0.720000 0.000000
0.661250 0.720000 0.000000
0.690000 0.720000 0.000000
0.718750 0.720000 0.000000
0.747500 0.720000 0.000000
0.776250 0.720000 0.000000
0.805000 0.720000 0.000000
0.833750 0.720000 0.000000
0.862500 0.720000 0.000000
0.891250 0.720000 0.000000
0.920000 0.720000 0.000000
0.000000 0.750000 0.000000
0.028750 0.750000 0.000000
0.057500 0.750000 0.000000
0.086250 0.750000 0.000000
0.115000 0.750000 0.000000
0.143750 0.750000 0.000000
0.172500 0.750000 0.000000
0.201250 0.750000 0.000000
0.230000 0.750000 0.000000
0.258750 0.750000 0.000000
0.287500 0.750000 0.000000
0.316250 0.750000 0.000000
0.345000 0.750000 0.000000
0.373750 0.750000 0.000000
0.402500 0.750000 0.000000
0.431250 0.750000 0.000000
0.460000 0.750000 0.000000
0.488750 0.750000 0.000000
0.517500 0.750000 0.000000
0.546250 0.750000 0.000000
0.575000 0.750000 0.000000
0.603750 0.750000 0.000000
0.632500 0.750000 0.000000
0.661250 0.750000 0.000000
0.690000 0.750000 0.000000
0.718750 0.750000 0.000000
0.747500 0.750000 0.000000
0.776250 0.750000 0.000000
0.805000 0.750000 0.000000
0.833750 0.750000 0.000000
0.862500 0.750000 0.000000
0.891250 0.750000 0.000000
0.920000 0.750000 0.000000
0.000000 0.780000 0.000000
0.028750 0.780000 0.000000
0.057500 0.780000 0.000000
0.086250 0.780000 0.000000
0.115000 0.780000 0.000000
0.143750 0.780000 0.000000
0.172500 0.780000 0.000000
0.201250 0.780000 0.000000
0.230000 0.780000 0.000000
0.258750 0.780000 0.000000
0.287500 0.780000 0.000000
0.316250 0.780000 0.000000
0.345000 0.780000 0.000000
0.373750 0.780000 0.000000
0.402500 0.780000 0.000000
0.431250 0.780000 0.000000
0.460000 0.780000 0.000000
0.488750 0.780000 0.000000
0.517500 0.780000 0.000000
0.546250 0.780000 0.000000
0.575000 0.780000 0.000000
0.603750 0.780000 0.000000
0.632500 0.780000 0.000000
0.661250 0.780000 0.000000
0.690000 0.780000 0.000000
0.718750 0.780000 0.000000
0.747500 0.780000 0.000000
0.776250 0.780000 0.000000
0.805000 0.780000 0.000000
