backend/assets/luts/high_contrast_commercial.cube
TITLE "High Contrast Commercial"
LUT_3D_SIZE 9
0.000000 0.000000 0.000000
0.031250 0.000000 0.000000
0.187500 0.000000 0.000000
0.343750 0.000000 0.000000
0.500000 0.000000 0.000000
0.656250 0.000000 0.000000
0.812500 0.000000 0.000000
0.968750 0.000000 0.000000
1.000000 0.000000 0.000000
0.000000 0.031250 0.000000
0.031250 0.031250 0.000000
0.187500 0.031250 0.000000
0.343750 0.031250 0.000000
0.500000 0.031250 0.000000
0.656250 0.031250 0.000000
0.812500 0.031250 0.000000
0.968750 0.031250 0.000000
1.000000 0.031250 0.000000
0.000000 0.187500 0.000000
0.031250 0.187500 0.000000
0.187500 0.187500 0.000000
0.343750 0.187500 0.000000
0.500000 0.187500 0.000000
0.656250 0.187500 0.000000
0.812500 0.187500 0.000000
0.968750 0.187500 0.000000
1.000000 0.187500 0.000000
0.000000 0.343750 0.000000
0.031250 0.343750 0.000000
0.187500 0.343750 0.000000
0.343750 0.343750 0.000000
0.500000 0.343750 0.000000
0.656250 0.343750 0.000000
0.812500 0.343750 0.000000
0.968750 0.343750 0.000000
1.000000 0.343750 0.000000
0.000000 0.500000 0.000000
0.031250 0.500000 0.000000
0.187500 0.500000 0.000000
0.343750 0.500000 0.000000
0.500000 0.500000 0.000000
0.656250 0.500000 0.000000
0.812500 0.500000 0.000000
0.968750 0.500000 0.000000
1.000000 0.500000 0.000000
0.000000 0.656250 0.000000
0.031250 0.656250 0.000000
0.187500 0.656250 0.000000
0.343750 0.656250 0.000000
0.500000 0.656250 0.000000
0.656250 0.656250 0.000000
0.812500 0.656250 0.000000
0.968750 0.656250 0.000000
1.000000 0.656250 0.000000
0.000000 0.812500 0.000000
0.031250 0.812500 0.000000
0.187500 0.812500 0.000000
0.343750 0.812500 0.000000
0.500000 0.812500 0.000000
0.656250 0.812500 0.000000
0.812500 0.812500 0.000000
0.968750 0.812500 0.000000
1.000000 0.812500 0.000000
0.000000 0.968750 0.000000
0.031250 0.968750 0.000000
0.187500 0.968750 0.000000
0.343750 0.968750 0.000000
0.500000 0.968750 0.000000
0.656250 0.968750 0.000000
0.812500 0.968750 0.000000
0.968750 0.968750 0.000000
1.000000 0.968750 0.000000
0.000000 1.000000 0.000000
0.031250 1.000000 0.000000
0.187500 1.000000 0.000000
0.343750 1.000000 0.000000
0.500000 1.000000 0.000000
0.656250 1.000000 0.000000
0.812500 1.000000 0.000000
0.968750 1.000000 0.000000
1.000000 1.000000 0.000000
0.000000 0.000000 0.031250
0.031250 0.000000 0.031250
0.187500 0.000000 0.031250
0.343750 0.000000 0.031250
0.500000 0.000000 0.031250
0.656250 0.000000 0.031250
0.812500 0.000000 0.031250
0.968750 0.000000 0.031250
1.000000 0.000000 0.031250
0.000000 0.031250 0.031250
0.031250 0.031250 0.031250
0.187500 0.031250 0.031250
0.343750 0.031250 0.031250
0.500000 0.031250 0.031250
0.656250 0.031250 0.031250
0.812500 0.031250 0.031250
0.968750 0.031250 0.031250
1.000000 0.031250 0.031250
0.000000 0.187500 0.031250
0.031250 0.187500 0.031250
0.187500 0.187500 0.031250
0.343750 0.187500 0.031250
0.500000 0.187500 0.031250
0.656250 0.187500 0.031250
0.812500 0.187500 0.031250
0.968750 0.187500 0.031250
1.000000 0.187500 0.031250
0.000000 0.343750 0.031250
0.031250 0.343750 0.031250
0.187500 0.343750 0.031250
0.343750 0.343750 0.031250
0.500000 0.343750 0.031250
0.656250 0.343750 0.031250
0.812500 0.343750 0.031250
0.968750 0.343750 0.031250
1.000000 0.343750 0.031250
0.000000 0.500000 0.031250
0.031250 0.500000 0.031250
0.187500 0.500000 0.031250
0.343750 0.500000 0.031250
0.500000 0.500000 0.031250
0.656250 0.500000 0.031250
0.812500 0.500000 0.031250
0.968750 0.500000 0.031250
1.000000 0.500000 0.031250
0.000000 0.656250 0.031250
0.031250 0.656250 0.031250
0.187500 0.656250 0.031250
0.343750 0.656250 0.031250
0.500000 0.656250 0.031250
0.656250 0.656250 0.031250
0.812500 0.656250 0.031250
0.968750 0.656250 0.031250
1.000000 0.656250 0.031250
0.000000 0.812500 0.031250
0.031250 0.812500 0.031250
0.187500 0.812500 0.031250
0.343750 0.812500 0.031250
0.500000 0.812500 0.031250
0.656250 0.812500 0.031250
0.812500 0.812500 0.031250
0.968750 0.812500 0.031250
1.000000 0.812500 0.031250
0.000000 0.968750 0.031250
0.031250 0.968750 0.031250
0.187500 0.968750 0.031250
0.343750 0.968750 0.031250
0.500000 0.968750 0.031250
0.656250 0.968750 0.031250
0.812500 0.968750 0.031250
0.968750 0.968750 0.031250
1.000000 0.968750 0.031250
0.000000 1.000000 0.031250
0.031250 1.000000 0.031250
0.187500 1.000000 0.031250
0.343750 1.000000 0.031250
0.500000 1.000000 0.031250
0.656250 1.000000 0.031250
0.812500 1.000000 0.031250
0.968750 1.000000 0.031250
1.000000 1.000000 0.031250
0.000000 0.000000 0.187500
0.031250 0.000000 0.187500
0.187500 0.000000 0.187500
0.343750 0.000000 0.187500
0.500000 0.000000 0.187500
0.656250 0.000000 0.187500
0.812500 0.000000 0.187500
0.968750 0.000000 0.187500
1.000000 0.000000 0.187500
0.000000 0.031250 0.187500
0.031250 0.031250 0.187500
0.187500 0.031250 0.187500
0.343750 0.031250 0.187500
0.500000 0.031250 0.187500
0.656250 0.031250 0.187500
0.812500 0.031250 0.187500
0.968750 0.031250 0.187500
1.000000 0.031250 0.187500
0.000000 0.187500 0.187500
0.031250 0.187500 0.187500
0.187500 0.187500 0.187500
0.343750 0.187500 0.187500
0.500000 0.187500 0.187500
0.656250 0.187500 0.187500
0.812500 0.187500 0.187500
0.968750 0.187500 0.187500
1.000000 0.187500 0.187500
0.000000 0.343750 0.187500
0.031250 0.343750 0.187500
0.187500 0.343750 0.187500
0.343750 0.343750 0.187500
0.500000 0.343750 0.187500
0.656250 0.343750 0.187500
0.812500 0.343750 0.187500
0.968750 0.343750 0.187500
1.000000 0.343750 0.187500
0.000000 0.500000 0.187500
0.031250 0.500000 0.187500
0.187500 0.500000 0.187500
0.343750 0.500000 0.187500
0.500000 0.500000 0.187500
0.656250 0.500000 0.187500
0.812500 0.500000 0.187500
0.968750 0.500000 0.187500
1.000000 0.500000 0.187500
0.000000 0.656250 0.187500
0.031250 0.656250 0.187500
0.187500 0.656250 0.187500
0.343750 0.656250 0.187500
0.500000 0.656250 0.187500
0.656250 0.656250 0.187500
0.812500 0.656250 0.187500
0.968750 0.656250 0.187500
1.000000 0.656250 0.187500
0.000000 0.812500 0.187500
0.031250 0.812500 0.187500
0.187500 0.812500 0.187500
0.343750 0.812500 0.187500
0.500000 0.812500 0.187500
0.656250 0.812500 0.187500
0.812500 0.812500 0.187500
0.968750 0.812500 0.187500
1.000000 0.812500 0.187500
0.000000 0.968750 0.187500
0.031250 0.968750 0.187500
0.187500 0.968750 0.187500
0.343750 0.968750 0.187500
0.500000 0.968750 0.187500
0.656250 0.968750 0.187500
0.812500 0.968750 0.187500
0.968750 0.968750 0.187500
1.000000 0.968750 0.187500
0.000000 1.000000 0.187500
0.031250 1.000000 0.187500
0.187500 1.000000 0.187500
0.343750 1.000000 0.187500
0.500000 1.000000 0.187500
0.656250 1.000000 0.187500
0.812500 1.000000 0.187500
0.968750 1.000000 0.187500
1.000000 1.000000 0.187500
0.000000 0.000000 0.343750
0.031250 0.000000 0.343750
0.187500 0.000000 0.343750
0.343750 0.000000 0.343750
0.500000 0.000000 0.343750
0.656250 0.000000 0.343750
0.812500 0.000000 0.343750
0.968750 0.000000 0.343750
1.000000 0.000000 0.343750
0.000000 0.031250 0.343750
0.031250 0.031250 0.343750
0.187500 0.031250 0.343750
0.343750 0.031250 0.343750
0.500000 0.031250 0.343750
0.656250 0.031250 0.343750
0.812500 0.031250 0.343750
0.968750 0.031250 0.343750
1.000000 0.031250 0.343750
0.000000 0.187500 0.343750
0.031250 0.187500 0.343750
0.187500 0.187500 0.343750
0.343750 0.187500 0.343750
0.500000 0.187500 0.343750
0.656250 0.187500 0.343750
0.812500 0.187500 0.343750
0.968750 0.187500 0.343750
1.000000 0.187500 0.343750
0.000000 0.343750 0.343750
0.031250 0.343750 0.343750
0.187500 0.343750 0.343750
0.343750 0.343750 0.343750
0.500000 0.343750 0.343750
0.656250 0.343750 0.343750
0.812500 0.343750 0.343750
0.968750 0.343750 0.343750
1.000000 0.343750 0.343750
0.000000 0.500000 0.343750
0.031250 0.500000 0.343750
0.187500 0.500000 0.343750
0.343750 0.500000 0.343750
0.500000 0.500000 0.343750
0.656250 0.500000 0.343750
0.812500 0.500000 0.343750
0.968750 0.500000 0.343750
1.000000 0.500000 0.343750
0.000000 0.656250 0.343750
0.031250 0.656250 0.343750
0.187500 0.656250 0.343750
0.343750 0.656250 0.343750
0.500000 0.656250 0.343750
0.656250 0.656250 0.343750
0.812500 0.656250 0.343750
0.968750 0.656250 0.343750
1.000000 0.656250 0.343750
0.000000 0.812500 0.343750
0.031250 0.812500 0.343750
0.187500 0.812500 0.343750
0.343750 0.812500 0.343750
0.500000 0.812500 0.343750
0.656250 0.812500 0.343750
0.812500 0.812500 0.343750
0.968750 0.812500 0.343750
1.000000 0.812500 0.343750
0.000000 0.968750 0.343750
0.031250 0.968750 0.343750
0.187500 0.968750 0.343750
0.343750 0.968750 0.343750
0.500000 0.968750 0.343750
0.656250 0.968750 0.343750
0.812500 0.968750 0.343750
0.968750 0.968750 0.343750
1.000000 0.968750 0.343750
0.000000 1.000000 0.343750
0.031250 1.000000 0.343750
0.187500 1.000000 0.343750
0.343750 1.000000 0.343750
0.500000 1.000000 0.343750
0.656250 1.000000 0.343750
0.812500 1.000000 0.343750
0.968750 1.000000 0.343750
1.000000 1.000000 0.343750
0.000000 0.000000 0.500000
0.031250 0.000000 0.500000
0.187500 0.000000 0.500000
0.343750 0.000000 0.500000
0.500000 0.000000 0.500000
0.656250 0.000000 0.500000
0.812500 0.000000 0.500000
0.968750 0.000000 0.500000
1.000000 0.000000 0.500000
0.000000 0.031250 0.500000
0.031250 0.031250 0.500000
0.187500 0.031250 0.500000
0.343750 0.031250 0.500000
0.500000 0.031250 0.500000
0.656250 0.031250 0.500000
0.812500 0.031250 0.500000
0.968750 0.031250 0.500000
1.000000 0.031250 0.500000
0.000000 0.187500 0.500000
0.031250 0.187500 0.500000
0.187500 0.187500 0.500000
0.343750 0.187500 0.500000
0.500000 0.187500 0.500000
0.656250 0.187500 0.500000
0.812500 0.187500 0.500000
0.968750 0.187500 0.500000
1.000000 0.187500 0.500000
0.000000 0.343750 0.500000
0.031250 0.343750 0.500000
0.187500 0.343750 0.500000
0.343750 0.343750 0.500000
0.500000 0.343750 0.500000
0.656250 0.343750 0.500000
0.812500 0.343750 0.500000
0.968750 0.343750 0.500000
1.000000 0.343750 0.500000
0.000000 0.500000 0.500000
0.031250 0.500000 0.500000
0.187500 0.500000 0.500000
0.343750 0.500000 0.500000
0.500000 0.500000 0.500000
0.656250 0.500000 0.500000
0.812500 0.500000 0.500000
0.968750 0.500000 0.500000
1.000000 0.500000 0.500000
0.000000 0.656250 0.500000
0.031250 0.656250 0.500000
0.187500 0.656250 0.500000
0.343750 0.656250 0.500000
0.500000 0.656250 0.500000
0.656250 0.656250 0.500000
0.812500 0.656250 0.500000
0.968750 0.656250 0.500000
1.000000 0.656250 0.500000
0.000000 0.812500 0.500000
0.031250 0.812500 0.500000
0.187500 0.812500 0.500000
0.343750 0.812500 0.500000
0.500000 0.812500 0.500000
0.656250 0.812500 0.500000
0.812500 0.812500 0.500000
0.968750 0.812500 0.500000
1.000000 0.812500 0.500000
0.000000 0.968750 0.500000
0.031250 0.968750 0.500000
0.187500 0.968750 0.500000
0.343750 0.968750 0.500000
0.500000 0.968750 0.500000
0.656250 0.968750 0.500000
0.812500 0.968750 0.500000
0.968750 0.968750 0.500000
1.000000 0.968750 0.500000
0.000000 1.000000 0.500000
0.031250 1.000000 0.500000
0.187500 1.000000 0.500000
0.343750 1.000000 0.500000
0.500000 1.000000 0.500000
0.656250 1.000000 0.500000
0.812500 1.000000 0.500000
0.968750 1.000000 0.500000
1.000000 1.000000 0.500000
0.000000 0.000000 0.656250
0.031250 0.000000 0.656250
0.187500 0.000000 0.656250
0.343750 0.000000 0.656250
0.500000 0.000000 0.656250
0.656250 0.000000 0.656250
0.812500 0.000000 0.656250
0.968750 0.000000 0.656250
1.000000 0.000000 0.656250
0.000000 0.031250 0.656250
0.031250 0.031250 0.656250
0.187500 0.031250 0.656250
0.343750 0.031250 0.656250
0.500000 0.031250 0.656250
0.656250 0.031250 0.656250
0.812500 0.031250 0.656250
0.968750 0.031250 0.656250
1.000000 0.031250 0.656250
0.000000 0.187500 0.656250
0.031250 0.187500 0.656250
0.187500 0.187500 0.656250
0.343750 0.187500 0.656250
0.500000 0.187500 0.656250
0.656250 0.187500 0.656250
0.812500 0.187500 0.656250
0.968750 0.187500 0.656250
1.000000 0.187500 0.656250
0.000000 0.343750 0.656250
0.031250 0.343750 0.656250
0.187500 0.343750 0.656250
0.343750 0.343750 0.656250
0.500000 0.343750 0.656250
0.656250 0.343750 0.656250
0.812500 0.343750 0.656250
0.968750 0.343750 0.656250
1.000000 0.343750 0.656250
0.000000 0.500000 0.656250
0.031250 0.500000 0.656250
0.187500 0.500000 0.656250
0.343750 0.500000 0.656250
0.500000 0.500000 0.656250
0.656250 0.500000 0.656250
0.812500 0.500000 0.656250
0.968750 0.500000 0.656250
1.000000 0.500000 0.656250
0.000000 0.656250 0.656250
0.031250 0.656250 0.656250
0.187500 0.656250 0.656250
0.343750 0.656250 0.656250
0.500000 0.656250 0.656250
0.656250 0.656250 0.656250
0.812500 0.656250 0.656250
0.968750 0.656250 0.656250
1.000000 0.656250 0.656250
0.000000 0.812500 0.656250
0.031250 0.812500 0.656250
0.187500 0.812500 0.656250
0.343750 0.812500 0.656250
0.500000 0.812500 0.656250
0.656250 0.812500 0.656250
0.812500 0.812500 0.656250
0.968750 0.812500 0.656250
1.000000 0.812500 0.656250
0.000000 0.968750 0.656250
0.031250 0.968750 0.656250
0.187500 0.968750 0.656250
0.343750 0.968750 0.656250
0.500000 0.968750 0.656250
0.656250 0.968750 0.656250
0.812500 0.968750 0.656250
0.968750 0.968750 0.656250
1.000000 0.968750 0.656250
0.000000 1.000000 0.656250
0.031250 1.000000 0.656250
0.187500 1.000000 0.656250
0.343750 1.000000 0.656250
0.500000 1.000000 0.656250
0.656250 1.000000 0.656250
0.812500 1.000000 0.656250
0.968750 1.000000 0.656250
1.000000 1.000000 0.656250
0.000000 0.000000 0.812500
0.031250 0.000000 0.812500
0.187500 0.000000 0.812500
0.343750 0.000000 0.812500
0.500000 0.000000 0.812500
0.656250 0.000000 0.812500
0.812500 0.000000 0.812500
0.968750 0.000000 0.812500
1.000000 0.000000 0.812500
0.000000 0.031250 0.812500
0.031250 0.031250 0.812500
0.187500 0.031250 0.812500
0.343750 0.031250 0.812500
0.500000 0.031250 0.812500
0.656250 0.031250 0.812500
0.812500 0.031250 0.812500
0.968750 0.031250 0.812500
1.000000 0.031250 0.812500
0.000000 0.187500 0.812500
0.031250 0.187500 0.812500
0.187500 0.187500 0.812500
0.343750 0.187500 0.812500
0.500000 0.187500 0.812500
0.656250 0.187500 0.812500
0.812500 0.187500 0.812500
0.968750 0.187500 0.812500
1.000000 0.187500 0.812500
0.000000 0.343750 0.812500
0.031250 0.343750 0.812500
0.187500 0.343750 0.812500
0.343750 0.343750 0.812500
0.500000 0.343750 0.812500
0.656250 0.343750 0.812500
0.812500 0.343750 0.812500
0.968750 0.343750 0.812500
1.000000 0.343750 0.812500
0.000000 0.500000 0.812500
0.031250 0.500000 0.812500
0.187500 0.500000 0.812500
0.343750 0.500000 0.812500
0.500000 0.500000 0.812500
0.656250 0.500000 0.812500
0.812500 0.500000 0.812500
0.968750 0.500000 0.812500
1.000000 0.500000 0.812500
0.000000 0.656250 0.812500
0.031250 0.656250 0.812500
0.187500 0.656250 0.812500
0.343750 0.656250 0.812500
0.500000 0.656250 0.812500
0.656250 0.656250 0.812500
0.812500 0.656250 0.812500
0.968750 0.656250 0.812500
1.000000 0.656250 0.812500
0.000000 0.812500 0.812500
0.031250 0.812500 0.812500
0.187500 0.812500 0.812500
0.343750 0.812500 0.812500
0.500000 0.812500 0.812500
0.656250 0.812500 0.812500
0.812500 0.812500 0.812500
0.968750 0.812500 0.812500
1.000000 0.812500 0.812500
0.000000 0.968750 0.812500
0.031250 0.968750 0.812500
0.187500 0.968750 0.812500
0.343750 0.968750 0.812500
0.500000 0.968750 0.812500
0.656250 0.968750 0.812500
0.812500 0.968750 0.812500
0.968750 0.968750 0.812500
1.000000 0.968750 0.812500
0.000000 1.000000 0.812500
0.031250 1.000000 0.812500
0.187500 1.000000 0.812500
0.343750 1.000000 0.812500
0.500000 1.000000 0.812500
0.656250 1.000000 0.812500
0.812500 1.000000 0.812500
0.968750 1.000000 0.812500
1.000000 1.000000 0.812500
0.000000 0.000000 0.968750
0.031250 0.000000 0.968750
0.187500 0.000000 0.968750
0.343750 0.000000 0.968750
0.500000 0.000000 0.968750
0.656250 0.000000 0.968750
0.812500 0.000000 0.968750
0.968750 0.000000 0.968750
1.000000 0.000000 0.968750
0.000000 0.031250 0.968750
0.031250 0.031250 0.968750
0.187500 0.031250 0.968750
0.343750 0.031250 0.968750
0.500000 0.031250 0.968750
0.656250 0.031250 0.968750
0.812500 0.031250 0.968750
0.968750 0.031250 0.968750
1.000000 0.031250 0.968750
0.000000 0.187500 0.968750
0.031250 0.187500 0.968750
0.187500 0.187500 0.968750
0.343750 0.187500 0.968750
0.500000 0.187500 0.968750
0.656250 0.187500 0.968750
0.812500 0.187500 0.968750
0.968750 0.187500 0.968750
1.000000 0.187500 0.968750
0.000000 0.343750 0.968750
0.031250 0.343750 0.968750
0.187500 0.343750 0.968750
0.343750 0.343750 0.968750
0.500000 0.343750 0.968750
0.656250 0.343750 0.968750
0.812500 0.343750 0.968750
0.968750 0.343750 0.968750
1.000000 0.343750 0.968750
0.000000 0.500000 0.968750
0.031250 0.500000 0.968750
0.187500 0.500000 0.968750
0.343750 0.500000 0.968750
0.500000 0.500000 0.968750
0.656250 0.500000 0.968750
0.812500 0.500000 0.968750
0.968750 0.500000 0.968750
1.000000 0.500000 0.968750
0.000000 0.656250 0.968750
0.031250 0.656250 0.968750
0.187500 0.656250 0.968750
0.343750 0.656250 0.968750
0.500000 0.656250 0.968750
0.656250 0.656250 0.968750
0.812500 0.656250 0.968750
0.968750 0.656250 0.968750
1.000000 0.656250 0.968750
0.000000 0.812500 0.968750
0.031250 0.812500 0.968750
0.187500 0.812500 0.968750
0.343750 0.812500 0.968750
0.500000 0.812500 0.968750
0.656250 0.812500 0.968750
0.812500 0.812500 0.968750
0.968750 0.812500 0.968750
1.000000 0.812500 0.968750
0.000000 0.968750 0.968750
0.031250 0.968750 0.968750
0.187500 0.968750 0.968750
0.343750 0.968750 0.968750
0.500000 0.968750 0.968750
0.656250 0.968750 0.968750
0.812500 0.968750 0.968750
0.968750 0.968750 0.968750
1.000000 0.968750 0.968750
0.000000 1.000000 0.968750
0.031250 1.000000 0.968750
0.187500 1.000000 0.968750
0.343750 1.000000 0.968750
0.500000 1.000000 0.968750
0.656250 1.000000 0.968750
0.812500 1.000000 0.968750
0.968750 1.000000 0.968750
1.000000 1.000000 0.968750
0.000000 0.000000 1.000000
0.031250 0.000000 1.000000
0.187500 0.000000 1.000000
0.343750 0.000000 1.000000
0.500000 0.000000 1.000000
0.656250 0.000000 1.000000
0.812500 0.000000 1.000000
0.968750 0.000000 1.000000
1.000000 0.000000 1.000000
0.000000 0.031250 1.000000
0.031250 0.031250 1.000000
0.187500 0.031250 1.000000
0.343750 0.031250 1.000000
0.500000 0.031250 1.000000
0.656250 0.031250 1.000000
0.812500 0.031250 1.000000
0.968750 0.031250 1.000000
1.000000 0.031250 1.000000
0.000000 0.187500 1.000000
0.031250 0.187500 1.000000
0.187500 0.187500 1.000000
0.343750 0.187500 1.000000
0.500000 0.187500 1.000000
0.656250 0.187500 1.000000
0.812500 0.187500 1.000000
0.968750 0.187500 1.000000
1.000000 0.187500 1.000000
0.000000 0.343750 1.000000
0.031250 0.343750 1.000000
0.187500 0.343750 1.000000
0.343750 0.343750 1.000000
0.500000 0.343750 1.000000
0.656250 0.343750 1.000000
0.812500 0.343750 1.000000
0.968750 0.343750 1.000000
1.000000 0.343750 1.000000
0.000000 0.500000 1.000000
0.031250 0.500000 1.000000
0.187500 0.500000 1.000000
0.343750 0.500000 1.000000
0.500000 0.500000 1.000000
0.656250 0.500000 1.000000
0.812500 0.500000 1.000000
0.968750 0.500000 1.000000
1.000000 0.500000 1.000000
0.000000 0.656250 1.000000
0.031250 0.656250 1.000000
0.187500 0.656250 1.000000
0.343750 0.656250 1.000000
0.500000 0.656250 1.000000
0.656250 0.656250 1.000000
0.812500 0.656250 1.000000
0.968750 0.656250 1.000000
1.000000 0.656250 1.000000
0.000000 0.812500 1.000000
0.031250 0.812500 1.000000
0.187500 0.812500 1.000000
0.343750 0.812500 1.000000
0.500000 0.812500 1.000000
0.656250 0.812500 1.000000
0.812500 0.812500 1.000000
0.968750 0.812500 1.000000
1.000000 0.812500 1.000000
0.000000 0.968750 1.000000
0.031250 0.968750 1.000000
0.187500 0.968750 1.000000
0.343750 0.968750 1.000000
0.500000 0.968750 1.000000
0.656250 0.968750 1.000000
0.812500 0.968750 1.000000
0.968750 0.968750 1.000000
1.000000 0.968750 1.000000
0.000000 1.000000 1.000000
0.031250 1.000000 1.000000
0.187500 1.000000 1.000000
0.343750 1.000000 1.000000
0.500000 1.000000 1.000000
0.656250 1.000000 1.000000
0.812500 1.000000 1.000000
0.968750 1.000000 1.000000
1.000000 1.000000 1.000000
