backend/assets/luts/high_contrast_commercial.cube
TITLE "High Contrast Commercial"
LUT_3D_SIZE 33
0.000000 0.000000 0.000000
0.000000 0.000000 0.000000
0.000000 0.000000 0.000000
0.000000 0.000000 0.000000
0.031250 0.000000 0.000000
0.070312 0.000000 0.000000
0.109375 0.000000 0.000000
0.148438 0.000000 0.000000
0.187500 0.000000 0.000000
0.226562 0.000000 0.000000
0.265625 0.000000 0.000000
0.304688 0.000000 0.000000
0.343750 0.000000 0.000000
0.382812 0.000000 0.000000
0.421875 0.000000 0.000000
0.460938 0.000000 0.000000
0.500000 0.000000 0.000000
0.539062 0.000000 0.000000
0.578125 0.000000 0.000000
0.617188 0.000000 0.000000
0.656250 0.000000 0.000000
0.695312 0.000000 0.000000
0.734375 0.000000 0.000000
0.773438 0.000000 0.000000
0.812500 0.000000 0.000000
0.851562 0.000000 0.000000
0.890625 0.000000 0.000000
0.929688 0.000000 0.000000
0.968750 0.000000 0.000000
1.000000 0.000000 0.000000
1.000000 0.000000 0.000000
1.000000 0.000000 0.000000
1.000000 0.000000 0.000000
0.000000 0.000000 0.000000
0.000000 0.000000 0.000000
0.000000 0.000000 0.000000
0.000000 0.000000 0.000000
0.031250 0.000000 0.000000
0.070312 0.000000 0.000000
0.109375 0.000000 0.000000
0.148438 0.000000 0.000000
0.187500 0.000000 0.000000
0.226562 0.000000 0.000000
0.265625 0.000000 0.000000
0.304688 0.000000 0.000000
0.343750 0.000000 0.000000
0.382812 0.000000 0.000000
0.421875 0.000000 0.000000
0.460938 0.000000 0.000000
0.500000 0.000000 0.000000
0.539062 0.000000 0.000000
0.578125 0.000000 0.000000
0.617188 0.000000 0.000000
0.656250 0.000000 0.000000
0.695312 0.000000 0.000000
0.734375 0.000000 0.000000
0.773438 0.000000 0.000000
0.812500 0.000000 0.000000
0.851562 0.000000 0.000000
0.890625 0.000000 0.000000
0.929688 0.000000 0.000000
0.968750 0.000000 0.000000
1.000000 0.000000 0.000000
1.000000 0.000000 0.000000
1.000000 0.000000 0.000000
1.000000 0.000000 0.000000
0.000000 0.000000 0.000000
0.000000 0.000000 0.000000
0.000000 0.000000 0.000000
0.000000 0.000000 0.000000
0.031250 0.000000 0.000000
0.070312 0.000000 0.000000
0.109375 0.000000 0.000000
0.148438 0.000000 0.000000
0.187500 0.000000 0.000000
0.226562 0.000000 0.000000
0.265625 0.000000 0.000000
0.304688 0.000000 0.000000
0.343750 0.000000 0.000000
0.382812 0.000000 0.000000
0.421875 0.000000 0.000000
0.460938 0.000000 0.000000
0.500000 0.000000 0.000000
0.539062 0.000000 0.000000
0.578125 0.000000 0.000000
0.617188 0.000000 0.000000
0.656250 0.000000 0.000000
0.695312 0.000000 0.000000
0.734375 0.000000 0.000000
0.773438 0.000000 0.000000
0.812500 0.000000 0.000000
0.851562 0.000000 0.000000
0.890625 0.000000 0.000000
0.929688 0.000000 0.000000
0.968750 0.000000 0.000000
1.000000 0.000000 0.000000
1.000000 0.000000 0.000000
1.000000 0.000000 0.000000
1.000000 0.000000 0.000000
0.000000 0.000000 0.000000
0.000000 0.000000 0.000000
0.000000 0.000000 0.000000
0.000000 0.000000 0.000000
0.031250 0.000000 0.000000
0.070312 0.000000 0.000000
0.109375 0.000000 0.000000
0.148438 0.000000 0.000000
0.187500 0.000000 0.000000
0.226562 0.000000 0.000000
0.265625 0.000000 0.000000
0.304688 0.000000 0.000000
0.343750 0.000000 0.000000
0.382812 0.000000 0.000000
0.421875 0.000000 0.000000
0.460938 0.000000 0.000000
0.500000 0.000000 0.000000
0.539062 0.000000 0.000000
0.578125 0.000000 0.000000
0.617188 0.000000 0.000000
0.656250 0.000000 0.000000
0.695312 0.000000 0.000000
0.734375 0.000000 0.000000
0.773438 0.000000 0.000000
0.812500 0.000000 0.000000
0.851562 0.000000 0.000000
0.890625 0.000000 0.000000
0.929688 0.000000 0.000000
0.968750 0.000000 0.000000
1.000000 0.000000 0.000000
1.000000 0.000000 0.000000
1.000000 0.000000 0.000000
1.000000 0.000000 0.000000
0.000000 0.031250 0.000000
0.000000 0.031250 0.000000
0.000000 0.031250 0.000000
0.000000 0.031250 0.000000
0.031250 0.031250 0.000000
0.070312 0.031250 0.000000
0.109375 0.031250 0.000000
0.148438 0.031250 0.000000
0.187500 0.031250 0.000000
0.226562 0.031250 0.000000
0.265625 0.031250 0.000000
0.304688 0.031250 0.000000
0.343750 0.031250 0.000000
0.382812 0.031250 0.000000
0.421875 0.031250 0.000000
0.460938 0.031250 0.000000
0.500000 0.031250 0.000000
0.539062 0.031250 0.000000
0.578125 0.031250 0.000000
0.617188 0.031250 0.000000
0.656250 0.031250 0.000000
0.695312 0.031250 0.000000
0.734375 0.031250 0.000000
0.773438 0.031250 0.000000
0.812500 0.031250 0.000000
0.851562 0.031250 0.000000
0.890625 0.031250 0.000000
0.929688 0.031250 0.000000
0.968750 0.031250 0.000000
1.000000 0.031250 0.000000
1.000000 0.031250 0.000000
1.000000 0.031250 0.000000
1.000000 0.031250 0.000000
0.000000 0.070312 0.000000
0.000000 0.070312 0.000000
0.000000 0.070312 0.000000
0.000000 0.070312 0.000000
0.031250 0.070312 0.000000
0.070312 0.070312 0.000000
0.109375 0.070312 0.000000
0.148438 0.070312 0.000000
0.187500 0.070312 0.000000
0.226562 0.070312 0.000000
0.265625 0.070312 0.000000
0.304688 0.070312 0.000000
0.343750 0.070312 0.000000
0.382812 0.070312 0.000000
0.421875 0.070312 0.000000
0.460938 0.070312 0.000000
0.500000 0.070312 0.000000
0.539062 0.070312 0.000000
0.578125 0.070312 0.000000
0.617188 0.070312 0.000000
0.656250 0.070312 0.000000
0.695312 0.070312 0.000000
0.734375 0.070312 0.000000
0.773438 0.070312 0.000000
0.812500 0.070312 0.000000
0.851562 0.070312 0.000000
0.890625 0.070312 0.000000
0.929688 0.070312 0.000000
0.968750 0.070312 0.000000
1.000000 0.070312 0.000000
1.000000 0.070312 0.000000
1.000000 0.070312 0.000000
1.000000 0.070312 0.000000
0.000000 0.109375 0.000000
0.000000 0.109375 0.000000
0.000000 0.109375 0.000000
0.000000 0.109375 0.000000
0.031250 0.109375 0.000000
0.070312 0.109375 0.000000
0.109375 0.109375 0.000000
0.148438 0.109375 0.000000
0.187500 0.109375 0.000000
0.226562 0.109375 0.000000
0.265625 0.109375 0.000000
0.304688 0.109375 0.000000
0.343750 0.109375 0.000000
0.382812 0.109375 0.000000
0.421875 0.109375 0.000000
0.460938 0.109375 0.000000
0.500000 0.109375 0.000000
0.539062 0.109375 0.000000
0.578125 0.109375 0.000000
0.617188 0.109375 0.000000
0.656250 0.109375 0.000000
0.695312 0.109375 0.000000
0.734375 0.109375 0.000000
0.773438 0.109375 0.000000
0.812500 0.109375 0.000000
0.851562 0.109375 0.000000
0.890625 0.109375 0.000000
0.929688 0.109375 0.000000
0.968750 0.109375 0.000000
1.000000 0.109375 0.000000
1.000000 0.109375 0.000000
1.000000 0.109375 0.000000
1.000000 0.109375 0.000000
0.000000 0.148438 0.000000
0.000000 0.148438 0.000000
0.000000 0.148438 0.000000
0.000000 0.148438 0.000000
0.031250 0.148438 0.000000
0.070312 0.148438 0.000000
0.109375 0.148438 0.000000
0.148438 0.148438 0.000000
0.187500 0.148438 0.000000
0.226562 0.148438 0.000000
0.265625 0.148438 0.000000
0.304688 0.148438 0.000000
0.343750 0.148438 0.000000
0.382812 0.148438 0.000000
0.421875 0.148438 0.000000
0.460938 0.148438 0.000000
0.500000 0.148438 0.000000
0.539062 0.148438 0.000000
0.578125 0.148438 0.000000
0.617188 0.148438 0.000000
0.656250 0.148438 0.000000
0.695312 0.148438 0.000000
0.734375 0.148438 0.000000
0.773438 0.148438 0.000000
0.812500 0.148438 0.000000
0.851562 0.148438 0.000000
0.890625 0.148438 0.000000
0.929688 0.148438 0.000000
0.968750 0.148438 0.000000
1.000000 0.148438 0.000000
1.000000 0.148438 0.000000
1.000000 0.148438 0.000000
1.000000 0.148438 0.000000
0.000000 0.187500 0.000000
0.000000 0.187500 0.000000
0.000000 0.187500 0.000000
0.000000 0.187500 0.000000
0.031250 0.187500 0.000000
0.070312 0.187500 0.000000
0.109375 0.187500 0.000000
0.148438 0.187500 0.000000
0.187500 0.187500 0.000000
0.226562 0.187500 0.000000
0.265625 0.187500 0.000000
0.304688 0.187500 0.000000
0.343750 0.187500 0.000000
0.382812 0.187500 0.000000
0.421875 0.187500 0.000000
0.460938 0.187500 0.000000
0.500000 0.187500 0.000000
0.539062 0.187500 0.000000
0.578125 0.187500 0.000000
0.617188 0.187500 0.000000
0.656250 0.187500 0.000000
0.695312 0.187500 0.000000
0.734375 0.187500 0.000000
0.773438 0.187500 0.000000
0.812500 0.187500 0.000000
0.851562 0.187500 0.000000
0.890625 0.187500 0.000000
0.929688 0.187500 0.000000
0.968750 0.187500 0.000000
1.000000 0.187500 0.000000
1.000000 0.187500 0.000000
1.000000 0.187500 0.000000
1.000000 0.187500 0.000000
0.000000 0.226562 0.000000
0.000000 0.226562 0.000000
0.000000 0.226562 0.000000
0.000000 0.226562 0.000000
0.031250 0.226562 0.000000
0.070312 0.226562 0.000000
0.109375 0.226562 0.000000
0.148438 0.226562 0.000000
0.187500 0.226562 0.000000
0.226562 0.226562 0.000000
0.265625 0.226562 0.000000
0.304688 0.226562 0.000000
0.343750 0.226562 0.000000
0.382812 0.226562 0.000000
0.421875 0.226562 0.000000
0.460938 0.226562 0.000000
0.500000 0.226562 0.000000
0.539062 0.226562 0.000000
0.578125 0.226562 0.000000
0.617188 0.226562 0.000000
0.656250 0.226562 0.000000
0.695312 0.226562 0.000000
0.734375 0.226562 0.000000
0.773438 0.226562 0.000000
0.812500 0.226562 0.000000
0.851562 0.226562 0.000000
0.890625 0.226562 0.000000
0.929688 0.226562 0.000000
0.968750 0.226562 0.000000
1.000000 0.226562 0.000000
1.000000 0.226562 0.000000
1.000000 0.226562 0.000000
1.000000 0.226562 0.000000
0.000000 0.265625 0.000000
0.000000 0.265625 0.000000
0.000000 0.265625 0.000000
0.000000 0.265625 0.000000
0.031250 0.265625 0.000000
0.070312 0.265625 0.000000
0.109375 0.265625 0.000000
0.148438 0.265625 0.000000
0.187500 0.265625 0.000000
0.226562 0.265625 0.000000
0.265625 0.265625 0.000000
0.304688 0.265625 0.000000
0.343750 0.265625 0.000000
0.382812 0.265625 0.000000
0.421875 0.265625 0.000000
0.460938 0.265625 0.000000
0.500000 0.265625 0.000000
0.539062 0.265625 0.000000
0.578125 0.265625 0.000000
0.617188 0.265625 0.000000
0.656250 0.265625 0.000000
0.695312 0.265625 0.000000
0.734375 0.265625 0.000000
0.773438 0.265625 0.000000
0.812500 0.265625 0.000000
0.851562 0.265625 0.000000
0.890625 0.265625 0.000000
0.929688 0.265625 0.000000
0.968750 0.265625 0.000000
1.000000 0.265625 0.000000
1.000000 0.265625 0.000000
1.000000 0.265625 0.000000
1.000000 0.265625 0.000000
0.000000 0.304688 0.000000
0.000000 0.304688 0.000000
0.000000 0.304688 0.000000
0.000000 0.304688 0.000000
0.031250 0.304688 0.000000
0.070312 0.304688 0.000000
0.109375 0.304688 0.000000
0.148438 0.304688 0.000000
0.187500 0.304688 0.000000
0.226562 0.304688 0.000000
0.265625 0.304688 0.000000
0.304688 0.304688 0.000000
0.343750 0.304688 0.000000
0.382812 0.304688 0.000000
0.421875 0.304688 0.000000
0.460938 0.304688 0.000000
0.500000 0.304688 0.000000
0.539062 0.304688 0.000000
0.578125 0.304688 0.000000
0.617188 0.304688 0.000000
0.656250 0.304688 0.000000
0.695312 0.304688 0.000000
0.734375 0.304688 0.000000
0.773438 0.304688 0.000000
0.812500 0.304688 0.000000
0.851562 0.304688 0.000000
0.890625 0.304688 0.000000
0.929688 0.304688 0.000000
0.968750 0.304688 0.000000
1.000000 0.304688 0.000000
1.000000 0.304688 0.000000
1.000000 0.304688 0.000000
1.000000 0.304688 0.000000
0.000000 0.343750 0.000000
0.000000 0.343750 0.000000
0.000000 0.343750 0.000000
0.000000 0.343750 0.000000
0.031250 0.343750 0.000000
0.070312 0.343750 0.000000
0.109375 0.343750 0.000000
0.148438 0.343750 0.000000
0.187500 0.343750 0.000000
0.226562 0.343750 0.000000
0.265625 0.343750 0.000000
0.304688 0.343750 0.000000
0.343750 0.343750 0.000000
0.382812 0.343750 0.000000
0.421875 0.343750 0.000000
0.460938 0.343750 0.000000
0.500000 0.343750 0.000000
0.539062 0.343750 0.000000
0.578125 0.343750 0.000000
0.617188 0.343750 0.000000
0.656250 0.343750 0.000000
0.695312 0.343750 0.000000
0.734375 0.343750 0.000000
0.773438 0.343750 0.000000
0.812500 0.343750 0.000000
0.851562 0.343750 0.000000
0.890625 0.343750 0.000000
0.929688 0.343750 0.000000
0.968750 0.343750 0.000000
1.000000 0.343750 0.000000
1.000000 0.343750 0.000000
1.000000 0.343750 0.000000
1.000000 0.343750 0.000000
0.000000 0.382812 0.000000
0.000000 0.382812 0.000000
0.000000 0.382812 0.000000
0.000000 0.382812 0.000000
0.031250 0.382812 0.000000
0.070312 0.382812 0.000000
0.109375 0.382812 0.000000
0.148438 0.382812 0.000000
0.187500 0.382812 0.000000
0.226562 0.382812 0.000000
0.265625 0.382812 0.000000
0.304688 0.382812 0.000000
0.343750 0.382812 0.000000
0.382812 0.382812 0.000000
0.421875 0.382812 0.000000
0.460938 0.382812 0.000000
0.500000 0.382812 0.000000
0.539062 0.382812 0.000000
0.578125 0.382812 0.000000
0.617188 0.382812 0.000000
0.656250 0.382812 0.000000
0.695312 0.382812 0.000000
0.734375 0.382812 0.000000
0.773438 0.382812 0.000000
0.812500 0.382812 0.000000
0.851562 0.382812 0.000000
0.890625 0.382812 0.000000
0.929688 0.382812 0.000000
0.968750 0.382812 0.000000
1.000000 0.382812 0.000000
1.000000 0.382812 0.000000
1.000000 0.382812 0.000000
1.000000 0.382812 0.000000
0.000000 0.421875 0.000000
0.000000 0.421875 0.000000
0.000000 0.421875 0.000000
0.000000 0.421875 0.000000
0.031250 0.421875 0.000000
0.070312 0.421875 0.000000
0.109375 0.421875 0.000000
0.148438 0.421875 0.000000
0.187500 0.421875 0.000000
0.226562 0.421875 0.000000
0.265625 0.421875 0.000000
0.304688 0.421875 0.000000
0.343750 0.421875 0.000000
0.382812 0.421875 0.000000
0.421875 0.421875 0.000000
0.460938 0.421875 0.000000
0.500000 0.421875 0.000000
0.539062 0.421875 0.000000
0.578125 0.421875 0.000000
0.617188 0.421875 0.000000
0.656250 0.421875 0.000000
0.695312 0.421875 0.000000
0.734375 0.421875 0.000000
0.773438 0.421875 0.000000
0.812500 0.421875 0.000000
0.851562 0.421875 0.000000
0.890625 0.421875 0.000000
0.929688 0.421875 0.000000
0.968750 0.421875 0.000000
1.000000 0.421875 0.000000
1.000000 0.421875 0.000000
1.000000 0.421875 0.000000
1.000000 0.421875 0.000000
0.000000 0.460938 0.000000
0.000000 0.460938 0.000000
0.000000 0.460938 0.000000
0.000000 0.460938 0.000000
0.031250 0.460938 0.000000
0.070312 0.460938 0.000000
0.109375 0.460938 0.000000
0.148438 0.460938 0.000000
0.187500 0.460938 0.000000
0.226562 0.460938 0.000000
0.265625 0.460938 0.000000
0.304688 0.460938 0.000000
0.343750 0.460938 0.000000
0.382812 0.460938 0.000000
0.421875 0.460938 0.000000
0.460938 0.460938 0.000000
0.500000 0.460938 0.000000
0.539062 0.460938 0.000000
0.578125 0.460938 0.000000
0.617188 0.460938 0.000000
0.656250 0.460938 0.000000
0.695312 0.460938 0.000000
0.734375 0.460938 0.000000
0.773438 0.460938 0.000000
0.812500 0.460938 0.000000
0.851562 0.460938 0.000000
0.890625 0.460938 0.000000
0.929688 0.460938 0.000000
0.968750 0.460938 0.000000
1.000000 0.460938 0.000000
1.000000 0.460938 0.000000
1.000000 0.460938 0.000000
1.000000 0.460938 0.000000
0.000000 0.500000 0.000000
0.000000 0.500000 0.000000
0.000000 0.500000 0.000000
0.000000 0.500000 0.000000
0.031250 0.500000 0.000000
0.070312 0.500000 0.000000
0.109375 0.500000 0.000000
0.148438 0.500000 0.000000
0.187500 0.500000 0.000000
0.226562 0.500000 0.000000
0.265625 0.500000 0.000000
0.304688 0.500000 0.000000
0.343750 0.500000 0.000000
0.382812 0.500000 0.000000
0.421875 0.500000 0.000000
0.460938 0.500000 0.000000
0.500000 0.500000 0.000000
0.539062 0.500000 0.000000
0.578125 0.500000 0.000000
0.617188 0.500000 0.000000
0.656250 0.500000 0.000000
0.695312 0.500000 0.000000
0.734375 0.500000 0.000000
0.773438 0.500000 0.000000
0.812500 0.500000 0.000000
0.851562 0.500000 0.000000
0.890625 0.500000 0.000000
0.929688 0.500000 0.000000
0.968750 0.500000 0.000000
1.000000 0.500000 0.000000
1.000000 0.500000 0.000000
1.000000 0.500000 0.000000
1.000000 0.500000 0.000000
0.000000 0.539062 0.000000
0.000000 0.539062 0.000000
0.000000 0.539062 0.000000
0.000000 0.539062 0.000000
0.031250 0.539062 0.000000
0.070312 0.539062 0.000000
0.109375 0.539062 0.000000
0.148438 0.539062 0.000000
0.187500 0.539062 0.000000
0.226562 0.539062 0.000000
0.265625 0.539062 0.000000
0.304688 0.539062 0.000000
0.343750 0.539062 0.000000
0.382812 0.539062 0.000000
0.421875 0.539062 0.000000
0.460938 0.539062 0.000000
0.500000 0.539062 0.000000
0.539062 0.539062 0.000000
0.578125 0.539062 0.000000
0.617188 0.539062 0.000000
0.656250 0.539062 0.000000
0.695312 0.539062 0.000000
0.734375 0.539062 0.000000
0.773438 0.539062 0.000000
0.812500 0.539062 0.000000
0.851562 0.539062 0.000000
0.890625 0.539062 0.000000
0.929688 0.539062 0.000000
0.968750 0.539062 0.000000
1.000000 0.539062 0.000000
1.000000 0.539062 0.000000
1.000000 0.539062 0.000000
1.000000 0.539062 0.000000
0.000000 0.578125 0.000000
0.000000 0.578125 0.000000
0.000000 0.578125 0.000000
0.000000 0.578125 0.000000
0.031250 0.578125 0.000000
0.070312 0.578125 0.000000
0.109375 0.578125 0.000000
0.148438 0.578125 0.000000
0.187500 0.578125 0.000000
0.226562 0.578125 0.000000
0.265625 0.578125 0.000000
0.304688 0.578125 0.000000
0.343750 0.578125 0.000000
0.382812 0.578125 0.000000
0.421875 0.578125 0.000000
0.460938 0.578125 0.000000
0.500000 0.578125 0.000000
0.539062 0.578125 0.000000
0.578125 0.578125 0.000000
0.617188 0.578125 0.000000
0.656250 0.578125 0.000000
0.695312 0.578125 0.000000
0.734375 0.578125 0.000000
0.773438 0.578125 0.000000
0.812500 0.578125 0.000000
0.851562 0.578125 0.000000
0.890625 0.578125 0.000000
0.929688 0.578125 0.000000
0.968750 0.578125 0.000000
1.000000 0.578125 0.000000
1.000000 0.578125 0.000000
1.000000 0.578125 0.000000
1.000000 0.578125 0.000000
0.000000 0.617188 0.000000
0.000000 0.617188 0.000000
0.000000 0.617188 0.000000
0.000000 0.617188 0.000000
0.031250 0.617188 0.000000
0.070312 0.617188 0.000000
0.109375 0.617188 0.000000
0.148438 0.617188 0.000000
0.187500 0.617188 0.000000
0.226562 0.617188 0.000000
0.265625 0.617188 0.000000
0.304688 0.617188 0.000000
0.343750 0.617188 0.000000
0.382812 0.617188 0.000000
0.421875 0.617188 0.000000
0.460938 0.617188 0.000000
0.500000 0.617188 0.000000
0.539062 0.617188 0.000000
0.578125 0.617188 0.000000
0.617188 0.617188 0.000000
0.656250 0.617188 0.000000
0.695312 0.617188 0.000000
0.734375 0.617188 0.000000
0.773438 0.617188 0.000000
0.812500 0.617188 0.000000
0.851562 0.617188 0.000000
0.890625 0.617188 0.000000
0.929688 0.617188 0.000000
0.968750 0.617188 0.000000
1.000000 0.617188 0.000000
1.000000 0.617188 0.000000
1.000000 0.617188 0.000000
1.000000 0.617188 0.000000
0.000000 0.656250 0.000000
0.000000 0.656250 0.000000
0.000000 0.656250 0.000000
0.000000 0.656250 0.000000
0.031250 0.656250 0.000000
0.070312 0.656250 0.000000
0.109375 0.656250 0.000000
0.148438 0.656250 0.000000
0.187500 0.656250 0.000000
0.226562 0.656250 0.000000
0.265625 0.656250 0.000000
0.304688 0.656250 0.000000
0.343750 0.656250 0.000000
0.382812 0.656250 0.000000
0.421875 0.656250 0.000000
0.460938 0.656250 0.000000
0.500000 0.656250 0.000000
0.539062 0.656250 0.000000
0.578125 0.656250 0.000000
0.617188 0.656250 0.000000
0.656250 0.656250 0.000000
0.695312 0.656250 0.000000
0.734375 0.656250 0.000000
0.773438 0.656250 0.000000
0.812500 0.656250 0.000000
0.851562 0.656250 0.000000
0.890625 0.656250 0.000000
0.929688 0.656250 0.000000
0.968750 0.656250 0.000000
1.000000 0.656250 0.000000
1.000000 0.656250 0.000000
1.000000 0.656250 0.000000
1.000000 0.656250 0.000000
0.000000 0.695312 0.000000
0.000000 0.695312 0.000000
0.000000 0.695312 0.000000
0.000000 0.695312 0.000000
0.031250 0.695312 0.000000
0.070312 0.695312 0.000000
0.109375 0.695312 0.000000
0.148438 0.695312 0.000000
0.187500 0.695312 0.000000
0.226562 0.695312 0.000000
0.265625 0.695312 0.000000
0.304688 0.695312 0.000000
0.343750 0.695312 0.000000
0.382812 0.695312 0.000000
0.421875 0.695312 0.000000
0.460938 0.695312 0.000000
0.500000 0.695312 0.000000
0.539062 0.695312 0.000000
0.578125 0.695312 0.000000
0.617188 0.695312 0.000000
0.656250 0.695312 0.000000
0.695312 0.695312 0.000000
0.734375 0.695312 0.000000
0.773438 0.695312 0.000000
0.812500 0.695312 0.000000
0.851562 0.695312 0.000000
0.890625 0.695312 0.000000
0.929688 0.695312 0.000000
0.968750 0.695312 0.000000
1.000000 0.695312 0.000000
1.000000 0.695312 0.000000
1.000000 0.695312 0.000000
1.000000 0.695312 0.000000
0.000000 0.734375 0.000000
0.000000 0.734375 0.000000
0.000000 0.734375 0.000000
0.000000 0.734375 0.000000
0.031250 0.734375 0.000000
0.070312 0.734375 0.000000
0.109375 0.734375 0.000000
0.148438 0.734375 0.000000
0.187500 0.734375 0.000000
0.226562 0.734375 0.000000
0.265625 0.734375 0.000000
0.304688 0.734375 0.000000
0.343750 0.734375 0.000000
0.382812 0.734375 0.000000
0.421875 0.734375 0.000000
0.460938 0.734375 0.000000
0.500000 0.734375 0.000000
0.539062 0.734375 0.000000
0.578125 0.734375 0.000000
0.617188 0.734375 0.000000
0.656250 0.734375 0.000000
0.695312 0.734375 0.000000
0.734375 0.734375 0.000000
0.773438 0.734375 0.000000
0.812500 0.734375 0.000000
0.851562 0.734375 0.000000
0.890625 0.734375 0.000000
0.929688 0.734375 0.000000
0.968750 0.734375 0.000000
1.000000 0.734375 0.000000
1.000000 0.734375 0.000000
1.000000 0.734375 0.000000
1.000000 0.734375 0.000000
0.000000 0.773438 0.000000
0.000000 0.773438 0.000000
0.000000 0.773438 0.000000
0.000000 0.773438 0.000000
0.031250 0.773438 0.000000
0.070312 0.773438 0.000000
0.109375 0.773438 0.000000
0.148438 0.773438 0.000000
0.187500 0.773438 0.000000
0.226562 0.773438 0.000000
0.265625 0.773438 0.000000
0.304688 0.773438 0.000000
0.343750 0.773438 0.000000
0.382812 0.773438 0.000000
0.421875 0.773438 0.000000
0.460938 0.773438 0.000000
0.500000 0.773438 0.000000
0.539062 0.773438 0.000000
0.578125 0.773438 0.000000
0.617188 0.773438 0.000000
0.656250 0.773438 0.000000
0.695312 0.773438 0.000000
0.734375 0.773438 0.000000
0.773438 0.773438 0.000000
0.812500 0.773438 0.000000
0.851562 0.773438 0.000000
0.890625 0.773438 0.000000
0.929688 0.773438 0.000000
0.968750 0.773438 0.000000
1.000000 0.773438 0.000000
1.000000 0.773438 0.000000
1.000000 0.773438 0.000000
1.000000 0.773438 0.000000
0.000000 0.812500 0.000000
0.000000 0.812500 0.000000
0.000000 0.812500 0.000000
0.000000 0.812500 0.000000
0.031250 0.812500 0.000000
0.070312 0.812500 0.000000
0.109375 0.812500 0.000000
0.148438 0.812500 0.000000
0.187500 0.812500 0.000000
0.226562 0.812500 0.000000
0.265625 0.812500 0.000000
0.304688 0.812500 0.000000
0.343750 0.812500 0.000000
0.382812 0.812500 0.000000
0.421875 0.812500 0.000000
0.460938 0.812500 0.000000
0.500000 0.812500 0.000000
0.539062 0.812500 0.000000
0.578125 0.812500 0.000000
0.617188 0.812500 0.000000
0.656250 0.812500 0.000000
0.695312 0.812500 0.000000
0.734375 0.812500 0.000000
0.773438 0.812500 0.000000
0.812500 0.812500 0.000000
0.851562 0.812500 0.000000
0.890625 0.812500 0.000000
0.929688 0.812500 0.000000
0.968750 0.812500 0.000000
1.000000 0.812500 0.000000
1.000000 0.812500 0.000000
1.000000 0.812500 0.000000
1.000000 0.812500 0.000000
0.000000 0.851562 0.000000
0.000000 0.851562 0.000000
0.000000 0.851562 0.000000
0.000000 0.851562 0.000000
0.031250 0.851562 0.000000
0.070312 0.851562 0.000000
0.109375 0.851562 0.000000
0.148438 0.851562 0.000000
0.187500 0.851562 0.000000
0.226562 0.851562 0.000000
0.265625 0.851562 0.000000
0.304688 0.851562 0.000000
0.343750 0.851562 0.000000
0.382812 0.851562 0.000000
0.421875 0.851562 0.000000
0.460938 0.851562 0.000000
0.500000 0.851562 0.000000
0.539062 0.851562 0.000000
0.578125 0.851562 0.000000
0.617188 0.851562 0.000000
0.656250 0.851562 0.000000
0.695312 0.851562 0.000000
0.734375 0.851562 0.000000
0.773438 0.851562 0.000000
0.812500 0.851562 0.000000
0.851562 0.851562 0.000000
0.890625 0.851562 0.000000
0.929688 0.851562 0.000000
0.968750 0.851562 0.000000
1.000000 0.851562 0.000000
1.000000 0.851562 0.000000
1.000000 0.851562 0.000000
1.000000 0.851562 0.000000
0.000000 0.890625 0.000000
0.000000 0.890625 0.000000
0.000000 0.890625 0.000000
0.000000 0.890625 0.000000
0.031250 0.890625 0.000000
0.070312 0.890625 0.000000
0.109375 0.890625 0.000000
0.148438 0.890625 0.000000
0.187500 0.890625 0.000000
0.226562 0.890625 0.000000
0.265625 0.890625 0.000000
0.304688 0.890625 0.000000
0.343750 0.890625 0.000000
0.382812 0.890625 0.000000
0.421875 0.890625 0.000000
0.460938 0.890625 0.000000
0.500000 0.890625 0.000000
0.539062 0.890625 0.000000
0.578125 0.890625 0.000000
0.617188 0.890625 0.000000
0.656250 0.890625 0.000000
0.695312 0.890625 0.000000
0.734375 0.890625 0.000000
0.773438 0.890625 0.000000
0.812500 0.890625 0.000000
0.851562 0.890625 0.000000
0.890625 0.890625 0.000000
0.929688 0.890625 0.000000
0.968750 0.890625 0.000000
