backend/assets/luts/high_contrast_commercial.cube
TITLE "High Contrast Commercial"
LUT_3D_SIZE 5
0.000000 0.000000 0.000000
0.187500 0.000000 0.000000
0.500000 0.000000 0.000000
0.812500 0.000000 0.000000
1.000000 0.000000 0.000000
0.000000 0.187500 0.000000
0.187500 0.187500 0.000000
0.500000 0.187500 0.000000
0.812500 0.187500 0.000000
1.000000 0.187500 0.000000
0.000000 0.500000 0.000000
0.187500 0.500000 0.000000
0.500000 0.500000 0.000000
0.812500 0.500000 0.000000
1.000000 0.500000 0.000000
0.000000 0.812500 0.000000
0.187500 0.812500 0.000000
0.500000 0.812500 0.000000
0.812500 0.812500 0.000000
1.000000 0.812500 0.000000
0.000000 1.000000 0.000000
0.187500 1.000000 0.000000
0.500000 1.000000 0.000000
0.812500 1.000000 0.000000
1.000000 1.000000 0.000000
0.000000 0.000000 0.187500
0.187500 0.000000 0.187500
0.500000 0.000000 0.187500
0.812500 0.000000 0.187500
1.000000 0.000000 0.187500
0.000000 0.187500 0.187500
0.187500 0.187500 0.187500
0.500000 0.187500 0.187500
0.812500 0.187500 0.187500
1.000000 0.187500 0.187500
0.000000 0.500000 0.187500
0.187500 0.500000 0.187500
0.500000 0.500000 0.187500
0.812500 0.500000 0.187500
1.000000 0.500000 0.187500
0.000000 0.812500 0.187500
0.187500 0.812500 0.187500
0.500000 0.812500 0.187500
0.812500 0.812500 0.187500
1.000000 0.812500 0.187500
0.000000 1.000000 0.187500
0.187500 1.000000 0.187500
0.500000 1.000000 0.187500
0.812500 1.000000 0.187500
1.000000 1.000000 0.187500
0.000000 0.000000 0.500000
0.187500 0.000000 0.500000
0.500000 0.000000 0.500000
0.812500 0.000000 0.500000
1.000000 0.000000 0.500000
0.000000 0.187500 0.500000
0.187500 0.187500 0.500000
0.500000 0.187500 0.500000
0.812500 0.187500 0.500000
1.000000 0.187500 0.500000
0.000000 0.500000 0.500000
0.187500 0.500000 0.500000
0.500000 0.500000 0.500000
0.812500 0.500000 0.500000
1.000000 0.500000 0.500000
0.000000 0.812500 0.500000
0.187500 0.812500 0.500000
0.500000 0.812500 0.500000
0.812500 0.812500 0.500000
1.000000 0.812500 0.500000
0.000000 1.000000 0.500000
0.187500 1.000000 0.500000
0.500000 1.000000 0.500000
0.812500 1.000000 0.500000
1.000000 1.000000 0.500000
0.000000 0.000000 0.812500
0.187500 0.000000 0.812500
0.500000 0.000000 0.812500
0.812500 0.000000 0.812500
1.000000 0.000000 0.812500
0.000000 0.187500 0.812500
0.187500 0.187500 0.812500
0.500000 0.187500 0.812500
0.812500 0.187500 0.812500
1.000000 0.187500 0.812500
0.000000 0.500000 0.812500
0.187500 0.500000 0.812500
0.500000 0.500000 0.812500
0.812500 0.500000 0.812500
1.000000 0.500000 0.812500
0.000000 0.812500 0.812500
0.187500 0.812500 0.812500
0.500000 0.812500 0.812500
0.812500 0.812500 0.812500
1.000000 0.812500 0.812500
0.000000 1.000000 0.812500
0.187500 1.000000 0.812500
0.500000 1.000000 0.812500
0.812500 1.000000 0.812500
1.000000 1.000000 0.812500
0.000000 0.000000 1.000000
0.187500 0.000000 1.000000
0.500000 0.000000 1.000000
0.812500 0.000000 1.000000
1.000000 0.000000 1.000000
0.000000 0.187500 1.000000
0.187500 0.187500 1.000000
0.500000 0.187500 1.000000
0.812500 0.187500 1.000000
1.000000 0.187500 1.000000
0.000000 0.500000 1.000000
0.187500 0.500000 1.000000
0.500000 0.500000 1.000000
0.812500 0.500000 1.000000
1.000000 0.500000 1.000000
0.000000 0.812500 1.000000
0.187500 0.812500 1.000000
0.500000 0.812500 1.000000
0.812500 0.812500 1.000000
1.000000 0.812500 1.000000
0.000000 1.000000 1.000000
0.187500 1.000000 1.000000
0.500000 1.000000 1.000000
0.812500 1.000000 1.000000
1.000000 1.000000 1.000000
