backend/assets/luts/natural_realistic.cube
TITLE "Natural Realistic"
LUT_3D_SIZE 9
0.000000 0.000000 0.000000
0.117990 0.002990 0.002990
0.235980 0.005980 0.005980
0.353970 0.008970 0.008970
0.471960 0.011960 0.011960
0.589950 0.014950 0.014950
0.707940 0.017940 0.017940
0.825930 0.020930 0.020930
0.943920 0.023920 0.023920
0.005870 0.120870 0.005870
0.123860 0.123860 0.008860
0.241850 0.126850 0.011850
0.359840 0.129840 0.014840
0.477830 0.132830 0.017830
0.595820 0.135820 0.020820
0.713810 0.138810 0.023810
0.831800 0.141800 0.026800
0.949790 0.144790 0.029790
0.011740 0.241740 0.011740
0.129730 0.244730 0.014730
0.247720 0.247720 0.017720
0.365710 0.250710 0.020710
0.483700 0.253700 0.023700
0.601690 0.256690 0.026690
0.719680 0.259680 0.029680
0.837670 0.262670 0.032670
0.955660 0.265660 0.035660
0.017610 0.362610 0.017610
0.135600 0.365600 0.020600
0.253590 0.368590 0.023590
0.371580 0.371580 0.026580
0.489570 0.374570 0.029570
0.607560 0.377560 0.032560
0.725550 0.380550 0.035550
0.843540 0.383540 0.038540
0.961530 0.386530 0.041530
0.023480 0.483480 0.023480
0.141470 0.486470 0.026470
0.259460 0.489460 0.029460
0.377450 0.492450 0.032450
0.495440 0.495440 0.035440
0.613430 0.498430 0.038430
0.731420 0.501420 0.041420
0.849410 0.504410 0.044410
0.967400 0.507400 0.047400
0.029350 0.604350 0.029350
0.147340 0.607340 0.032340
0.265330 0.610330 0.035330
0.383320 0.613320 0.038320
0.501310 0.616310 0.041310
0.619300 0.619300 0.044300
0.737290 0.622290 0.047290
0.855280 0.625280 0.050280
0.973270 0.628270 0.053270
0.035220 0.725220 0.035220
0.153210 0.728210 0.038210
0.271200 0.731200 0.041200
0.389190 0.734190 0.044190
0.507180 0.737180 0.047180
0.625170 0.740170 0.050170
0.743160 0.743160 0.053160
0.861150 0.746150 0.056150
0.979140 0.749140 0.059140
0.041090 0.846090 0.041090
0.159080 0.849080 0.044080
0.277070 0.852070 0.047070
0.395060 0.855060 0.050060
0.513050 0.858050 0.053050
0.631040 0.861040 0.056040
0.749030 0.864030 0.059030
0.867020 0.867020 0.062020
0.985010 0.870010 0.065010
0.046960 0.966960 0.046960
0.164950 0.969950 0.049950
0.282940 0.972940 0.052940
0.400930 0.975930 0.055930
0.518920 0.978920 0.058920
0.636910 0.981910 0.061910
0.754900 0.984900 0.064900
0.872890 0.987890 0.067890
0.990880 0.990880 0.070880
0.001140 0.001140 0.116140
0.119130 0.004130 0.119130
0.237120 0.007120 0.122120
0.355110 0.010110 0.125110
0.473100 0.013100 0.128100
0.591090 0.016090 0.131090
0.709080 0.019080 0.134080
0.827070 0.022070 0.137070
0.945060 0.025060 0.140060
0.007010 0.122010 0.122010
0.125000 0.125000 0.125000
0.242990 0.127990 0.127990
0.360980 0.130980 0.130980
0.478970 0.133970 0.133970
0.596960 0.136960 0.136960
0.714950 0.139950 0.139950
0.832940 0.142940 0.142940
0.950930 0.145930 0.145930
0.012880 0.242880 0.127880
0.130870 0.245870 0.130870
0.248860 0.248860 0.133860
0.366850 0.251850 0.136850
0.484840 0.254840 0.139840
0.602830 0.257830 0.142830
0.720820 0.260820 0.145820
0.838810 0.263810 0.148810
0.956800 0.266800 0.151800
0.018750 0.363750 0.133750
0.136740 0.366740 0.136740
0.254730 0.369730 0.139730
0.372720 0.372720 0.142720
0.490710 0.375710 0.145710
0.608700 0.378700 0.148700
0.726690 0.381690 0.151690
0.844680 0.384680 0.154680
0.962670 0.387670 0.157670
0.024620 0.484620 0.139620
0.142610 0.487610 0.142610
0.260600 0.490600 0.145600
0.378590 0.493590 0.148590
0.496580 0.496580 0.151580
0.614570 0.499570 0.154570
0.732560 0.502560 0.157560
0.850550 0.505550 0.160550
0.968540 0.508540 0.163540
0.030490 0.605490 0.145490
0.148480 0.608480 0.148480
0.266470 0.611470 0.151470
0.384460 0.614460 0.154460
0.502450 0.617450 0.157450
0.620440 0.620440 0.160440
0.738430 0.623430 0.163430
0.856420 0.626420 0.166420
0.974410 0.629410 0.169410
0.036360 0.726360 0.151360
0.154350 0.729350 0.154350
0.272340 0.732340 0.157340
0.390330 0.735330 0.160330
0.508320 0.738320 0.163320
0.626310 0.741310 0.166310
0.744300 0.744300 0.169300
0.862290 0.747290 0.172290
0.980280 0.750280 0.175280
0.042230 0.847230 0.157230
0.160220 0.850220 0.160220
0.278210 0.853210 0.163210
0.396200 0.856200 0.166200
0.514190 0.859190 0.169190
0.632180 0.862180 0.172180
0.750170 0.865170 0.175170
0.868160 0.868160 0.178160
0.986150 0.871150 0.181150
0.048100 0.968100 0.163100
0.166090 0.971090 0.166090
0.284080 0.974080 0.169080
0.402070 0.977070 0.172070
0.520060 0.980060 0.175060
0.638050 0.983050 0.178050
0.756040 0.986040 0.181040
0.874030 0.989030 0.184030
0.992020 0.992020 0.187020
0.002280 0.002280 0.232280
0.120270 0.005270 0.235270
0.238260 0.008260 0.238260
0.356250 0.011250 0.241250
0.474240 0.014240 0.244240
0.592230 0.017230 0.247230
0.710220 0.020220 0.250220
0.828210 0.023210 0.253210
0.946200 0.026200 0.256200
0.008150 0.123150 0.238150
0.126140 0.126140 0.241140
0.244130 0.129130 0.244130
0.362120 0.132120 0.247120
0.480110 0.135110 0.250110
0.598100 0.138100 0.253100
0.716090 0.141090 0.256090
0.834080 0.144080 0.259080
0.952070 0.147070 0.262070
0.014020 0.244020 0.244020
0.132010 0.247010 0.247010
0.250000 0.250000 0.250000
0.367990 0.252990 0.252990
0.485980 0.255980 0.255980
0.603970 0.258970 0.258970
0.721960 0.261960 0.261960
0.839950 0.264950 0.264950
0.957940 0.267940 0.267940
0.019890 0.364890 0.249890
0.137880 0.367880 0.252880
0.255870 0.370870 0.255870
0.373860 0.373860 0.258860
0.491850 0.376850 0.261850
0.609840 0.379840 0.264840
0.727830 0.382830 0.267830
0.845820 0.385820 0.270820
0.963810 0.388810 0.273810
0.025760 0.485760 0.255760
0.143750 0.488750 0.258750
0.261740 0.491740 0.261740
0.379730 0.494730 0.264730
0.497720 0.497720 0.267720
0.615710 0.500710 0.270710
0.733700 0.503700 0.273700
0.851690 0.506690 0.276690
0.969680 0.509680 0.279680
0.031630 0.606630 0.261630
0.149620 0.609620 0.264620
0.267610 0.612610 0.267610
0.385600 0.615600 0.270600
0.503590 0.618590 0.273590
0.621580 0.621580 0.276580
0.739570 0.624570 0.279570
0.857560 0.627560 0.282560
0.975550 0.630550 0.285550
0.037500 0.727500 0.267500
0.155490 0.730490 0.270490
0.273480 0.733480 0.273480
0.391470 0.736470 0.276470
0.509460 0.739460 0.279460
0.627450 0.742450 0.282450
0.745440 0.745440 0.285440
0.863430 0.748430 0.288430
0.981420 0.751420 0.291420
0.043370 0.848370 0.273370
0.161360 0.851360 0.276360
0.279350 0.854350 0.279350
0.397340 0.857340 0.282340
0.515330 0.860330 0.285330
0.633320 0.863320 0.288320
0.751310 0.866310 0.291310
0.869300 0.869300 0.294300
0.987290 0.872290 0.297290
0.049240 0.969240 0.279240
0.167230 0.972230 0.282230
0.285220 0.975220 0.285220
0.403210 0.978210 0.288210
0.521200 0.981200 0.291200
0.639190 0.984190 0.294190
0.757180 0.987180 0.297180
0.875170 0.990170 0.300170
0.993160 0.993160 0.303160
0.003420 0.003420 0.348420
0.121410 0.006410 0.351410
0.239400 0.009400 0.354400
0.357390 0.012390 0.357390
0.475380 0.015380 0.360380
0.593370 0.018370 0.363370
0.711360 0.021360 0.366360
0.829350 0.024350 0.369350
0.947340 0.027340 0.372340
0.009290 0.124290 0.354290
0.127280 0.127280 0.357280
0.245270 0.130270 0.360270
0.363260 0.133260 0.363260
0.481250 0.136250 0.366250
0.599240 0.139240 0.369240
0.717230 0.142230 0.372230
0.835220 0.145220 0.375220
0.953210 0.148210 0.378210
0.015160 0.245160 0.360160
0.133150 0.248150 0.363150
0.251140 0.251140 0.366140
0.369130 0.254130 0.369130
0.487120 0.257120 0.372120
0.605110 0.260110 0.375110
0.723100 0.263100 0.378100
0.841090 0.266090 0.381090
0.959080 0.269080 0.384080
0.021030 0.366030 0.366030
0.139020 0.369020 0.369020
0.257010 0.372010 0.372010
0.375000 0.375000 0.375000
0.492990 0.377990 0.377990
0.610980 0.380980 0.380980
0.728970 0.383970 0.383970
0.846960 0.386960 0.386960
0.964950 0.389950 0.389950
0.026900 0.486900 0.371900
0.144890 0.489890 0.374890
0.262880 0.492880 0.377880
0.380870 0.495870 0.380870
0.498860 0.498860 0.383860
0.616850 0.501850 0.386850
0.734840 0.504840 0.389840
0.852830 0.507830 0.392830
0.970820 0.510820 0.395820
0.032770 0.607770 0.377770
0.150760 0.610760 0.380760
0.268750 0.613750 0.383750
0.386740 0.616740 0.386740
0.504730 0.619730 0.389730
0.622720 0.622720 0.392720
0.740710 0.625710 0.395710
0.858700 0.628700 0.398700
0.976690 0.631690 0.401690
0.038640 0.728640 0.383640
0.156630 0.731630 0.386630
0.274620 0.734620 0.389620
0.392610 0.737610 0.392610
0.510600 0.740600 0.395600
0.628590 0.743590 0.398590
0.746580 0.746580 0.401580
0.864570 0.749570 0.404570
0.982560 0.752560 0.407560
0.044510 0.849510 0.389510
0.162500 0.852500 0.392500
0.280490 0.855490 0.395490
0.398480 0.858480 0.398480
0.516470 0.861470 0.401470
0.634460 0.864460 0.404460
0.752450 0.867450 0.407450
0.870440 0.870440 0.410440
0.988430 0.873430 0.413430
0.050380 0.970380 0.395380
0.168370 0.973370 0.398370
0.286360 0.976360 0.401360
0.404350 0.979350 0.404350
0.522340 0.982340 0.407340
0.640330 0.985330 0.410330
0.758320 0.988320 0.413320
0.876310 0.991310 0.416310
0.994300 0.994300 0.419300
0.004560 0.004560 0.464560
0.122550 0.007550 0.467550
0.240540 0.010540 0.470540
0.358530 0.013530 0.473530
0.476520 0.016520 0.476520
0.594510 0.019510 0.479510
0.712500 0.022500 0.482500
0.830490 0.025490 0.485490
0.948480 0.028480 0.488480
0.010430 0.125430 0.470430
0.128420 0.128420 0.473420
0.246410 0.131410 0.476410
0.364400 0.134400 0.479400
0.482390 0.137390 0.482390
0.600380 0.140380 0.485380
0.718370 0.143370 0.488370
0.836360 0.146360 0.491360
0.954350 0.149350 0.494350
0.016300 0.246300 0.476300
0.134290 0.249290 0.479290
0.252280 0.252280 0.482280
0.370270 0.255270 0.485270
0.488260 0.258260 0.488260
0.606250 0.261250 0.491250
0.724240 0.264240 0.494240
0.842230 0.267230 0.497230
0.960220 0.270220 0.500220
0.022170 0.367170 0.482170
0.140160 0.370160 0.485160
0.258150 0.373150 0.488150
0.376140 0.376140 0.491140
0.494130 0.379130 0.494130
0.612120 0.382120 0.497120
0.730110 0.385110 0.500110
0.848100 0.388100 0.503100
0.966090 0.391090 0.506090
0.028040 0.488040 0.488040
0.146030 0.491030 0.491030
0.264020 0.494020 0.494020
0.382010 0.497010 0.497010
0.500000 0.500000 0.500000
0.617990 0.502990 0.502990
0.735980 0.505980 0.505980
0.853970 0.508970 0.508970
0.971960 0.511960 0.511960
0.033910 0.608910 0.493910
0.151900 0.611900 0.496900
0.269890 0.614890 0.499890
0.387880 0.617880 0.502880
0.505870 0.620870 0.505870
0.623860 0.623860 0.508860
0.741850 0.626850 0.511850
0.859840 0.629840 0.514840
0.977830 0.632830 0.517830
0.039780 0.729780 0.499780
0.157770 0.732770 0.502770
0.275760 0.735760 0.505760
0.393750 0.738750 0.508750
0.511740 0.741740 0.511740
0.629730 0.744730 0.514730
0.747720 0.747720 0.517720
0.865710 0.750710 0.520710
0.983700 0.753700 0.523700
0.045650 0.850650 0.505650
0.163640 0.853640 0.508640
0.281630 0.856630 0.511630
0.399620 0.859620 0.514620
0.517610 0.862610 0.517610
0.635600 0.865600 0.520600
0.753590 0.868590 0.523590
0.871580 0.871580 0.526580
0.989570 0.874570 0.529570
0.051520 0.971520 0.511520
0.169510 0.974510 0.514510
0.287500 0.977500 0.517500
0.405490 0.980490 0.520490
0.523480 0.983480 0.523480
0.641470 0.986470 0.526470
0.759460 0.989460 0.529460
0.877450 0.992450 0.532450
0.995440 0.995440 0.535440
0.005700 0.005700 0.580700
0.123690 0.008690 0.583690
0.241680 0.011680 0.586680
0.359670 0.014670 0.589670
0.477660 0.017660 0.592660
0.595650 0.020650 0.595650
0.713640 0.023640 0.598640
0.831630 0.026630 0.601630
0.949620 0.029620 0.604620
0.011570 0.126570 0.586570
0.129560 0.129560 0.589560
0.247550 0.132550 0.592550
0.365540 0.135540 0.595540
0.483530 0.138530 0.598530
0.601520 0.141520 0.601520
0.719510 0.144510 0.604510
0.837500 0.147500 0.607500
0.955490 0.150490 0.610490
0.017440 0.247440 0.592440
0.135430 0.250430 0.595430
0.253420 0.253420 0.598420
0.371410 0.256410 0.601410
0.489400 0.259400 0.604400
0.607390 0.262390 0.607390
0.725380 0.265380 0.610380
0.843370 0.268370 0.613370
0.961360 0.271360 0.616360
0.023310 0.368310 0.598310
0.141300 0.371300 0.601300
0.259290 0.374290 0.604290
0.377280 0.377280 0.607280
0.495270 0.380270 0.610270
0.613260 0.383260 0.613260
0.731250 0.386250 0.616250
0.849240 0.389240 0.619240
0.967230 0.392230 0.622230
0.029180 0.489180 0.604180
0.147170 0.492170 0.607170
0.265160 0.495160 0.610160
0.383150 0.498150 0.613150
0.501140 0.501140 0.616140
0.619130 0.504130 0.619130
0.737120 0.507120 0.622120
0.855110 0.510110 0.625110
0.973100 0.513100 0.628100
0.035050 0.610050 0.610050
0.153040 0.613040 0.613040
0.271030 0.616030 0.616030
0.389020 0.619020 0.619020
0.507010 0.622010 0.622010
0.625000 0.625000 0.625000
0.742990 0.627990 0.627990
0.860980 0.630980 0.630980
0.978970 0.633970 0.633970
0.040920 0.730920 0.615920
0.158910 0.733910 0.618910
0.276900 0.736900 0.621900
0.394890 0.739890 0.624890
0.512880 0.742880 0.627880
0.630870 0.745870 0.630870
0.748860 0.748860 0.633860
0.866850 0.751850 0.636850
0.984840 0.754840 0.639840
0.046790 0.851790 0.621790
0.164780 0.854780 0.624780
0.282770 0.857770 0.627770
0.400760 0.860760 0.630760
0.518750 0.863750 0.633750
0.636740 0.866740 0.636740
0.754730 0.869730 0.639730
0.872720 0.872720 0.642720
0.990710 0.875710 0.645710
0.052660 0.972660 0.627660
0.170650 0.975650 0.630650
0.288640 0.978640 0.633640
0.406630 0.981630 0.636630
0.524620 0.984620 0.639620
0.642610 0.987610 0.642610
0.760600 0.990600 0.645600
0.878590 0.993590 0.648590
0.996580 0.996580 0.651580
0.006840 0.006840 0.696840
0.124830 0.009830 0.699830
0.242820 0.012820 0.702820
0.360810 0.015810 0.705810
0.478800 0.018800 0.708800
0.596790 0.021790 0.711790
0.714780 0.024780 0.714780
0.832770 0.027770 0.717770
0.950760 0.030760 0.720760
0.012710 0.127710 0.702710
0.130700 0.130700 0.705700
0.248690 0.133690 0.708690
0.366680 0.136680 0.711680
0.484670 0.139670 0.714670
0.602660 0.142660 0.717660
0.720650 0.145650 0.720650
0.838640 0.148640 0.723640
0.956630 0.151630 0.726630
0.018580 0.248580 0.708580
0.136570 0.251570 0.711570
0.254560 0.254560 0.714560
0.372550 0.257550 0.717550
0.490540 0.260540 0.720540
0.608530 0.263530 0.723530
0.726520 0.266520 0.726520
0.844510 0.269510 0.729510
0.962500 0.272500 0.732500
0.024450 0.369450 0.714450
0.142440 0.372440 0.717440
0.260430 0.375430 0.720430
0.378420 0.378420 0.723420
0.496410 0.381410 0.726410
0.614400 0.384400 0.729400
0.732390 0.387390 0.732390
0.850380 0.390380 0.735380
0.968370 0.393370 0.738370
0.030320 0.490320 0.720320
0.148310 0.493310 0.723310
0.266300 0.496300 0.726300
0.384290 0.499290 0.729290
0.502280 0.502280 0.732280
0.620270 0.505270 0.735270
0.738260 0.508260 0.738260
0.856250 0.511250 0.741250
0.974240 0.514240 0.744240
0.036190 0.611190 0.726190
0.154180 0.614180 0.729180
0.272170 0.617170 0.732170
0.390160 0.620160 0.735160
0.508150 0.623150 0.738150
0.626140 0.626140 0.741140
0.744130 0.629130 0.744130
0.862120 0.632120 0.747120
0.980110 0.635110 0.750110
0.042060 0.732060 0.732060
0.160050 0.735050 0.735050
0.278040 0.738040 0.738040
0.396030 0.741030 0.741030
0.514020 0.744020 0.744020
0.632010 0.747010 0.747010
0.750000 0.750000 0.750000
0.867990 0.752990 0.752990
0.985980 0.755980 0.755980
0.047930 0.852930 0.737930
0.165920 0.855920 0.740920
0.283910 0.858910 0.743910
0.401900 0.861900 0.746900
0.519890 0.864890 0.749890
0.637880 0.867880 0.752880
0.755870 0.870870 0.755870
0.873860 0.873860 0.758860
0.991850 0.876850 0.761850
0.053800 0.973800 0.743800
0.171790 0.976790 0.746790
0.289780 0.979780 0.749780
0.407770 0.982770 0.752770
0.525760 0.985760 0.755760
0.643750 0.988750 0.758750
0.761740 0.991740 0.761740
0.879730 0.994730 0.764730
0.997720 0.997720 0.767720
0.007980 0.007980 0.812980
0.125970 0.010970 0.815970
0.243960 0.013960 0.818960
0.361950 0.016950 0.821950
0.479940 0.019940 0.824940
0.597930 0.022930 0.827930
0.715920 0.025920 0.830920
0.833910 0.028910 0.833910
0.951900 0.031900 0.836900
0.013850 0.128850 0.818850
0.131840 0.131840 0.821840
0.249830 0.134830 0.824830
0.367820 0.137820 0.827820
0.485810 0.140810 0.830810
0.603800 0.143800 0.833800
0.721790 0.146790 0.836790
0.839780 0.149780 0.839780
0.957770 0.152770 0.842770
0.019720 0.249720 0.824720
0.137710 0.252710 0.827710
0.255700 0.255700 0.830700
0.373690 0.258690 0.833690
0.491680 0.261680 0.836680
0.609670 0.264670 0.839670
0.727660 0.267660 0.842660
0.845650 0.270650 0.845650
0.963640 0.273640 0.848640
0.025590 0.370590 0.830590
0.143580 0.373580 0.833580
0.261570 0.376570 0.836570
0.379560 0.379560 0.839560
0.497550 0.382550 0.842550
0.615540 0.385540 0.845540
0.733530 0.388530 0.848530
0.851520 0.391520 0.851520
0.969510 0.394510 0.854510
0.031460 0.491460 0.836460
0.149450 0.494450 0.839450
0.267440 0.497440 0.842440
0.385430 0.500430 0.845430
0.503420 0.503420 0.848420
0.621410 0.506410 0.851410
0.739400 0.509400 0.854400
0.857390 0.512390 0.857390
0.975380 0.515380 0.860380
0.037330 0.612330 0.842330
0.155320 0.615320 0.845320
0.273310 0.618310 0.848310
0.391300 0.621300 0.851300
0.509290 0.624290 0.854290
0.627280 0.627280 0.857280
0.745270 0.630270 0.860270
0.863260 0.633260 0.863260
0.981250 0.636250 0.866250
0.043200 0.733200 0.848200
0.161190 0.736190 0.851190
0.279180 0.739180 0.854180
0.397170 0.742170 0.857170
0.515160 0.745160 0.860160
0.633150 0.748150 0.863150
0.751140 0.751140 0.866140
0.869130 0.754130 0.869130
0.987120 0.757120 0.872120
0.049070 0.854070 0.854070
0.167060 0.857060 0.857060
0.285050 0.860050 0.860050
0.403040 0.863040 0.863040
0.521030 0.866030 0.866030
0.639020 0.869020 0.869020
0.757010 0.872010 0.872010
0.875000 0.875000 0.875000
0.992990 0.877990 0.877990
0.054940 0.974940 0.859940
0.172930 0.977930 0.862930
0.290920 0.980920 0.865920
0.408910 0.983910 0.868910
0.526900 0.986900 0.871900
0.644890 0.989890 0.874890
0.762880 0.992880 0.877880
0.880870 0.995870 0.880870
0.998860 0.998860 0.883860
0.009120 0.009120 0.929120
0.127110 0.012110 0.932110
0.245100 0.015100 0.935100
0.363090 0.018090 0.938090
0.481080 0.021080 0.941080
0.599070 0.024070 0.944070
0.717060 0.027060 0.947060
0.835050 0.030050 0.950050
0.953040 0.033040 0.953040
0.014990 0.129990 0.934990
0.132980 0.132980 0.937980
0.250970 0.135970 0.940970
0.368960 0.138960 0.943960
0.486950 0.141950 0.946950
0.604940 0.144940 0.949940
0.722930 0.147930 0.952930
0.840920 0.150920 0.955920
0.958910 0.153910 0.958910
0.020860 0.250860 0.940860
0.138850 0.253850 0.943850
0.256840 0.256840 0.946840
0.374830 0.259830 0.949830
0.492820 0.262820 0.952820
0.610810 0.265810 0.955810
0.728800 0.268800 0.958800
0.846790 0.271790 0.961790
0.964780 0.274780 0.964780
0.026730 0.371730 0.946730
0.144720 0.374720 0.949720
0.262710 0.377710 0.952710
0.380700 0.380700 0.955700
0.498690 0.383690 0.958690
0.616680 0.386680 0.961680
0.734670 0.389670 0.964670
0.852660 0.392660 0.967660
0.970650 0.395650 0.970650
0.032600 0.492600 0.952600
0.150590 0.495590 0.955590
0.268580 0.498580 0.958580
0.386570 0.501570 0.961570
0.504560 0.504560 0.964560
0.622550 0.507550 0.967550
0.740540 0.510540 0.970540
0.858530 0.513530 0.973530
0.976520 0.516520 0.976520
0.038470 0.613470 0.958470
0.156460 0.616460 0.961460
0.274450 0.619450 0.964450
0.392440 0.622440 0.967440
0.510430 0.625430 0.970430
0.628420 0.628420 0.973420
0.746410 0.631410 0.976410
0.864400 0.634400 0.979400
0.982390 0.637390 0.982390
0.044340 0.734340 0.964340
0.162330 0.737330 0.967330
0.280320 0.740320 0.970320
0.398310 0.743310 0.973310
0.516300 0.746300 0.976300
0.634290 0.749290 0.979290
0.752280 0.752280 0.982280
0.870270 0.755270 0.985270
0.988260 0.758260 0.988260
0.050210 0.855210 0.970210
0.168200 0.858200 0.973200
0.286190 0.861190 0.976190
0.404180 0.864180 0.979180
0.522170 0.867170 0.982170
0.640160 0.870160 0.985160
0.758150 0.873150 0.988150
0.876140 0.876140 0.991140
0.994130 0.879130 0.994130
0.056080 0.976080 0.976080
0.174070 0.979070 0.979070
0.292060 0.982060 0.982060
0.410050 0.985050 0.985050
0.528040 0.988040 0.988040
0.646030 0.991030 0.991030
0.764020 0.994020 0.994020
0.882010 0.997010 0.997010
1.000000 1.000000 1.000000
