backend/assets/luts/natural_realistic.cube
TITLE "Natural Realistic"
LUT_3D_SIZE 5
0.000000 0.000000 0.000000
0.235980 0.005980 0.005980
0.471960 0.011960 0.011960
0.707940 0.017940 0.017940
0.943920 0.023920 0.023920
0.011740 0.241740 0.011740
0.247720 0.247720 0.017720
0.483700 0.253700 0.023700
0.719680 0.259680 0.029680
0.955660 0.265660 0.035660
0.023480 0.483480 0.023480
0.259460 0.489460 0.029460
0.495440 0.495440 0.035440
0.731420 0.501420 0.041420
0.967400 0.507400 0.047400
0.035220 0.725220 0.035220
0.271200 0.731200 0.041200
0.507180 0.737180 0.047180
0.743160 0.743160 0.053160
0.979140 0.749140 0.059140
0.046960 0.966960 0.046960
0.282940 0.972940 0.052940
0.518920 0.978920 0.058920
0.754900 0.984900 0.064900
0.990880 0.990880 0.070880
0.002280 0.002280 0.232280
0.238260 0.008260 0.238260
0.474240 0.014240 0.244240
0.710220 0.020220 0.250220
0.946200 0.026200 0.256200
0.014020 0.244020 0.244020
0.250000 0.250000 0.250000
0.485980 0.255980 0.255980
0.721960 0.261960 0.261960
0.957940 0.267940 0.267940
0.025760 0.485760 0.255760
0.261740 0.491740 0.261740
0.497720 0.497720 0.267720
0.733700 0.503700 0.273700
0.969680 0.509680 0.279680
0.037500 0.727500 0.267500
0.273480 0.733480 0.273480
0.509460 0.739460 0.279460
0.745440 0.745440 0.285440
0.981420 0.751420 0.291420
0.049240 0.969240 0.279240
0.285220 0.975220 0.285220
0.521200 0.981200 0.291200
0.757180 0.987180 0.297180
0.993160 0.993160 0.303160
0.004560 0.004560 0.464560
0.240540 0.010540 0.470540
0.476520 0.016520 0.476520
0.712500 0.022500 0.482500
0.948480 0.028480 0.488480
0.016300 0.246300 0.476300
0.252280 0.252280 0.482280
0.488260 0.258260 0.488260
0.724240 0.264240 0.494240
0.960220 0.270220 0.500220
0.028040 0.488040 0.488040
0.264020 0.494020 0.494020
0.500000 0.500000 0.500000
0.735980 0.505980 0.505980
0.971960 0.511960 0.511960
0.039780 0.729780 0.499780
0.275760 0.735760 0.505760
0.511740 0.741740 0.511740
0.747720 0.747720 0.517720
0.983700 0.753700 0.523700
0.051520 0.971520 0.511520
0.287500 0.977500 0.517500
0.523480 0.983480 0.523480
0.759460 0.989460 0.529460
0.995440 0.995440 0.535440
0.006840 0.006840 0.696840
0.242820 0.012820 0.702820
0.478800 0.018800 0.708800
0.714780 0.024780 0.714780
0.950760 0.030760 0.720760
0.018580 0.248580 0.708580
0.254560 0.254560 0.714560
0.490540 0.260540 0.720540
0.726520 0.266520 0.726520
0.962500 0.272500 0.732500
0.030320 0.490320 0.720320
0.266300 0.496300 0.726300
0.502280 0.502280 0.732280
0.738260 0.508260 0.738260
0.974240 0.514240 0.744240
0.042060 0.732060 0.732060
0.278040 0.738040 0.738040
0.514020 0.744020 0.744020
0.750000 0.750000 0.750000
0.985980 0.755980 0.755980
0.053800 0.973800 0.743800
0.289780 0.979780 0.749780
0.525760 0.985760 0.755760
0.761740 0.991740 0.761740
0.997720 0.997720 0.767720
0.009120 0.009120 0.929120
0.245100 0.015100 0.935100
0.481080 0.021080 0.941080
0.717060 0.027060 0.947060
0.953040 0.033040 0.953040
0.020860 0.250860 0.940860
0.256840 0.256840 0.946840
0.492820 0.262820 0.952820
0.728800 0.268800 0.958800
0.964780 0.274780 0.964780
0.032600 0.492600 0.952600
0.268580 0.498580 0.958580
0.504560 0.504560 0.964560
0.740540 0.510540 0.970540
0.976520 0.516520 0.976520
0.044340 0.734340 0.964340
0.280320 0.740320 0.970320
0.516300 0.746300 0.976300
0.752280 0.752280 0.982280
0.988260 0.758260 0.988260
0.056080 0.976080 0.976080
0.292060 0.982060 0.982060
0.528040 0.988040 0.988040
0.764020 0.994020 0.994020
1.000000 1.000000 1.000000
