backend/assets/luts/natural_realistic.cube
TITLE "Natural Realistic"
LUT_3D_SIZE 33
0.000000 0.000000 0.000000
0.029498 0.000747 0.000747
0.058995 0.001495 0.001495
0.088493 0.002242 0.002242
0.117990 0.002990 0.002990
0.147487 0.003737 0.003737
0.176985 0.004485 0.004485
0.206483 0.005232 0.005232
0.235980 0.005980 0.005980
0.265478 0.006727 0.006727
0.294975 0.007475 0.007475
0.324472 0.008222 0.008222
0.353970 0.008970 0.008970
0.383468 0.009717 0.009717
0.412965 0.010465 0.010465
0.442463 0.011212 0.011212
0.471960 0.011960 0.011960
0.501458 0.012707 0.012707
0.530955 0.013455 0.013455
0.560453 0.014203 0.014203
0.589950 0.014950 0.014950
0.619448 0.015698 0.015698
0.648945 0.016445 0.016445
0.678443 0.017192 0.017192
0.707940 0.017940 0.017940
0.737437 0.018687 0.018687
0.766935 0.019435 0.019435
0.796432 0.020182 0.020182
0.825930 0.020930 0.020930
0.855428 0.021677 0.021677
0.884925 0.022425 0.022425
0.914423 0.023172 0.023172
0.943920 0.023920 0.023920
0.001468 0.030218 0.001468
0.030965 0.030965 0.002215
0.060463 0.031712 0.002962
0.089960 0.032460 0.003710
0.119458 0.033208 0.004457
0.148955 0.033955 0.005205
0.178453 0.034702 0.005952
0.207950 0.035450 0.006700
0.237448 0.036198 0.007447
0.266945 0.036945 0.008195
0.296442 0.037692 0.008942
0.325940 0.038440 0.009690
0.355438 0.039188 0.010437
0.384935 0.039935 0.011185
0.414433 0.040682 0.011932
0.443930 0.041430 0.012680
0.473428 0.042178 0.013427
0.502925 0.042925 0.014175
0.532423 0.043673 0.014922
0.561920 0.044420 0.015670
0.591418 0.045167 0.016418
0.620915 0.045915 0.017165
0.650413 0.046662 0.017912
0.679910 0.047410 0.018660
0.709408 0.048157 0.019407
0.738905 0.048905 0.020155
0.768402 0.049652 0.020902
0.797900 0.050400 0.021650
0.827398 0.051147 0.022398
0.856895 0.051895 0.023145
0.886393 0.052642 0.023892
0.915890 0.053390 0.024640
0.945388 0.054138 0.025388
0.002935 0.060435 0.002935
0.032433 0.061183 0.003682
0.061930 0.061930 0.004430
0.091427 0.062677 0.005177
0.120925 0.063425 0.005925
0.150423 0.064172 0.006672
0.179920 0.064920 0.007420
0.209418 0.065667 0.008167
0.238915 0.066415 0.008915
0.268412 0.067162 0.009662
0.297910 0.067910 0.010410
0.327408 0.068657 0.011157
0.356905 0.069405 0.011905
0.386402 0.070152 0.012652
0.415900 0.070900 0.013400
0.445398 0.071647 0.014147
0.474895 0.072395 0.014895
0.504393 0.073142 0.015643
0.533890 0.073890 0.016390
0.563388 0.074637 0.017137
0.592885 0.075385 0.017885
0.622383 0.076132 0.018632
0.651880 0.076880 0.019380
0.681377 0.077627 0.020127
0.710875 0.078375 0.020875
0.740372 0.079122 0.021622
0.769870 0.079870 0.022370
0.799368 0.080617 0.023118
0.828865 0.081365 0.023865
0.858363 0.082112 0.024612
0.887860 0.082860 0.025360
0.917358 0.083608 0.026108
0.946855 0.084355 0.026855
0.004402 0.090652 0.004402
0.033900 0.091400 0.005150
0.063397 0.092147 0.005897
0.092895 0.092895 0.006645
0.122393 0.093643 0.007392
0.151890 0.094390 0.008140
0.181388 0.095137 0.008887
0.210885 0.095885 0.009635
0.240382 0.096632 0.010382
0.269880 0.097380 0.011130
0.299378 0.098128 0.011877
0.328875 0.098875 0.012625
0.358372 0.099623 0.013372
0.387870 0.100370 0.014120
0.417368 0.101117 0.014868
0.446865 0.101865 0.015615
0.476363 0.102612 0.016363
0.505860 0.103360 0.017110
0.535358 0.104107 0.017857
0.564855 0.104855 0.018605
0.594353 0.105602 0.019352
0.623850 0.106350 0.020100
0.653347 0.107097 0.020847
0.682845 0.107845 0.021595
0.712342 0.108592 0.022342
0.741840 0.109340 0.023090
0.771338 0.110088 0.023838
0.800835 0.110835 0.024585
0.830333 0.111583 0.025332
0.859830 0.112330 0.026080
0.889328 0.113077 0.026828
0.918825 0.113825 0.027575
0.948322 0.114572 0.028322
0.005870 0.120870 0.005870
0.035367 0.121618 0.006617
0.064865 0.122365 0.007365
0.094363 0.123112 0.008112
0.123860 0.123860 0.008860
0.153358 0.124607 0.009607
0.182855 0.125355 0.010355
0.212352 0.126103 0.011102
0.241850 0.126850 0.011850
0.271348 0.127598 0.012597
0.300845 0.128345 0.013345
0.330342 0.129092 0.014092
0.359840 0.129840 0.014840
0.389338 0.130587 0.015588
0.418835 0.131335 0.016335
0.448333 0.132082 0.017083
0.477830 0.132830 0.017830
0.507327 0.133578 0.018577
0.536825 0.134325 0.019325
0.566323 0.135072 0.020072
0.595820 0.135820 0.020820
0.625317 0.136567 0.021567
0.654815 0.137315 0.022315
0.684312 0.138063 0.023062
0.713810 0.138810 0.023810
0.743308 0.139558 0.024558
0.772805 0.140305 0.025305
0.802303 0.141052 0.026052
0.831800 0.141800 0.026800
0.861298 0.142547 0.027548
0.890795 0.143295 0.028295
0.920293 0.144042 0.029042
0.949790 0.144790 0.029790
0.007337 0.151087 0.007337
0.036835 0.151835 0.008085
0.066332 0.152583 0.008832
0.095830 0.153330 0.009580
0.125328 0.154078 0.010327
0.154825 0.154825 0.011075
0.184323 0.155573 0.011822
0.213820 0.156320 0.012570
0.243318 0.157067 0.013317
0.272815 0.157815 0.014065
0.302312 0.158562 0.014812
0.331810 0.159310 0.015560
0.361308 0.160057 0.016308
0.390805 0.160805 0.017055
0.420303 0.161552 0.017802
0.449800 0.162300 0.018550
0.479298 0.163048 0.019297
0.508795 0.163795 0.020045
0.538293 0.164542 0.020792
0.567790 0.165290 0.021540
0.597287 0.166038 0.022287
0.626785 0.166785 0.023035
0.656282 0.167533 0.023782
0.685780 0.168280 0.024530
0.715278 0.169027 0.025278
0.744775 0.169775 0.026025
0.774273 0.170522 0.026772
0.803770 0.171270 0.027520
0.833268 0.172017 0.028268
0.862765 0.172765 0.029015
0.892263 0.173512 0.029762
0.921760 0.174260 0.030510
0.951257 0.175007 0.031257
0.008805 0.181305 0.008805
0.038302 0.182053 0.009552
0.067800 0.182800 0.010300
0.097297 0.183548 0.011047
0.126795 0.184295 0.011795
0.156293 0.185042 0.012542
0.185790 0.185790 0.013290
0.215287 0.186537 0.014037
0.244785 0.187285 0.014785
0.274282 0.188032 0.015532
0.303780 0.188780 0.016280
0.333278 0.189527 0.017028
0.362775 0.190275 0.017775
0.392273 0.191022 0.018522
0.421770 0.191770 0.019270
0.451268 0.192518 0.020017
0.480765 0.193265 0.020765
0.510263 0.194013 0.021512
0.539760 0.194760 0.022260
0.569257 0.195508 0.023008
0.598755 0.196255 0.023755
0.628252 0.197002 0.024502
0.657750 0.197750 0.025250
0.687248 0.198497 0.025998
0.716745 0.199245 0.026745
0.746243 0.199992 0.027492
0.775740 0.200740 0.028240
0.805238 0.201487 0.028987
0.834735 0.202235 0.029735
0.864233 0.202982 0.030482
0.893730 0.203730 0.031230
0.923227 0.204477 0.031977
0.952725 0.205225 0.032725
0.010272 0.211523 0.010272
0.039770 0.212270 0.011020
0.069267 0.213017 0.011767
0.098765 0.213765 0.012515
0.128263 0.214512 0.013262
0.157760 0.215260 0.014010
0.187257 0.216008 0.014758
0.216755 0.216755 0.015505
0.246252 0.217502 0.016253
0.275750 0.218250 0.017000
0.305248 0.218998 0.017747
0.334745 0.219745 0.018495
0.364243 0.220493 0.019242
0.393740 0.221240 0.019990
0.423238 0.221988 0.020737
0.452735 0.222735 0.021485
0.482233 0.223483 0.022232
0.511730 0.224230 0.022980
0.541227 0.224977 0.023728
0.570725 0.225725 0.024475
0.600222 0.226472 0.025222
0.629720 0.227220 0.025970
0.659218 0.227967 0.026718
0.688715 0.228715 0.027465
0.718213 0.229463 0.028212
0.747710 0.230210 0.028960
0.777208 0.230957 0.029707
0.806705 0.231705 0.030455
0.836202 0.232453 0.031202
0.865700 0.233200 0.031950
0.895197 0.233948 0.032697
0.924695 0.234695 0.033445
0.954192 0.235442 0.034192
0.011740 0.241740 0.011740
0.041237 0.242488 0.012487
0.070735 0.243235 0.013235
0.100233 0.243982 0.013982
0.129730 0.244730 0.014730
0.159227 0.245478 0.015478
0.188725 0.246225 0.016225
0.218222 0.246972 0.016973
0.247720 0.247720 0.017720
0.277218 0.248468 0.018467
0.306715 0.249215 0.019215
0.336213 0.249963 0.019962
0.365710 0.250710 0.020710
0.395208 0.251458 0.021457
0.424705 0.252205 0.022205
0.454203 0.252953 0.022952
0.483700 0.253700 0.023700
0.513197 0.254447 0.024448
0.542695 0.255195 0.025195
0.572192 0.255942 0.025942
0.601690 0.256690 0.026690
0.631188 0.257437 0.027438
0.660685 0.258185 0.028185
0.690183 0.258933 0.028932
0.719680 0.259680 0.029680
0.749178 0.260427 0.030427
0.778675 0.261175 0.031175
0.808172 0.261923 0.031922
0.837670 0.262670 0.032670
0.867168 0.263417 0.033417
0.896665 0.264165 0.034165
0.926162 0.264912 0.034912
0.955660 0.265660 0.035660
0.013207 0.271958 0.013207
0.042705 0.272705 0.013955
0.072202 0.273452 0.014702
0.101700 0.274200 0.015450
0.131197 0.274948 0.016198
0.160695 0.275695 0.016945
0.190192 0.276442 0.017692
0.219690 0.277190 0.018440
0.249188 0.277938 0.019187
0.278685 0.278685 0.019935
0.308183 0.279432 0.020682
0.337680 0.280180 0.021430
0.367177 0.280927 0.022177
0.396675 0.281675 0.022925
0.426173 0.282423 0.023672
0.455670 0.283170 0.024420
0.485167 0.283917 0.025168
0.514665 0.284665 0.025915
0.544162 0.285413 0.026662
0.573660 0.286160 0.027410
0.603158 0.286907 0.028158
0.632655 0.287655 0.028905
0.662153 0.288403 0.029652
0.691650 0.289150 0.030400
0.721148 0.289897 0.031147
0.750645 0.290645 0.031895
0.780142 0.291392 0.032642
0.809640 0.292140 0.033390
0.839138 0.292887 0.034137
0.868635 0.293635 0.034885
0.898133 0.294382 0.035632
0.927630 0.295130 0.036380
0.957128 0.295878 0.037127
0.014675 0.302175 0.014675
0.044173 0.302922 0.015422
0.073670 0.303670 0.016170
0.103167 0.304418 0.016918
0.132665 0.305165 0.017665
0.162162 0.305913 0.018412
0.191660 0.306660 0.019160
0.221158 0.307408 0.019907
0.250655 0.308155 0.020655
0.280153 0.308903 0.021402
0.309650 0.309650 0.022150
0.339147 0.310397 0.022897
0.368645 0.311145 0.023645
0.398143 0.311893 0.024392
0.427640 0.312640 0.025140
0.457137 0.313387 0.025888
0.486635 0.314135 0.026635
0.516132 0.314883 0.027382
0.545630 0.315630 0.028130
0.575128 0.316377 0.028878
0.604625 0.317125 0.029625
0.634123 0.317873 0.030372
0.663620 0.318620 0.031120
0.693118 0.319368 0.031867
0.722615 0.320115 0.032615
0.752112 0.320862 0.033362
0.781610 0.321610 0.034110
0.811108 0.322357 0.034857
0.840605 0.323105 0.035605
0.870103 0.323852 0.036352
0.899600 0.324600 0.037100
0.929098 0.325348 0.037847
0.958595 0.326095 0.038595
0.016143 0.332392 0.016143
0.045640 0.333140 0.016890
0.075137 0.333888 0.017638
0.104635 0.334635 0.018385
0.134132 0.335383 0.019132
0.163630 0.336130 0.019880
0.193128 0.336877 0.020627
0.222625 0.337625 0.021375
0.252123 0.338373 0.022122
0.281620 0.339120 0.022870
0.311117 0.339867 0.023618
0.340615 0.340615 0.024365
0.370113 0.341363 0.025112
0.399610 0.342110 0.025860
0.429107 0.342857 0.026608
0.458605 0.343605 0.027355
0.488102 0.344353 0.028102
0.517600 0.345100 0.028850
0.547098 0.345847 0.029597
0.576595 0.346595 0.030345
0.606093 0.347342 0.031092
0.635590 0.348090 0.031840
0.665088 0.348838 0.032587
0.694585 0.349585 0.033335
0.724082 0.350332 0.034082
0.753580 0.351080 0.034830
0.783078 0.351828 0.035577
0.812575 0.352575 0.036325
0.842073 0.353322 0.037073
0.871570 0.354070 0.037820
0.901068 0.354818 0.038567
0.930565 0.355565 0.039315
0.960063 0.356312 0.040063
0.017610 0.362610 0.017610
0.047107 0.363357 0.018357
0.076605 0.364105 0.019105
0.106102 0.364853 0.019852
0.135600 0.365600 0.020600
0.165098 0.366347 0.021347
0.194595 0.367095 0.022095
0.224093 0.367843 0.022842
0.253590 0.368590 0.023590
0.283087 0.369337 0.024338
0.312585 0.370085 0.025085
0.342083 0.370833 0.025832
0.371580 0.371580 0.026580
0.401077 0.372327 0.027328
0.430575 0.373075 0.028075
0.460072 0.373823 0.028822
0.489570 0.374570 0.029570
0.519068 0.375317 0.030317
0.548565 0.376065 0.031065
0.578063 0.376812 0.031812
0.607560 0.377560 0.032560
0.637058 0.378308 0.033307
0.666555 0.379055 0.034055
0.696052 0.379802 0.034802
0.725550 0.380550 0.035550
0.755047 0.381298 0.036297
0.784545 0.382045 0.037045
0.814043 0.382792 0.037793
0.843540 0.383540 0.038540
0.873038 0.384288 0.039287
0.902535 0.385035 0.040035
0.932033 0.385782 0.040782
0.961530 0.386530 0.041530
0.019077 0.392827 0.019077
0.048575 0.393575 0.019825
0.078072 0.394323 0.020572
0.107570 0.395070 0.021320
0.137067 0.395817 0.022067
0.166565 0.396565 0.022815
0.196062 0.397313 0.023562
0.225560 0.398060 0.024310
0.255057 0.398807 0.025058
0.284555 0.399555 0.025805
0.314053 0.400303 0.026552
0.343550 0.401050 0.027300
0.373047 0.401798 0.028048
0.402545 0.402545 0.028795
0.432042 0.403292 0.029542
0.461540 0.404040 0.030290
0.491038 0.404788 0.031037
0.520535 0.405535 0.031785
0.550033 0.406282 0.032532
0.579530 0.407030 0.033280
0.609028 0.407778 0.034027
0.638525 0.408525 0.034775
0.668022 0.409272 0.035522
0.697520 0.410020 0.036270
0.727017 0.410768 0.037017
0.756515 0.411515 0.037765
0.786013 0.412262 0.038513
0.815510 0.413010 0.039260
0.845008 0.413758 0.040007
0.874505 0.414505 0.040755
0.904003 0.415253 0.041502
0.933500 0.416000 0.042250
0.962997 0.416747 0.042997
0.020545 0.423045 0.020545
0.050042 0.423793 0.021292
0.079540 0.424540 0.022040
0.109037 0.425288 0.022788
0.138535 0.426035 0.023535
0.168033 0.426783 0.024282
0.197530 0.427530 0.025030
0.227027 0.428277 0.025778
0.256525 0.429025 0.026525
0.286023 0.429773 0.027272
0.315520 0.430520 0.028020
0.345017 0.431268 0.028768
0.374515 0.432015 0.029515
0.404012 0.432762 0.030262
0.433510 0.433510 0.031010
0.463008 0.434258 0.031757
0.492505 0.435005 0.032505
0.522003 0.435752 0.033252
0.551500 0.436500 0.034000
0.580998 0.437248 0.034747
0.610495 0.437995 0.035495
0.639992 0.438742 0.036242
0.669490 0.439490 0.036990
0.698987 0.440238 0.037737
0.728485 0.440985 0.038485
0.757983 0.441732 0.039233
0.787480 0.442480 0.039980
0.816978 0.443227 0.040727
0.846475 0.443975 0.041475
0.875973 0.444723 0.042222
0.905470 0.445470 0.042970
0.934967 0.446217 0.043717
0.964465 0.446965 0.044465
0.022012 0.453263 0.022012
0.051510 0.454010 0.022760
0.081007 0.454758 0.023508
0.110505 0.455505 0.024255
0.140003 0.456253 0.025002
0.169500 0.457000 0.025750
0.198997 0.457747 0.026498
0.228495 0.458495 0.027245
0.257993 0.459242 0.027992
0.287490 0.459990 0.028740
0.316987 0.460738 0.029487
0.346485 0.461485 0.030235
0.375982 0.462232 0.030982
0.405480 0.462980 0.031730
0.434978 0.463728 0.032477
0.464475 0.464475 0.033225
0.493972 0.465222 0.033972
0.523470 0.465970 0.034720
0.552968 0.466718 0.035467
0.582465 0.467465 0.036215
0.611962 0.468212 0.036963
0.641460 0.468960 0.037710
0.670957 0.469708 0.038457
0.700455 0.470455 0.039205
0.729953 0.471203 0.039953
0.759450 0.471950 0.040700
0.788948 0.472697 0.041447
0.818445 0.473445 0.042195
0.847943 0.474193 0.042942
0.877440 0.474940 0.043690
0.906937 0.475687 0.044438
0.936435 0.476435 0.045185
0.965933 0.477183 0.045932
0.023480 0.483480 0.023480
0.052977 0.484228 0.024228
0.082475 0.484975 0.024975
0.111973 0.485723 0.025722
0.141470 0.486470 0.026470
0.170967 0.487217 0.027218
0.200465 0.487965 0.027965
0.229962 0.488712 0.028712
0.259460 0.489460 0.029460
0.288957 0.490208 0.030207
0.318455 0.490955 0.030955
0.347952 0.491702 0.031702
0.377450 0.492450 0.032450
0.406948 0.493198 0.033197
0.436445 0.493945 0.033945
0.465942 0.494692 0.034692
0.495440 0.495440 0.035440
0.524938 0.496188 0.036187
0.554435 0.496935 0.036935
0.583932 0.497683 0.037683
0.613430 0.498430 0.038430
0.642927 0.499177 0.039177
0.672425 0.499925 0.039925
0.701923 0.500672 0.040673
0.731420 0.501420 0.041420
0.760918 0.502167 0.042167
0.790415 0.502915 0.042915
0.819913 0.503663 0.043662
0.849410 0.504410 0.044410
0.878907 0.505158 0.045157
0.908405 0.505905 0.045905
0.937903 0.506652 0.046652
0.967400 0.507400 0.047400
0.024948 0.513698 0.024948
0.054445 0.514445 0.025695
0.083942 0.515192 0.026442
0.113440 0.515940 0.027190
0.142937 0.516687 0.027938
0.172435 0.517435 0.028685
0.201932 0.518182 0.029432
0.231430 0.518930 0.030180
0.260927 0.519678 0.030927
0.290425 0.520425 0.031675
0.319922 0.521173 0.032422
0.349420 0.521920 0.033170
0.378918 0.522668 0.033917
0.408415 0.523415 0.034665
0.437912 0.524162 0.035412
0.467410 0.524910 0.036160
0.496908 0.525657 0.036907
0.526405 0.526405 0.037655
0.555902 0.527153 0.038402
0.585400 0.527900 0.039150
0.614897 0.528648 0.039897
0.644395 0.529395 0.040645
0.673893 0.530142 0.041392
0.703390 0.530890 0.042140
0.732888 0.531637 0.042887
0.762385 0.532385 0.043635
0.791883 0.533133 0.044382
0.821380 0.533880 0.045130
0.850877 0.534628 0.045878
0.880375 0.535375 0.046625
0.909873 0.536122 0.047372
0.939370 0.536870 0.048120
0.968867 0.537617 0.048867
0.026415 0.543915 0.026415
0.055912 0.544663 0.027162
0.085410 0.545410 0.027910
0.114907 0.546158 0.028658
0.144405 0.546905 0.029405
0.173902 0.547652 0.030152
0.203400 0.548400 0.030900
0.232897 0.549148 0.031647
0.262395 0.549895 0.032395
0.291892 0.550643 0.033142
0.321390 0.551390 0.033890
0.350888 0.552137 0.034637
0.380385 0.552885 0.035385
0.409882 0.553632 0.036132
0.439380 0.554380 0.036880
0.468878 0.555127 0.037627
0.498375 0.555875 0.038375
0.527872 0.556623 0.039123
0.557370 0.557370 0.039870
0.586867 0.558118 0.040617
0.616365 0.558865 0.041365
0.645863 0.559612 0.042112
0.675360 0.560360 0.042860
0.704858 0.561107 0.043608
0.734355 0.561855 0.044355
0.763853 0.562603 0.045102
0.793350 0.563350 0.045850
0.822847 0.564098 0.046597
0.852345 0.564845 0.047345
0.881843 0.565592 0.048092
0.911340 0.566340 0.048840
0.940837 0.567087 0.049588
0.970335 0.567835 0.050335
0.027882 0.574133 0.027882
0.057380 0.574880 0.028630
0.086877 0.575627 0.029378
0.116375 0.576375 0.030125
0.145872 0.577122 0.030872
0.175370 0.577870 0.031620
0.204867 0.578618 0.032367
0.234365 0.579365 0.033115
0.263862 0.580113 0.033862
0.293360 0.580860 0.034610
0.322858 0.581608 0.035357
0.352355 0.582355 0.036105
0.381852 0.583102 0.036852
0.411350 0.583850 0.037600
0.440848 0.584597 0.038347
0.470345 0.585345 0.039095
0.499842 0.586093 0.039842
0.529340 0.586840 0.040590
0.558837 0.587588 0.041337
0.588335 0.588335 0.042085
0.617833 0.589082 0.042832
0.647330 0.589830 0.043580
0.676828 0.590577 0.044327
0.706325 0.591325 0.045075
0.735823 0.592073 0.045822
0.765320 0.592820 0.046570
0.794817 0.593568 0.047318
0.824315 0.594315 0.048065
0.853812 0.595063 0.048812
0.883310 0.595810 0.049560
0.912807 0.596557 0.050307
0.942305 0.597305 0.051055
0.971803 0.598052 0.051802
0.029350 0.604350 0.029350
0.058847 0.605098 0.030097
0.088345 0.605845 0.030845
0.117842 0.606592 0.031592
0.147340 0.607340 0.032340
0.176837 0.608088 0.033087
0.206335 0.608835 0.033835
0.235833 0.609583 0.034582
0.265330 0.610330 0.035330
0.294828 0.611077 0.036077
0.324325 0.611825 0.036825
0.353822 0.612572 0.037572
0.383320 0.613320 0.038320
0.412818 0.614067 0.039067
0.442315 0.614815 0.039815
0.471812 0.615563 0.040563
0.501310 0.616310 0.041310
0.530807 0.617058 0.042057
0.560305 0.617805 0.042805
0.589803 0.618553 0.043552
0.619300 0.619300 0.044300
0.648798 0.620047 0.045048
0.678295 0.620795 0.045795
0.707793 0.621542 0.046542
0.737290 0.622290 0.047290
0.766787 0.623038 0.048037
0.796285 0.623785 0.048785
0.825782 0.624533 0.049532
0.855280 0.625280 0.050280
0.884777 0.626027 0.051028
0.914275 0.626775 0.051775
0.943773 0.627522 0.052523
0.973270 0.628270 0.053270
0.030817 0.634567 0.030817
0.060315 0.635315 0.031565
0.089812 0.636062 0.032312
0.119310 0.636810 0.033060
0.148807 0.637557 0.033807
0.178305 0.638305 0.034555
0.207803 0.639053 0.035302
0.237300 0.639800 0.036050
0.266798 0.640548 0.036797
0.296295 0.641295 0.037545
0.325792 0.642043 0.038293
0.355290 0.642790 0.039040
0.384788 0.643537 0.039787
0.414285 0.644285 0.040535
0.443782 0.645033 0.041282
0.473280 0.645780 0.042030
0.502777 0.646528 0.042777
0.532275 0.647275 0.043525
0.561773 0.648022 0.044272
0.591270 0.648770 0.045020
0.620768 0.649517 0.045767
0.650265 0.650265 0.046515
0.679763 0.651012 0.047262
0.709260 0.651760 0.048010
0.738757 0.652508 0.048758
0.768255 0.653255 0.049505
0.797752 0.654003 0.050252
0.827250 0.654750 0.051000
0.856747 0.655497 0.051747
0.886245 0.656245 0.052495
0.915743 0.656992 0.053242
0.945240 0.657740 0.053990
0.974738 0.658488 0.054737
0.032285 0.664785 0.032285
0.061782 0.665533 0.033032
0.091280 0.666280 0.033780
0.120777 0.667027 0.034527
0.150275 0.667775 0.035275
0.179773 0.668523 0.036022
0.209270 0.669270 0.036770
0.238767 0.670018 0.037517
0.268265 0.670765 0.038265
0.297762 0.671512 0.039013
0.327260 0.672260 0.039760
0.356758 0.673007 0.040507
0.386255 0.673755 0.041255
0.415752 0.674503 0.042002
0.445250 0.675250 0.042750
0.474747 0.675998 0.043497
0.504245 0.676745 0.044245
0.533743 0.677493 0.044992
0.563240 0.678240 0.045740
0.592738 0.678987 0.046488
0.622235 0.679735 0.047235
0.651733 0.680482 0.047982
0.681230 0.681230 0.048730
0.710727 0.681978 0.049477
0.740225 0.682725 0.050225
0.769722 0.683473 0.050972
0.799220 0.684220 0.051720
0.828717 0.684967 0.052468
0.858215 0.685715 0.053215
0.887713 0.686462 0.053963
0.917210 0.687210 0.054710
0.946708 0.687957 0.055457
0.976205 0.688705 0.056205
0.033752 0.695002 0.033752
0.063250 0.695750 0.034500
0.092747 0.696497 0.035247
0.122245 0.697245 0.035995
0.151743 0.697993 0.036742
0.181240 0.698740 0.037490
0.210737 0.699488 0.038237
0.240235 0.700235 0.038985
0.269732 0.700983 0.039733
0.299230 0.701730 0.040480
0.328727 0.702477 0.041227
0.358225 0.703225 0.041975
0.387722 0.703973 0.042722
0.417220 0.704720 0.043470
0.446717 0.705468 0.044218
0.476215 0.706215 0.044965
0.505713 0.706962 0.045712
0.535210 0.707710 0.046460
0.564708 0.708457 0.047207
0.594205 0.709205 0.047955
0.623703 0.709952 0.048702
0.653200 0.710700 0.049450
0.682697 0.711448 0.050198
0.712195 0.712195 0.050945
0.741692 0.712943 0.051692
0.771190 0.713690 0.052440
0.800687 0.714437 0.053187
0.830185 0.715185 0.053935
0.859683 0.715932 0.054682
0.889180 0.716680 0.055430
0.918678 0.717427 0.056177
0.948175 0.718175 0.056925
0.977672 0.718923 0.057673
0.035220 0.725220 0.035220
0.064717 0.725967 0.035967
0.094215 0.726715 0.036715
0.123713 0.727463 0.037462
0.153210 0.728210 0.038210
0.182707 0.728958 0.038957
0.212205 0.729705 0.039705
0.241702 0.730452 0.040452
0.271200 0.731200 0.041200
0.300697 0.731947 0.041947
0.330195 0.732695 0.042695
0.359692 0.733442 0.043442
0.389190 0.734190 0.044190
0.418687 0.734938 0.044937
0.448185 0.735685 0.045685
0.477683 0.736433 0.046432
0.507180 0.737180 0.047180
0.536678 0.737928 0.047928
0.566175 0.738675 0.048675
0.595673 0.739422 0.049422
0.625170 0.740170 0.050170
0.654667 0.740918 0.050917
0.684165 0.741665 0.051665
0.713662 0.742413 0.052412
0.743160 0.743160 0.053160
0.772657 0.743907 0.053907
0.802155 0.744655 0.054655
0.831653 0.745402 0.055403
0.861150 0.746150 0.056150
0.890648 0.746897 0.056897
0.920145 0.747645 0.057645
0.949642 0.748393 0.058392
0.979140 0.749140 0.059140
0.036687 0.755437 0.036687
0.066185 0.756185 0.037435
0.095683 0.756933 0.038182
0.125180 0.757680 0.038930
0.154677 0.758428 0.039677
0.184175 0.759175 0.040425
0.213672 0.759923 0.041173
0.243170 0.760670 0.041920
0.272668 0.761417 0.042667
0.302165 0.762165 0.043415
0.331662 0.762912 0.044162
0.361160 0.763660 0.044910
0.390657 0.764408 0.045658
0.420155 0.765155 0.046405
0.449653 0.765903 0.047152
0.479150 0.766650 0.047900
0.508648 0.767397 0.048647
0.538145 0.768145 0.049395
0.567643 0.768892 0.050142
0.597140 0.769640 0.050890
0.626637 0.770388 0.051638
0.656135 0.771135 0.052385
0.685632 0.771883 0.053133
0.715130 0.772630 0.053880
0.744627 0.773378 0.054627
0.774125 0.774125 0.055375
0.803623 0.774872 0.056122
0.833120 0.775620 0.056870
0.862618 0.776367 0.057617
0.892115 0.777115 0.058365
0.921612 0.777863 0.059113
0.951110 0.778610 0.059860
0.980607 0.779358 0.060607
0.038155 0.785655 0.038155
0.067653 0.786403 0.038902
0.097150 0.787150 0.039650
0.126647 0.787898 0.040397
0.156145 0.788645 0.041145
0.185642 0.789392 0.041892
0.215140 0.790140 0.042640
0.244637 0.790887 0.043387
0.274135 0.791635 0.044135
0.303632 0.792382 0.044882
0.333130 0.793130 0.045630
0.362627 0.793878 0.046377
0.392125 0.794625 0.047125
0.421623 0.795373 0.047872
0.451120 0.796120 0.048620
0.480618 0.796868 0.049368
0.510115 0.797615 0.050115
0.539613 0.798362 0.050862
0.569110 0.799110 0.051610
0.598607 0.799857 0.052357
0.628105 0.800605 0.053105
0.657602 0.801353 0.053852
0.687100 0.802100 0.054600
0.716597 0.802848 0.055347
0.746095 0.803595 0.056095
0.775593 0.804342 0.056843
0.805090 0.805090 0.057590
0.834588 0.805837 0.058337
0.864085 0.806585 0.059085
