backend/assets/luts/vintage_fade.cube
TITLE "Vintage Fade"
LUT_3D_SIZE 9
0.007000 0.021000 0.040000
0.054142 0.051647 0.072890
0.101285 0.082295 0.105780
0.148428 0.112943 0.138670
0.195570 0.143590 0.171560
0.242712 0.174237 0.204450
0.289855 0.204885 0.237340
0.336997 0.235532 0.270230
0.384140 0.266180 0.303120
0.070102 0.093668 0.104570
0.117245 0.124315 0.137460
0.164387 0.154963 0.170350
0.211530 0.185610 0.203240
0.258672 0.216258 0.236130
0.305815 0.246905 0.269020
0.352958 0.277553 0.301910
0.400100 0.308200 0.334800
0.447690 0.340190 0.367690
0.133205 0.166335 0.169140
0.180347 0.196982 0.202030
0.227490 0.227630 0.234920
0.274633 0.258277 0.267810
0.321775 0.288925 0.300700
0.368917 0.319572 0.333590
0.416480 0.351480 0.366480
0.464370 0.384370 0.399370
0.512260 0.417260 0.432260
0.196307 0.239003 0.233710
0.243450 0.269650 0.266600
0.290593 0.300297 0.299490
0.337735 0.330945 0.332380
0.385270 0.362770 0.365270
0.433160 0.395660 0.398160
0.481050 0.428550 0.431050
0.528940 0.461440 0.463940
0.576830 0.494330 0.496830
0.259410 0.311670 0.298280
0.306553 0.342317 0.331170
0.354060 0.374060 0.364060
0.401950 0.406950 0.396950
0.449840 0.439840 0.429840
0.497730 0.472730 0.462730
0.545620 0.505620 0.495620
0.593510 0.538510 0.528510
0.641400 0.571400 0.561400
0.322850 0.385350 0.362850
0.370740 0.418240 0.395740
0.418630 0.451130 0.428630
0.466520 0.484020 0.461520
0.514410 0.516910 0.494410
0.562300 0.549800 0.527300
0.610190 0.582690 0.560190
0.658080 0.615580 0.593080
0.705970 0.648470 0.625970
0.387420 0.462420 0.427420
0.435310 0.495310 0.460310
0.483200 0.528200 0.493200
0.531090 0.561090 0.526090
0.578980 0.593980 0.558980
0.626870 0.626870 0.591870
0.674760 0.659760 0.624760
0.722650 0.692650 0.657650
0.770540 0.725540 0.690540
0.451990 0.539490 0.491990
0.499880 0.572380 0.524880
0.547770 0.605270 0.557770
0.595660 0.638160 0.590660
0.643550 0.671050 0.623550
0.691440 0.703940 0.656440
0.739330 0.736830 0.689330
0.787220 0.769720 0.722220
0.835110 0.802610 0.755110
0.516560 0.616560 0.556560
0.564450 0.649450 0.589450
0.612340 0.682340 0.622340
0.660230 0.715230 0.655230
0.708120 0.748120 0.688120
0.756010 0.781010 0.721010
0.803900 0.813900 0.753900
0.851790 0.846790 0.786790
0.899680 0.879680 0.819680
0.019255 0.032685 0.062540
0.066397 0.063332 0.095430
0.113540 0.093980 0.128320
0.160683 0.124628 0.161210
0.207825 0.155275 0.194100
0.254968 0.185923 0.226990
0.302110 0.216570 0.259880
0.349252 0.247217 0.292770
0.396395 0.277865 0.325660
0.082358 0.105352 0.127110
0.129500 0.136000 0.160000
0.176643 0.166648 0.192890
0.223785 0.197295 0.225780
0.270927 0.227942 0.258670
0.318070 0.258590 0.291560
0.365213 0.289238 0.324450
0.412355 0.319885 0.357340
0.460230 0.352730 0.390230
0.145460 0.178020 0.191680
0.192603 0.208668 0.224570
0.239745 0.239315 0.257460
0.286887 0.269962 0.290350
0.334030 0.300610 0.323240
0.381172 0.331257 0.356130
0.429020 0.364020 0.389020
0.476910 0.396910 0.421910
0.524800 0.429800 0.454800
0.208562 0.250688 0.256250
0.255705 0.281335 0.289140
0.302848 0.311982 0.322030
0.349990 0.342630 0.354920
0.397810 0.375310 0.387810
0.445700 0.408200 0.420700
0.493590 0.441090 0.453590
0.541480 0.473980 0.486480
0.589370 0.506870 0.519370
0.271665 0.323355 0.320820
0.318808 0.354002 0.353710
0.366600 0.386600 0.386600
0.414490 0.419490 0.419490
0.462380 0.452380 0.452380
0.510270 0.485270 0.485270
0.558160 0.518160 0.518160
0.606050 0.551050 0.551050
0.653940 0.583940 0.583940
0.335390 0.397890 0.385390
0.383280 0.430780 0.418280
0.431170 0.463670 0.451170
0.479060 0.496560 0.484060
0.526950 0.529450 0.516950
0.574840 0.562340 0.549840
0.622730 0.595230 0.582730
0.670620 0.628120 0.615620
0.718510 0.661010 0.648510
0.399960 0.474960 0.449960
0.447850 0.507850 0.482850
0.495740 0.540740 0.515740
0.543630 0.573630 0.548630
0.591520 0.606520 0.581520
0.639410 0.639410 0.614410
0.687300 0.672300 0.647300
0.735190 0.705190 0.680190
0.783080 0.738080 0.713080
0.464530 0.552030 0.514530
0.512420 0.584920 0.547420
0.560310 0.617810 0.580310
0.608200 0.650700 0.613200
0.656090 0.683590 0.646090
0.703980 0.716480 0.678980
0.751870 0.749370 0.711870
0.799760 0.782260 0.744760
0.847650 0.815150 0.777650
0.529100 0.629100 0.579100
0.576990 0.661990 0.611990
0.624880 0.694880 0.644880
0.672770 0.727770 0.677770
0.720660 0.760660 0.710660
0.768550 0.793550 0.743550
0.816440 0.826440 0.776440
0.864330 0.859330 0.809330
0.912220 0.892220 0.842220
0.031510 0.044370 0.085080
0.078653 0.075018 0.117970
0.125795 0.105665 0.150860
0.172938 0.136313 0.183750
0.220080 0.166960 0.216640
0.267222 0.197607 0.249530
0.314365 0.228255 0.282420
0.361508 0.258903 0.315310
0.408650 0.289550 0.348200
0.094612 0.117037 0.149650
0.141755 0.147685 0.182540
0.188898 0.178333 0.215430
0.236040 0.208980 0.248320
0.283183 0.239628 0.281210
0.330325 0.270275 0.314100
0.377468 0.300923 0.346990
0.424880 0.332380 0.379880
0.472770 0.365270 0.412770
0.157715 0.189705 0.214220
0.204857 0.220352 0.247110
0.252000 0.251000 0.280000
0.299142 0.281648 0.312890
0.346285 0.312295 0.345780
0.393670 0.343670 0.378670
0.441560 0.376560 0.411560
0.489450 0.409450 0.444450
0.537340 0.442340 0.477340
0.220817 0.262373 0.278790
0.267960 0.293020 0.311680
0.315103 0.323668 0.344570
0.362460 0.354960 0.377460
0.410350 0.387850 0.410350
0.458240 0.420740 0.443240
0.506130 0.453630 0.476130
0.554020 0.486520 0.509020
0.601910 0.519410 0.541910
0.283920 0.335040 0.343360
0.331250 0.366250 0.376250
0.379140 0.399140 0.409140
0.427030 0.432030 0.442030
0.474920 0.464920 0.474920
0.522810 0.497810 0.507810
0.570700 0.530700 0.540700
0.618590 0.563590 0.573590
0.666480 0.596480 0.606480
0.347930 0.410430 0.407930
0.395820 0.443320 0.440820
0.443710 0.476210 0.473710
0.491600 0.509100 0.506600
0.539490 0.541990 0.539490
0.587380 0.574880 0.572380
0.635270 0.607770 0.605270
0.683160 0.640660 0.638160
0.731050 0.673550 0.671050
0.412500 0.487500 0.472500
0.460390 0.520390 0.505390
0.508280 0.553280 0.538280
0.556170 0.586170 0.571170
0.604060 0.619060 0.604060
0.651950 0.651950 0.636950
0.699840 0.684840 0.669840
0.747730 0.717730 0.702730
0.795620 0.750620 0.735620
0.477070 0.564570 0.537070
0.524960 0.597460 0.569960
0.572850 0.630350 0.602850
0.620740 0.663240 0.635740
0.668630 0.696130 0.668630
0.716520 0.729020 0.701520
0.764410 0.761910 0.734410
0.812300 0.794800 0.767300
0.860190 0.827690 0.800190
0.541640 0.641640 0.601640
0.589530 0.674530 0.634530
0.637420 0.707420 0.667420
0.685310 0.740310 0.700310
0.733200 0.773200 0.733200
0.781090 0.806090 0.766090
0.828980 0.838980 0.798980
0.876870 0.871870 0.831870
0.924760 0.904760 0.864760
0.043765 0.056055 0.107620
0.090908 0.086703 0.140510
0.138050 0.117350 0.173400
0.185193 0.147998 0.206290
0.232335 0.178645 0.239180
0.279477 0.209292 0.272070
0.326620 0.239940 0.304960
0.373762 0.270588 0.337850
0.420905 0.301235 0.370740
0.106868 0.128722 0.172190
0.154010 0.159370 0.205080
0.201153 0.190018 0.237970
0.248295 0.220665 0.270860
0.295438 0.251313 0.303750
0.342580 0.281960 0.336640
0.389723 0.312608 0.369530
0.437420 0.344920 0.402420
0.485310 0.377810 0.435310
0.169970 0.201390 0.236760
0.217113 0.232037 0.269650
0.264255 0.262685 0.302540
0.311397 0.293332 0.335430
0.358540 0.323980 0.368320
0.406210 0.356210 0.401210
0.454100 0.389100 0.434100
0.501990 0.421990 0.466990
0.549880 0.454880 0.499880
0.233072 0.274058 0.301330
0.280215 0.304705 0.334220
0.327358 0.335352 0.367110
0.375000 0.367500 0.400000
0.422890 0.400390 0.432890
0.470780 0.433280 0.465780
0.518670 0.466170 0.498670
0.566560 0.499060 0.531560
0.614450 0.531950 0.564450
0.296175 0.346725 0.365900
0.343790 0.378790 0.398790
0.391680 0.411680 0.431680
0.439570 0.444570 0.464570
0.487460 0.477460 0.497460
0.535350 0.510350 0.530350
0.583240 0.543240 0.563240
0.631130 0.576130 0.596130
0.679020 0.609020 0.629020
0.360470 0.422970 0.430470
0.408360 0.455860 0.463360
0.456250 0.488750 0.496250
0.504140 0.521640 0.529140
0.552030 0.554530 0.562030
0.599920 0.587420 0.594920
0.647810 0.620310 0.627810
0.695700 0.653200 0.660700
0.743590 0.686090 0.693590
0.425040 0.500040 0.495040
0.472930 0.532930 0.527930
0.520820 0.565820 0.560820
0.568710 0.598710 0.593710
0.616600 0.631600 0.626600
0.664490 0.664490 0.659490
0.712380 0.697380 0.692380
0.760270 0.730270 0.725270
0.808160 0.763160 0.758160
0.489610 0.577110 0.559610
0.537500 0.610000 0.592500
0.585390 0.642890 0.625390
0.633280 0.675780 0.658280
0.681170 0.708670 0.691170
0.729060 0.741560 0.724060
0.776950 0.774450 0.756950
0.824840 0.807340 0.789840
0.872730 0.840230 0.822730
0.554180 0.654180 0.624180
0.602070 0.687070 0.657070
0.649960 0.719960 0.689960
0.697850 0.752850 0.722850
0.745740 0.785740 0.755740
0.793630 0.818630 0.788630
0.841520 0.851520 0.821520
0.889410 0.884410 0.854410
0.937300 0.917300 0.887300
0.056020 0.067740 0.130160
0.103163 0.098388 0.163050
0.150305 0.129035 0.195940
0.197447 0.159682 0.228830
0.244590 0.190330 0.261720
0.291733 0.220977 0.294610
0.338875 0.251625 0.327500
0.386017 0.282272 0.360390
0.433280 0.313280 0.393280
0.119122 0.140408 0.194730
0.166265 0.171055 0.227620
0.213407 0.201703 0.260510
0.260550 0.232350 0.293400
0.307692 0.262997 0.326290
0.354835 0.293645 0.359180
0.402070 0.324570 0.392070
0.449960 0.357460 0.424960
0.497850 0.390350 0.457850
0.182225 0.213075 0.259300
0.229368 0.243722 0.292190
0.276510 0.274370 0.325080
0.323652 0.305017 0.357970
0.370860 0.335860 0.390860
0.418750 0.368750 0.423750
0.466640 0.401640 0.456640
0.514530 0.434530 0.489530
0.562420 0.467420 0.522420
0.245328 0.285743 0.323870
0.292470 0.316390 0.356760
0.339650 0.347150 0.389650
0.387540 0.380040 0.422540
0.435430 0.412930 0.455430
0.483320 0.445820 0.488320
0.531210 0.478710 0.521210
0.579100 0.511600 0.554100
0.626990 0.544490 0.586990
0.308440 0.358440 0.388440
0.356330 0.391330 0.421330
0.404220 0.424220 0.454220
0.452110 0.457110 0.487110
0.500000 0.490000 0.520000
0.547890 0.522890 0.552890
0.595780 0.555780 0.585780
0.643670 0.588670 0.618670
0.691560 0.621560 0.651560
0.373010 0.435510 0.453010
0.420900 0.468400 0.485900
0.468790 0.501290 0.518790
0.516680 0.534180 0.551680
0.564570 0.567070 0.584570
0.612460 0.599960 0.617460
0.660350 0.632850 0.650350
0.708240 0.665740 0.683240
0.756130 0.698630 0.716130
0.437580 0.512580 0.517580
0.485470 0.545470 0.550470
0.533360 0.578360 0.583360
0.581250 0.611250 0.616250
0.629140 0.644140 0.649140
0.677030 0.677030 0.682030
0.724920 0.709920 0.714920
0.772810 0.742810 0.747810
0.820700 0.775700 0.780700
0.502150 0.589650 0.582150
0.550040 0.622540 0.615040
0.597930 0.655430 0.647930
0.645820 0.688320 0.680820
0.693710 0.721210 0.713710
0.741600 0.754100 0.746600
0.789490 0.786990 0.779490
0.837380 0.819880 0.812380
0.885270 0.852770 0.845270
0.566720 0.666720 0.646720
0.614610 0.699610 0.679610
0.662500 0.732500 0.712500
0.710390 0.765390 0.745390
0.758280 0.798280 0.778280
0.806170 0.831170 0.811170
0.854060 0.864060 0.844060
0.901950 0.896950 0.876950
0.949840 0.929840 0.909840
0.068275 0.079425 0.152700
0.115417 0.110072 0.185590
0.162560 0.140720 0.218480
0.209702 0.171368 0.251370
0.256845 0.202015 0.284260
0.303987 0.232662 0.317150
0.351130 0.263310 0.350040
0.398273 0.293958 0.382930
0.445820 0.325820 0.415820
0.131377 0.152092 0.217270
0.178520 0.182740 0.250160
0.225663 0.213388 0.283050
0.272805 0.244035 0.315940
0.319947 0.274682 0.348830
0.367090 0.305330 0.381720
0.414610 0.337110 0.414610
0.462500 0.370000 0.447500
0.510390 0.402890 0.480390
0.194480 0.224760 0.281840
0.241622 0.255408 0.314730
0.288765 0.286055 0.347620
0.335907 0.316702 0.380510
0.383400 0.348400 0.413400
0.431290 0.381290 0.446290
0.479180 0.414180 0.479180
0.527070 0.447070 0.512070
0.574960 0.479960 0.544960
0.257582 0.297428 0.346410
0.304725 0.328075 0.379300
0.352190 0.359690 0.412190
0.400080 0.392580 0.445080
0.447970 0.425470 0.477970
0.495860 0.458360 0.510860
0.543750 0.491250 0.543750
0.591640 0.524140 0.576640
0.639530 0.557030 0.609530
0.320980 0.370980 0.410980
0.368870 0.403870 0.443870
0.416760 0.436760 0.476760
0.464650 0.469650 0.509650
0.512540 0.502540 0.542540
0.560430 0.535430 0.575430
0.608320 0.568320 0.608320
0.656210 0.601210 0.641210
0.704100 0.634100 0.674100
0.385550 0.448050 0.475550
0.433440 0.480940 0.508440
0.481330 0.513830 0.541330
0.529220 0.546720 0.574220
0.577110 0.579610 0.607110
0.625000 0.612500 0.640000
0.672890 0.645390 0.672890
0.720780 0.678280 0.705780
0.768670 0.711170 0.738670
0.450120 0.525120 0.540120
0.498010 0.558010 0.573010
0.545900 0.590900 0.605900
0.593790 0.623790 0.638790
0.641680 0.656680 0.671680
0.689570 0.689570 0.704570
0.737460 0.722460 0.737460
0.785350 0.755350 0.770350
0.833240 0.788240 0.803240
0.514690 0.602190 0.604690
0.562580 0.635080 0.637580
0.610470 0.667970 0.670470
0.658360 0.700860 0.703360
0.706250 0.733750 0.736250
0.754140 0.766640 0.769140
0.802030 0.799530 0.802030
0.849920 0.832420 0.834920
0.897810 0.865310 0.867810
0.579260 0.679260 0.669260
0.627150 0.712150 0.702150
0.675040 0.745040 0.735040
0.722930 0.777930 0.767930
0.770820 0.810820 0.800820
0.818710 0.843710 0.833710
0.866600 0.876600 0.866600
0.914490 0.909490 0.899490
0.962380 0.942380 0.932380
0.080530 0.091110 0.175240
0.127673 0.121758 0.208130
0.174815 0.152405 0.241020
0.221958 0.183053 0.273910
0.269100 0.213700 0.306800
0.316242 0.244347 0.339690
0.363385 0.274995 0.372580
0.410527 0.305643 0.405470
0.458360 0.338360 0.438360
0.143632 0.163777 0.239810
0.190775 0.194425 0.272700
0.237918 0.225073 0.305590
0.285060 0.255720 0.338480
0.332203 0.286367 0.371370
0.379345 0.317015 0.404260
0.427150 0.349650 0.437150
0.475040 0.382540 0.470040
0.522930 0.415430 0.502930
0.206735 0.236445 0.304380
0.253877 0.267093 0.337270
0.301020 0.297740 0.370160
0.348162 0.328387 0.403050
0.395940 0.360940 0.435940
0.443830 0.393830 0.468830
0.491720 0.426720 0.501720
0.539610 0.459610 0.534610
0.587500 0.492500 0.567500
0.269837 0.309113 0.368950
0.316980 0.339760 0.401840
0.364730 0.372230 0.434730
0.412620 0.405120 0.467620
0.460510 0.438010 0.500510
0.508400 0.470900 0.533400
0.556290 0.503790 0.566290
0.604180 0.536680 0.599180
0.652070 0.569570 0.632070
0.333520 0.383520 0.433520
0.381410 0.416410 0.466410
0.429300 0.449300 0.499300
0.477190 0.482190 0.532190
0.525080 0.515080 0.565080
0.572970 0.547970 0.597970
0.620860 0.580860 0.630860
0.668750 0.613750 0.663750
0.716640 0.646640 0.696640
0.398090 0.460590 0.498090
0.445980 0.493480 0.530980
0.493870 0.526370 0.563870
0.541760 0.559260 0.596760
0.589650 0.592150 0.629650
0.637540 0.625040 0.662540
0.685430 0.657930 0.695430
0.733320 0.690820 0.728320
0.781210 0.723710 0.761210
0.462660 0.537660 0.562660
0.510550 0.570550 0.595550
0.558440 0.603440 0.628440
0.606330 0.636330 0.661330
0.654220 0.669220 0.694220
0.702110 0.702110 0.727110
0.750000 0.735000 0.760000
0.797890 0.767890 0.792890
0.845780 0.800780 0.825780
0.527230 0.614730 0.627230
0.575120 0.647620 0.660120
0.623010 0.680510 0.693010
0.670900 0.713400 0.725900
0.718790 0.746290 0.758790
0.766680 0.779180 0.791680
0.814570 0.812070 0.824570
0.862460 0.844960 0.857460
0.910350 0.877850 0.890350
0.591800 0.691800 0.691800
0.639690 0.724690 0.724690
0.687580 0.757580 0.757580
0.735470 0.790470 0.790470
0.783360 0.823360 0.823360
0.831250 0.856250 0.856250
0.879140 0.889140 0.889140
0.927030 0.922030 0.922030
0.974920 0.954920 0.954920
0.092785 0.102795 0.197780
0.139928 0.133442 0.230670
0.187070 0.164090 0.263560
0.234212 0.194738 0.296450
0.281355 0.225385 0.329340
0.328497 0.256032 0.362230
0.375640 0.286680 0.395120
0.423010 0.318010 0.428010
0.470900 0.350900 0.460900
0.155888 0.175463 0.262350
0.203030 0.206110 0.295240
0.250173 0.236758 0.328130
0.297315 0.267405 0.361020
0.344457 0.298052 0.393910
0.391800 0.329300 0.426800
0.439690 0.362190 0.459690
0.487580 0.395080 0.492580
0.535470 0.427970 0.525470
0.218990 0.248130 0.326920
0.266132 0.278778 0.359810
0.313275 0.309425 0.392700
0.360590 0.340590 0.425590
0.408480 0.373480 0.458480
0.456370 0.406370 0.491370
0.504260 0.439260 0.524260
0.552150 0.472150 0.557150
0.600040 0.505040 0.590040
0.282093 0.320798 0.391490
0.329380 0.351880 0.424380
0.377270 0.384770 0.457270
0.425160 0.417660 0.490160
0.473050 0.450550 0.523050
0.520940 0.483440 0.555940
0.568830 0.516330 0.588830
0.616720 0.549220 0.621720
0.664610 0.582110 0.654610
0.346060 0.396060 0.456060
0.393950 0.428950 0.488950
0.441840 0.461840 0.521840
0.489730 0.494730 0.554730
0.537620 0.527620 0.587620
0.585510 0.560510 0.620510
0.633400 0.593400 0.653400
0.681290 0.626290 0.686290
0.729180 0.659180 0.719180
0.410630 0.473130 0.520630
0.458520 0.506020 0.553520
0.506410 0.538910 0.586410
0.554300 0.571800 0.619300
0.602190 0.604690 0.652190
0.650080 0.637580 0.685080
0.697970 0.670470 0.717970
0.745860 0.703360 0.750860
0.793750 0.736250 0.783750
0.475200 0.550200 0.585200
0.523090 0.583090 0.618090
0.570980 0.615980 0.650980
0.618870 0.648870 0.683870
0.666760 0.681760 0.716760
0.714650 0.714650 0.749650
0.762540 0.747540 0.782540
0.810430 0.780430 0.815430
0.858320 0.813320 0.848320
0.539770 0.627270 0.649770
0.587660 0.660160 0.682660
0.635550 0.693050 0.715550
0.683440 0.725940 0.748440
0.731330 0.758830 0.781330
0.779220 0.791720 0.814220
0.827110 0.824610 0.847110
0.875000 0.857500 0.880000
0.922890 0.890390 0.912890
0.604340 0.704340 0.714340
0.652230 0.737230 0.747230
0.700120 0.770120 0.780120
0.748010 0.803010 0.813010
0.795900 0.835900 0.845900
0.843790 0.868790 0.878790
0.891680 0.901680 0.911680
0.939570 0.934570 0.944570
0.987460 0.967460 0.977460
0.105040 0.114480 0.220320
0.152182 0.145128 0.253210
0.199325 0.175775 0.286100
0.246468 0.206423 0.318990
0.293610 0.237070 0.351880
0.340753 0.267717 0.384770
0.387895 0.298365 0.417660
0.435550 0.330550 0.450550
0.483440 0.363440 0.483440
0.168143 0.187148 0.284890
0.215285 0.217795 0.317780
0.262427 0.248442 0.350670
0.309570 0.279090 0.383560
0.356712 0.309737 0.416450
0.404340 0.341840 0.449340
0.452230 0.374730 0.482230
0.500120 0.407620 0.515120
0.548010 0.440510 0.548010
0.231245 0.259815 0.349460
0.278388 0.290463 0.382350
0.325530 0.321110 0.415240
0.373130 0.353130 0.448130
0.421020 0.386020 0.481020
0.468910 0.418910 0.513910
0.516800 0.451800 0.546800
0.564690 0.484690 0.579690
0.612580 0.517580 0.612580
0.294348 0.332483 0.414030
0.341920 0.364420 0.446920
0.389810 0.397310 0.479810
0.437700 0.430200 0.512700
0.485590 0.463090 0.545590
0.533480 0.495980 0.578480
0.581370 0.528870 0.611370
0.629260 0.561760 0.644260
0.677150 0.594650 0.677150
0.358600 0.408600 0.478600
0.406490 0.441490 0.511490
0.454380 0.474380 0.544380
0.502270 0.507270 0.577270
0.550160 0.540160 0.610160
0.598050 0.573050 0.643050
0.645940 0.605940 0.675940
0.693830 0.638830 0.708830
0.741720 0.671720 0.741720
0.423170 0.485670 0.543170
0.471060 0.518560 0.576060
0.518950 0.551450 0.608950
0.566840 0.584340 0.641840
0.614730 0.617230 0.674730
0.662620 0.650120 0.707620
0.710510 0.683010 0.740510
0.758400 0.715900 0.773400
0.806290 0.748790 0.806290
0.487740 0.562740 0.607740
0.535630 0.595630 0.640630
0.583520 0.628520 0.673520
0.631410 0.661410 0.706410
0.679300 0.694300 0.739300
0.727190 0.727190 0.772190
0.775080 0.760080 0.805080
0.822970 0.792970 0.837970
0.870860 0.825860 0.870860
0.552310 0.639810 0.672310
0.600200 0.672700 0.705200
0.648090 0.705590 0.738090
0.695980 0.738480 0.770980
0.743870 0.771370 0.803870
0.791760 0.804260 0.836760
0.839650 0.837150 0.869650
0.887540 0.870040 0.902540
0.935430 0.902930 0.935430
0.616880 0.716880 0.736880
0.664770 0.749770 0.769770
0.712660 0.782660 0.802660
0.760550 0.815550 0.835550
0.808440 0.848440 0.868440
0.856330 0.881330 0.901330
0.904220 0.914220 0.934220
0.952110 0.947110 0.967110
1.000000 0.980000 1.000000
