backend/assets/luts/vintage_fade.cube
TITLE "Vintage Fade"
LUT_3D_SIZE 33
0.007000 0.021000 0.040000
0.018786 0.028662 0.048223
0.030571 0.036324 0.056445
0.042357 0.043986 0.064668
0.054142 0.051647 0.072890
0.065928 0.059309 0.081113
0.077714 0.066971 0.089335
0.089499 0.074633 0.097557
0.101285 0.082295 0.105780
0.113071 0.089957 0.114003
0.124856 0.097619 0.122225
0.136642 0.105281 0.130447
0.148428 0.112943 0.138670
0.160213 0.120604 0.146893
0.171999 0.128266 0.155115
0.183784 0.135928 0.163337
0.195570 0.143590 0.171560
0.207356 0.151252 0.179783
0.219141 0.158914 0.188005
0.230927 0.166576 0.196227
0.242712 0.174237 0.204450
0.254498 0.181899 0.212673
0.266284 0.189561 0.220895
0.278069 0.197223 0.229118
0.289855 0.204885 0.237340
0.301641 0.212547 0.245562
0.313426 0.220209 0.253785
0.325212 0.227871 0.262008
0.336997 0.235532 0.270230
0.348783 0.243194 0.278452
0.360569 0.250856 0.286675
0.372354 0.258518 0.294897
0.384140 0.266180 0.303120
0.022776 0.039167 0.056142
0.034561 0.046829 0.064365
0.046347 0.054491 0.072587
0.058132 0.062152 0.080810
0.069918 0.069814 0.089033
0.081704 0.077476 0.097255
0.093489 0.085138 0.105478
0.105275 0.092800 0.113700
0.117061 0.100462 0.121923
0.128846 0.108124 0.130145
0.140632 0.115786 0.138368
0.152417 0.123447 0.146590
0.164203 0.131109 0.154812
0.175989 0.138771 0.163035
0.187774 0.146433 0.171258
0.199560 0.154095 0.179480
0.211346 0.161757 0.187702
0.223131 0.169419 0.195925
0.234917 0.177081 0.204147
0.246702 0.184742 0.212370
0.258488 0.192404 0.220592
0.270274 0.200066 0.228815
0.282059 0.207728 0.237037
0.293845 0.215390 0.245260
0.305631 0.223052 0.253482
0.317416 0.230714 0.261705
0.329202 0.238376 0.269927
0.340987 0.246037 0.278150
0.352773 0.253699 0.286372
0.364559 0.261361 0.294595
0.376344 0.269023 0.302817
0.388130 0.276685 0.311040
0.399916 0.284347 0.319262
0.038551 0.057334 0.072285
0.050337 0.064996 0.080507
0.062122 0.072657 0.088730
0.073908 0.080319 0.096952
0.085694 0.087981 0.105175
0.097479 0.095643 0.113397
0.109265 0.103305 0.121620
0.121051 0.110967 0.129842
0.132836 0.118629 0.138065
0.144622 0.126291 0.146287
0.156407 0.133953 0.154510
0.168193 0.141614 0.162732
0.179979 0.149276 0.170955
0.191764 0.156938 0.179178
0.203550 0.164600 0.187400
0.215336 0.172262 0.195622
0.227121 0.179924 0.203845
0.238907 0.187586 0.212067
0.250692 0.195247 0.220290
0.262478 0.202909 0.228513
0.274264 0.210571 0.236735
0.286049 0.218233 0.244957
0.297835 0.225895 0.253180
0.309621 0.233557 0.261402
0.321406 0.241219 0.269625
0.333192 0.248881 0.277847
0.344978 0.256543 0.286070
0.356763 0.264204 0.294292
0.368549 0.271866 0.302515
0.380334 0.279528 0.310737
0.392120 0.287190 0.318960
0.403906 0.294852 0.327182
0.415691 0.302514 0.335405
0.054327 0.075501 0.088427
0.066112 0.083163 0.096650
0.077898 0.090824 0.104873
0.089684 0.098486 0.113095
0.101469 0.106148 0.121317
0.113255 0.113810 0.129540
0.125041 0.121472 0.137762
0.136826 0.129134 0.145985
0.148612 0.136796 0.154207
0.160397 0.144458 0.162430
0.172183 0.152119 0.170652
0.183969 0.159781 0.178875
0.195754 0.167443 0.187098
0.207540 0.175105 0.195320
0.219326 0.182767 0.203543
0.231111 0.190429 0.211765
0.242897 0.198091 0.219988
0.254683 0.205753 0.228210
0.266468 0.213414 0.236432
0.278254 0.221076 0.244655
0.290039 0.228738 0.252877
0.301825 0.236400 0.261100
0.313611 0.244062 0.269322
0.325396 0.251724 0.277545
0.337182 0.259386 0.285767
0.348967 0.267047 0.293990
0.360753 0.274709 0.302212
0.372539 0.282371 0.310435
0.384324 0.290033 0.318657
0.396110 0.297695 0.326880
0.407896 0.305357 0.335102
0.419681 0.313019 0.343325
0.431547 0.320922 0.351547
0.070102 0.093668 0.104570
0.081888 0.101329 0.112792
0.093674 0.108991 0.121015
0.105459 0.116653 0.129238
0.117245 0.124315 0.137460
0.129031 0.131977 0.145682
0.140816 0.139639 0.153905
0.152602 0.147301 0.162128
0.164387 0.154963 0.170350
0.176173 0.162624 0.178572
0.187959 0.170286 0.186795
0.199744 0.177948 0.195018
0.211530 0.185610 0.203240
0.223316 0.193272 0.211462
0.235101 0.200934 0.219685
0.246887 0.208596 0.227907
0.258672 0.216258 0.236130
0.270458 0.223919 0.244353
0.282244 0.231581 0.252575
0.294029 0.239243 0.260798
0.305815 0.246905 0.269020
0.317601 0.254567 0.277242
0.329386 0.262229 0.285465
0.341172 0.269891 0.293687
0.352958 0.277553 0.301910
0.364743 0.285214 0.310132
0.376529 0.292876 0.318355
0.388314 0.300538 0.326577
0.400100 0.308200 0.334800
0.411886 0.315862 0.343022
0.423745 0.323745 0.351245
0.435717 0.331968 0.359467
0.447690 0.340190 0.367690
0.085878 0.111834 0.120713
0.097664 0.119496 0.128935
0.109449 0.127158 0.137157
0.121235 0.134820 0.145380
0.133021 0.142482 0.153602
0.144806 0.150144 0.161825
0.156592 0.157806 0.170047
0.168377 0.165467 0.178270
0.180163 0.173129 0.186493
0.191949 0.180791 0.194715
0.203734 0.188453 0.202937
0.215520 0.196115 0.211160
0.227306 0.203777 0.219383
0.239091 0.211439 0.227605
0.250877 0.219101 0.235827
0.262662 0.226762 0.244050
0.274448 0.234424 0.252272
0.286234 0.242086 0.260495
0.298019 0.249748 0.268717
0.309805 0.257410 0.276940
0.321591 0.265072 0.285162
0.333376 0.272734 0.293385
0.345162 0.280396 0.301607
0.356947 0.288057 0.309830
0.368733 0.295719 0.318053
0.380519 0.303381 0.326275
0.392304 0.311043 0.334497
0.404090 0.318705 0.342720
0.415942 0.326567 0.350942
0.427915 0.334790 0.359165
0.439887 0.343012 0.367387
0.451860 0.351235 0.375610
0.463832 0.359457 0.383832
0.101654 0.130001 0.136855
0.113439 0.137663 0.145077
0.125225 0.145325 0.153300
0.137011 0.152987 0.161522
0.148796 0.160649 0.169745
0.160582 0.168311 0.177968
0.172367 0.175972 0.186190
0.184153 0.183634 0.194413
0.195939 0.191296 0.202635
0.207724 0.198958 0.210857
0.219510 0.206620 0.219080
0.231296 0.214282 0.227303
0.243081 0.221944 0.235525
0.254867 0.229606 0.243748
0.266653 0.237268 0.251970
0.278438 0.244929 0.260192
0.290224 0.252591 0.268415
0.302009 0.260253 0.276637
0.313795 0.267915 0.284860
0.325581 0.275577 0.293082
0.337366 0.283239 0.301305
0.349152 0.290901 0.309528
0.360937 0.298563 0.317750
0.372723 0.306224 0.325972
0.384509 0.313886 0.334195
0.396294 0.321548 0.342417
0.408140 0.329390 0.350640
0.420112 0.337612 0.358862
0.432085 0.345835 0.367085
0.444057 0.354057 0.375307
0.456030 0.362280 0.383530
0.468002 0.370503 0.391753
0.479975 0.378725 0.399975
0.117429 0.148168 0.152998
0.129215 0.155830 0.161220
0.141001 0.163492 0.169442
0.152786 0.171154 0.177665
0.164572 0.178816 0.185888
0.176357 0.186477 0.194110
0.188143 0.194139 0.202333
0.199929 0.201801 0.210555
0.211714 0.209463 0.218777
0.223500 0.217125 0.227000
0.235286 0.224787 0.235223
0.247071 0.232449 0.243445
0.258857 0.240111 0.251667
0.270643 0.247773 0.259890
0.282428 0.255434 0.268112
0.294214 0.263096 0.276335
0.305999 0.270758 0.284558
0.317785 0.278420 0.292780
0.329571 0.286082 0.301002
0.341356 0.293744 0.309225
0.353142 0.301406 0.317447
0.364927 0.309067 0.325670
0.376713 0.316729 0.333892
0.388499 0.324391 0.342115
0.400338 0.332212 0.350337
0.412310 0.340435 0.358560
0.424283 0.348657 0.366782
0.436255 0.356880 0.375005
0.448228 0.365102 0.383227
0.460200 0.373325 0.391450
0.472172 0.381547 0.399672
0.484145 0.389770 0.407895
0.496117 0.397992 0.416117
0.133205 0.166335 0.169140
0.144991 0.173997 0.177363
0.156776 0.181659 0.185585
0.168562 0.189321 0.193808
0.180347 0.196982 0.202030
0.192133 0.204644 0.210253
0.203919 0.212306 0.218475
0.215704 0.219968 0.226697
0.227490 0.227630 0.234920
0.239276 0.235292 0.243142
0.251061 0.242954 0.251365
0.262847 0.250616 0.259587
0.274633 0.258277 0.267810
0.286418 0.265939 0.276033
0.298204 0.273601 0.284255
0.309989 0.281263 0.292477
0.321775 0.288925 0.300700
0.333561 0.296587 0.308922
0.345346 0.304249 0.317145
0.357132 0.311911 0.325367
0.368917 0.319572 0.333590
0.380703 0.327234 0.341812
0.392535 0.335035 0.350035
0.404508 0.343258 0.358258
0.416480 0.351480 0.366480
0.428452 0.359702 0.374702
0.440425 0.367925 0.382925
0.452398 0.376148 0.391147
0.464370 0.384370 0.399370
0.476343 0.392593 0.407592
0.488315 0.400815 0.415815
0.500287 0.409037 0.424037
0.512260 0.417260 0.432260
0.148981 0.184502 0.185282
0.160766 0.192164 0.193505
0.172552 0.199826 0.201728
0.184337 0.207487 0.209950
0.196123 0.215149 0.218172
0.207909 0.222811 0.226395
0.219694 0.230473 0.234618
0.231480 0.238135 0.242840
0.243266 0.245797 0.251062
0.255051 0.253459 0.259285
0.266837 0.261121 0.267508
0.278622 0.268782 0.275730
0.290408 0.276444 0.283952
0.302194 0.284106 0.292175
0.313979 0.291768 0.300397
0.325765 0.299430 0.308620
0.337551 0.307092 0.316842
0.349336 0.314754 0.325065
0.361122 0.322416 0.333287
0.372907 0.330077 0.341510
0.384732 0.337857 0.349732
0.396705 0.346080 0.357955
0.408677 0.354302 0.366177
0.420650 0.362525 0.374400
0.432623 0.370748 0.382622
0.444595 0.378970 0.390845
0.456568 0.387192 0.399067
0.468540 0.395415 0.407290
0.480512 0.403637 0.415512
0.492485 0.411860 0.423735
0.504458 0.420082 0.431957
0.516430 0.428305 0.440180
0.528402 0.436528 0.448402
0.164756 0.202669 0.201425
0.176542 0.210331 0.209647
0.188327 0.217992 0.217870
0.200113 0.225654 0.226093
0.211899 0.233316 0.234315
0.223684 0.240978 0.242537
0.235470 0.248640 0.250760
0.247256 0.256302 0.258982
0.259041 0.263964 0.267205
0.270827 0.271626 0.275427
0.282612 0.279287 0.283650
0.294398 0.286949 0.291872
0.306184 0.294611 0.300095
0.317969 0.302273 0.308317
0.329755 0.309935 0.316540
0.341541 0.317597 0.324762
0.353326 0.325259 0.332985
0.365112 0.332921 0.341207
0.376930 0.340680 0.349430
0.388902 0.348902 0.357652
0.400875 0.357125 0.365875
0.412847 0.365347 0.374097
0.424820 0.373570 0.382320
0.436792 0.381792 0.390542
0.448765 0.390015 0.398765
0.460737 0.398237 0.406987
0.472710 0.406460 0.415210
0.484683 0.414683 0.423432
0.496655 0.422905 0.431655
0.508627 0.431127 0.439877
0.520600 0.439350 0.448100
0.532573 0.447572 0.456322
0.544545 0.455795 0.464545
0.180532 0.220836 0.217567
0.192318 0.228497 0.225790
0.204103 0.236159 0.234013
0.215889 0.243821 0.242235
0.227674 0.251483 0.250457
0.239460 0.259145 0.258680
0.251246 0.266807 0.266902
0.263031 0.274469 0.275125
0.274817 0.282131 0.283347
0.286603 0.289793 0.291570
0.298388 0.297454 0.299792
0.310174 0.305116 0.308015
0.321959 0.312778 0.316238
0.333745 0.320440 0.324460
0.345531 0.328102 0.332682
0.357316 0.335764 0.340905
0.369127 0.343502 0.349127
0.381100 0.351725 0.357350
0.393072 0.359947 0.365572
0.405045 0.368170 0.373795
0.417017 0.376392 0.382017
0.428990 0.384615 0.390240
0.440963 0.392838 0.398462
0.452935 0.401060 0.406685
0.464908 0.409282 0.414907
0.476880 0.417505 0.423130
0.488853 0.425727 0.431352
0.500825 0.433950 0.439575
0.512798 0.442173 0.447798
0.524770 0.450395 0.456020
0.536742 0.458617 0.464242
0.548715 0.466840 0.472465
0.560688 0.475062 0.480687
0.196307 0.239003 0.233710
0.208093 0.246664 0.241932
0.219879 0.254326 0.250155
0.231664 0.261988 0.258377
0.243450 0.269650 0.266600
0.255236 0.277312 0.274822
0.267021 0.284974 0.283045
0.278807 0.292636 0.291268
0.290593 0.300297 0.299490
0.302378 0.307959 0.307712
0.314164 0.315621 0.315935
0.325949 0.323283 0.324157
0.337735 0.330945 0.332380
0.349521 0.338607 0.340602
0.361325 0.346325 0.348825
0.373297 0.354548 0.357047
0.385270 0.362770 0.365270
0.397242 0.370992 0.373492
0.409215 0.379215 0.381715
0.421187 0.387437 0.389937
0.433160 0.395660 0.398160
0.445132 0.403883 0.406382
0.457105 0.412105 0.414605
0.469077 0.420327 0.422827
0.481050 0.428550 0.431050
0.493022 0.436773 0.439272
0.504995 0.444995 0.447495
0.516968 0.453218 0.455717
0.528940 0.461440 0.463940
0.540913 0.469662 0.472162
0.552885 0.477885 0.480385
0.564858 0.486108 0.488607
0.576830 0.494330 0.496830
0.212083 0.257169 0.249852
0.223869 0.264831 0.258075
0.235654 0.272493 0.266297
0.247440 0.280155 0.274520
0.259226 0.287817 0.282743
0.271011 0.295479 0.290965
0.282797 0.303141 0.299187
0.294582 0.310802 0.307410
0.306368 0.318464 0.315632
0.318154 0.326126 0.323855
0.329939 0.333788 0.332077
0.341725 0.341450 0.340300
0.353522 0.349147 0.348522
0.365495 0.357370 0.356745
0.377468 0.365593 0.364968
0.389440 0.373815 0.373190
0.401412 0.382037 0.381412
0.413385 0.390260 0.389635
0.425357 0.398482 0.397857
0.437330 0.406705 0.406080
0.449302 0.414928 0.414302
0.461275 0.423150 0.422525
0.473247 0.431372 0.430747
0.485220 0.439595 0.438970
0.497192 0.447817 0.447192
0.509165 0.456040 0.455415
0.521138 0.464263 0.463637
0.533110 0.472485 0.471860
0.545083 0.480708 0.480082
0.557055 0.488930 0.488305
0.569028 0.497152 0.496527
0.581000 0.505375 0.504750
0.592972 0.513597 0.512972
0.227859 0.275336 0.265995
0.239644 0.282998 0.274218
0.251430 0.290660 0.282440
0.263216 0.298322 0.290662
0.275001 0.305984 0.298885
0.286787 0.313646 0.307107
0.298573 0.321308 0.315330
0.310358 0.328969 0.323552
0.322144 0.336631 0.331775
0.333929 0.344293 0.339997
0.345720 0.351970 0.348220
0.357693 0.360193 0.356442
0.369665 0.368415 0.364665
0.381638 0.376638 0.372887
0.393610 0.384860 0.381110
0.405582 0.393083 0.389332
0.417555 0.401305 0.397555
0.429528 0.409528 0.405778
0.441500 0.417750 0.414000
0.453473 0.425973 0.422223
0.465445 0.434195 0.430445
0.477417 0.442418 0.438667
0.489390 0.450640 0.446890
0.501362 0.458863 0.455112
0.513335 0.467085 0.463335
0.525308 0.475307 0.471557
0.537280 0.483530 0.479780
0.549253 0.491753 0.488003
0.561225 0.499975 0.496225
0.573197 0.508197 0.504447
0.585170 0.516420 0.512670
0.597143 0.524643 0.520893
0.609115 0.532865 0.529115
0.243634 0.293503 0.282137
0.255420 0.301165 0.290360
0.267206 0.308827 0.298582
0.278991 0.316489 0.306805
0.290777 0.324151 0.315027
0.302562 0.331812 0.323250
0.314348 0.339474 0.331473
0.326134 0.347136 0.339695
0.337919 0.354798 0.347917
0.349890 0.363015 0.356140
0.361862 0.371237 0.364362
0.373835 0.379460 0.372585
0.385808 0.387683 0.380808
0.397780 0.395905 0.389030
0.409752 0.404127 0.397252
0.421725 0.412350 0.405475
0.433697 0.420572 0.413697
0.445670 0.428795 0.421920
0.457643 0.437018 0.430142
0.469615 0.445240 0.438365
0.481588 0.453462 0.446587
0.493560 0.461685 0.454810
0.505532 0.469907 0.463032
0.517505 0.478130 0.471255
0.529478 0.486353 0.479478
0.541450 0.494575 0.487700
0.553423 0.502798 0.495922
0.565395 0.511020 0.504145
0.577368 0.519243 0.512367
0.589340 0.527465 0.520590
0.601312 0.535687 0.528813
0.613285 0.543910 0.537035
0.625257 0.552132 0.545257
0.259410 0.311670 0.298280
0.271196 0.319332 0.306502
0.282981 0.326994 0.314725
0.294767 0.334656 0.322947
0.306553 0.342317 0.331170
0.318338 0.349979 0.339392
0.330124 0.357641 0.347615
0.342087 0.365837 0.355837
0.354060 0.374060 0.364060
0.366032 0.382282 0.372282
0.378005 0.390505 0.380505
0.389977 0.398727 0.388727
0.401950 0.406950 0.396950
0.413923 0.415172 0.405172
0.425895 0.423395 0.413395
0.437867 0.431617 0.421617
0.449840 0.439840 0.429840
0.461812 0.448062 0.438062
0.473785 0.456285 0.446285
0.485758 0.464508 0.454508
0.497730 0.472730 0.462730
0.509702 0.480952 0.470952
0.521675 0.489175 0.479175
0.533647 0.497397 0.487397
0.545620 0.505620 0.495620
0.557592 0.513842 0.503842
0.569565 0.522065 0.512065
0.581537 0.530288 0.520288
0.593510 0.538510 0.528510
0.605482 0.546732 0.536732
0.617455 0.554955 0.544955
0.629428 0.563178 0.553178
0.641400 0.571400 0.561400
0.275186 0.329837 0.314422
0.286971 0.337499 0.322645
0.298757 0.345161 0.330867
0.310542 0.352822 0.339090
0.322328 0.360484 0.347312
0.334285 0.368660 0.355535
0.346257 0.376883 0.363757
0.358230 0.385105 0.371980
0.370202 0.393327 0.380202
0.382175 0.401550 0.388425
0.394147 0.409772 0.396647
0.406120 0.417995 0.404870
0.418092 0.426218 0.413092
0.430065 0.434440 0.421315
0.442037 0.442662 0.429537
0.454010 0.450885 0.437760
0.465982 0.459108 0.445982
0.477955 0.467330 0.454205
0.489927 0.475552 0.462427
0.501900 0.483775 0.470650
0.513872 0.491997 0.478872
0.525845 0.500220 0.487095
0.537817 0.508443 0.495317
0.549790 0.516665 0.503540
0.561763 0.524888 0.511763
0.573735 0.533110 0.519985
0.585708 0.541332 0.528208
0.597680 0.549555 0.536430
0.609652 0.557777 0.544652
0.621625 0.566000 0.552875
0.633598 0.574222 0.561098
0.645570 0.582445 0.569320
0.657542 0.590667 0.577542
0.290961 0.348004 0.330565
0.302747 0.355666 0.338787
0.314532 0.363328 0.347010
0.326482 0.371482 0.355232
0.338455 0.379705 0.363455
0.350427 0.387927 0.371677
0.362400 0.396150 0.379900
0.374372 0.404372 0.388122
0.386345 0.412595 0.396345
0.398317 0.420817 0.404567
0.410290 0.429040 0.412790
0.422262 0.437262 0.421012
0.434235 0.445485 0.429235
0.446207 0.453707 0.437457
0.458180 0.461930 0.445680
0.470152 0.470152 0.453902
0.482125 0.478375 0.462125
0.494097 0.486598 0.470347
0.506070 0.494820 0.478570
0.518042 0.503042 0.486792
0.530015 0.511265 0.495015
0.541987 0.519487 0.503238
0.553960 0.527710 0.511460
0.565932 0.535932 0.519682
0.577905 0.544155 0.527905
0.589877 0.552377 0.536127
0.601850 0.560600 0.544350
0.613822 0.568823 0.552573
0.625795 0.577045 0.560795
0.637767 0.585267 0.569017
0.649740 0.593490 0.577240
0.661713 0.601713 0.585463
0.673685 0.609935 0.593685
0.306737 0.366171 0.346707
0.318680 0.374305 0.354930
0.330653 0.382528 0.363152
0.342625 0.390750 0.371375
0.354597 0.398972 0.379597
0.366570 0.407195 0.387820
0.378543 0.415417 0.396042
0.390515 0.423640 0.404265
0.402487 0.431862 0.412487
0.414460 0.440085 0.420710
0.426432 0.448307 0.428932
0.438405 0.456530 0.437155
0.450377 0.464753 0.445377
0.462350 0.472975 0.453600
0.474322 0.481198 0.461822
0.486295 0.489420 0.470045
0.498267 0.497642 0.478267
0.510240 0.505865 0.486490
0.522212 0.514087 0.494712
0.534185 0.522310 0.502935
0.546157 0.530532 0.511157
0.558130 0.538755 0.519380
0.570102 0.546977 0.527602
0.582075 0.555200 0.535825
0.594047 0.563422 0.544048
0.606020 0.571645 0.552270
0.617993 0.579867 0.560493
0.629965 0.588090 0.568715
0.641937 0.596312 0.576937
0.653910 0.604535 0.585160
0.665882 0.612757 0.593382
0.677855 0.620980 0.601605
0.689827 0.629202 0.609827
0.322850 0.385350 0.362850
0.334822 0.393572 0.371072
0.346795 0.401795 0.379295
0.358767 0.410017 0.387517
0.370740 0.418240 0.395740
0.382712 0.426462 0.403962
0.394685 0.434685 0.412185
0.406657 0.442907 0.420407
0.418630 0.451130 0.428630
0.430602 0.459352 0.436852
0.442575 0.467575 0.445075
0.454547 0.475797 0.453297
0.466520 0.484020 0.461520
0.478492 0.492242 0.469742
0.490465 0.500465 0.477965
0.502437 0.508687 0.486187
0.514410 0.516910 0.494410
0.526382 0.525133 0.502633
0.538355 0.533355 0.510855
0.550327 0.541578 0.519077
0.562300 0.549800 0.527300
0.574272 0.558022 0.535523
0.586245 0.566245 0.543745
0.598217 0.574467 0.551967
0.610190 0.582690 0.560190
0.622162 0.590912 0.568412
0.634135 0.599135 0.576635
0.646107 0.607357 0.584858
0.658080 0.615580 0.593080
0.670052 0.623802 0.601302
0.682025 0.632025 0.609525
0.693997 0.640247 0.617748
0.705970 0.648470 0.625970
0.338992 0.404617 0.378992
0.350965 0.412840 0.387215
0.362938 0.421063 0.395437
0.374910 0.429285 0.403660
0.386883 0.437507 0.411882
0.398855 0.445730 0.420105
0.410828 0.453952 0.428327
0.422800 0.462175 0.436550
0.434773 0.470397 0.444772
0.446745 0.478620 0.452995
0.458718 0.486843 0.461218
0.470690 0.495065 0.469440
0.482662 0.503287 0.477662
0.494635 0.511510 0.485885
0.506607 0.519732 0.494107
0.518580 0.527955 0.502330
0.530552 0.536178 0.510553
0.542525 0.544400 0.518775
0.554497 0.552623 0.526998
0.566470 0.560845 0.535220
0.578442 0.569068 0.543443
0.590415 0.577290 0.551665
0.602388 0.585513 0.559888
0.614360 0.593735 0.568110
0.626332 0.601958 0.576333
0.638305 0.610180 0.584555
0.650278 0.618403 0.592778
0.662250 0.626625 0.601000
0.674222 0.634848 0.609223
0.686195 0.643070 0.617445
0.698167 0.651292 0.625667
0.710140 0.659515 0.633890
0.722112 0.667737 0.642112
0.355135 0.423885 0.395135
0.367107 0.432107 0.403357
0.379080 0.440330 0.411580
0.391052 0.448553 0.419802
0.403025 0.456775 0.428025
0.414997 0.464997 0.436247
0.426970 0.473220 0.444470
0.438943 0.481442 0.452692
0.450915 0.489665 0.460915
0.462888 0.497888 0.469137
0.474860 0.506110 0.477360
0.486833 0.514332 0.485582
0.498805 0.522555 0.493805
0.510777 0.530778 0.502027
0.522750 0.539000 0.510250
0.534722 0.547223 0.518473
0.546695 0.555445 0.526695
0.558667 0.563667 0.534918
0.570640 0.571890 0.543140
0.582612 0.580112 0.551362
0.594585 0.588335 0.559585
0.606557 0.596557 0.567808
0.618530 0.604780 0.576030
0.630502 0.613003 0.584253
0.642475 0.621225 0.592475
0.654447 0.629447 0.600697
0.666420 0.637670 0.608920
0.678392 0.645892 0.617143
0.690365 0.654115 0.625365
0.702338 0.662338 0.633588
0.714310 0.670560 0.641810
0.726282 0.678782 0.650033
0.738255 0.687005 0.658255
0.371277 0.443153 0.411277
0.383250 0.451375 0.419500
0.395223 0.459598 0.427723
0.407195 0.467820 0.435945
0.419167 0.476042 0.444167
0.431140 0.484265 0.452390
0.443113 0.492488 0.460612
0.455085 0.500710 0.468835
0.467058 0.508933 0.477057
0.479030 0.517155 0.485280
0.491002 0.525377 0.493502
0.502975 0.533600 0.501725
0.514948 0.541822 0.509947
0.526920 0.550045 0.518170
0.538892 0.558267 0.526392
0.550865 0.566490 0.534615
0.562838 0.574713 0.542838
0.574810 0.582935 0.551060
0.586782 0.591158 0.559283
0.598755 0.599380 0.567505
0.610727 0.607602 0.575727
0.622700 0.615825 0.583950
0.634673 0.624048 0.592173
0.646645 0.632270 0.600395
0.658617 0.640493 0.608618
0.670590 0.648715 0.616840
0.682562 0.656937 0.625062
0.694535 0.665160 0.633285
0.706507 0.673382 0.641508
0.718480 0.681605 0.649730
0.730452 0.689827 0.657952
0.742425 0.698050 0.666175
0.754397 0.706272 0.674397
0.387420 0.462420 0.427420
0.399392 0.470642 0.435642
0.411365 0.478865 0.443865
0.423337 0.487088 0.452087
0.435310 0.495310 0.460310
0.447282 0.503532 0.468532
0.459255 0.511755 0.476755
0.471227 0.519977 0.484977
0.483200 0.528200 0.493200
0.495173 0.536423 0.501422
0.507145 0.544645 0.509645
0.519117 0.552867 0.517867
0.531090 0.561090 0.526090
0.543062 0.569312 0.534312
0.555035 0.577535 0.542535
0.567007 0.585757 0.550758
0.578980 0.593980 0.558980
0.590952 0.602202 0.567203
0.602925 0.610425 0.575425
0.614897 0.618648 0.583647
0.626870 0.626870 0.591870
0.638842 0.635092 0.600092
0.650815 0.643315 0.608315
0.662788 0.651538 0.616538
0.674760 0.659760 0.624760
0.686732 0.667982 0.632983
0.698705 0.676205 0.641205
0.710677 0.684427 0.649428
0.722650 0.692650 0.657650
0.734623 0.700873 0.665873
0.746595 0.709095 0.674095
0.758567 0.717318 0.682318
0.770540 0.725540 0.690540
0.403562 0.481687 0.443562
0.415535 0.489910 0.451785
0.427507 0.498132 0.460007
0.439480 0.506355 0.468230
0.451452 0.514577 0.476452
0.463425 0.522800 0.484675
0.475397 0.531022 0.492897
0.487370 0.539245 0.501120
0.499343 0.547467 0.509343
0.511315 0.555690 0.517565
0.523288 0.563913 0.525787
0.535260 0.572135 0.534010
0.547233 0.580357 0.542233
0.559205 0.588580 0.550455
0.571177 0.596802 0.558677
0.583150 0.605025 0.566900
0.595122 0.613247 0.575122
0.607095 0.621470 0.583345
0.619067 0.629692 0.591568
0.631040 0.637915 0.599790
0.643012 0.646137 0.608012
0.654985 0.654360 0.616235
0.666957 0.662582 0.624457
0.678930 0.670805 0.632680
0.690902 0.679028 0.640903
0.702875 0.687250 0.649125
0.714847 0.695472 0.657347
0.726820 0.703695 0.665570
0.738792 0.711917 0.673792
0.750765 0.720140 0.682015
0.762737 0.728362 0.690237
0.774710 0.736585 0.698460
0.786682 0.744807 0.706682
0.419705 0.500955 0.459705
0.431677 0.509177 0.467927
0.443650 0.517400 0.476150
0.455622 0.525622 0.484372
0.467595 0.533845 0.492595
0.479567 0.542067 0.500817
0.491540 0.550290 0.509040
0.503512 0.558512 0.517262
0.515485 0.566735 0.525485
0.527457 0.574958 0.533708
0.539430 0.583180 0.541930
0.551403 0.591403 0.550153
0.563375 0.599625 0.558375
0.575347 0.607847 0.566597
0.587320 0.616070 0.574820
0.599293 0.624293 0.583043
0.611265 0.632515 0.591265
0.623237 0.640738 0.599488
0.635210 0.648960 0.607710
0.647182 0.657183 0.615932
0.659155 0.665405 0.624155
0.671127 0.673627 0.632377
0.683100 0.681850 0.640600
0.695072 0.690072 0.648822
0.707045 0.698295 0.657045
0.719017 0.706518 0.665268
0.730990 0.714740 0.673490
0.742962 0.722963 0.681713
0.754935 0.731185 0.689935
