backend/assets/luts/vintage_fade.cube
TITLE "Vintage Fade"
LUT_3D_SIZE 5
0.007000 0.021000 0.040000
0.101285 0.082295 0.105780
0.195570 0.143590 0.171560
0.289855 0.204885 0.237340
0.384140 0.266180 0.303120
0.133205 0.166335 0.169140
0.227490 0.227630 0.234920
0.321775 0.288925 0.300700
0.416480 0.351480 0.366480
0.512260 0.417260 0.432260
0.259410 0.311670 0.298280
0.354060 0.374060 0.364060
0.449840 0.439840 0.429840
0.545620 0.505620 0.495620
0.641400 0.571400 0.561400
0.387420 0.462420 0.427420
0.483200 0.528200 0.493200
0.578980 0.593980 0.558980
0.674760 0.659760 0.624760
0.770540 0.725540 0.690540
0.516560 0.616560 0.556560
0.612340 0.682340 0.622340
0.708120 0.748120 0.688120
0.803900 0.813900 0.753900
0.899680 0.879680 0.819680
0.031510 0.044370 0.085080
0.125795 0.105665 0.150860
0.220080 0.166960 0.216640
0.314365 0.228255 0.282420
0.408650 0.289550 0.348200
0.157715 0.189705 0.214220
0.252000 0.251000 0.280000
0.346285 0.312295 0.345780
0.441560 0.376560 0.411560
0.537340 0.442340 0.477340
0.283920 0.335040 0.343360
0.379140 0.399140 0.409140
0.474920 0.464920 0.474920
0.570700 0.530700 0.540700
0.666480 0.596480 0.606480
0.412500 0.487500 0.472500
0.508280 0.553280 0.538280
0.604060 0.619060 0.604060
0.699840 0.684840 0.669840
0.795620 0.750620 0.735620
0.541640 0.641640 0.601640
0.637420 0.707420 0.667420
0.733200 0.773200 0.733200
0.828980 0.838980 0.798980
0.924760 0.904760 0.864760
0.056020 0.067740 0.130160
0.150305 0.129035 0.195940
0.244590 0.190330 0.261720
0.338875 0.251625 0.327500
0.433280 0.313280 0.393280
0.182225 0.213075 0.259300
0.276510 0.274370 0.325080
0.370860 0.335860 0.390860
0.466640 0.401640 0.456640
0.562420 0.467420 0.522420
0.308440 0.358440 0.388440
0.404220 0.424220 0.454220
0.500000 0.490000 0.520000
0.595780 0.555780 0.585780
0.691560 0.621560 0.651560
0.437580 0.512580 0.517580
0.533360 0.578360 0.583360
0.629140 0.644140 0.649140
0.724920 0.709920 0.714920
0.820700 0.775700 0.780700
0.566720 0.666720 0.646720
0.662500 0.732500 0.712500
0.758280 0.798280 0.778280
0.854060 0.864060 0.844060
0.949840 0.929840 0.909840
0.080530 0.091110 0.175240
0.174815 0.152405 0.241020
0.269100 0.213700 0.306800
0.363385 0.274995 0.372580
0.458360 0.338360 0.438360
0.206735 0.236445 0.304380
0.301020 0.297740 0.370160
0.395940 0.360940 0.435940
0.491720 0.426720 0.501720
0.587500 0.492500 0.567500
0.333520 0.383520 0.433520
0.429300 0.449300 0.499300
0.525080 0.515080 0.565080
0.620860 0.580860 0.630860
0.716640 0.646640 0.696640
0.462660 0.537660 0.562660
0.558440 0.603440 0.628440
0.654220 0.669220 0.694220
0.750000 0.735000 0.760000
0.845780 0.800780 0.825780
0.591800 0.691800 0.691800
0.687580 0.757580 0.757580
0.783360 0.823360 0.823360
0.879140 0.889140 0.889140
0.974920 0.954920 0.954920
0.105040 0.114480 0.220320
0.199325 0.175775 0.286100
0.293610 0.237070 0.351880
0.387895 0.298365 0.417660
0.483440 0.363440 0.483440
0.231245 0.259815 0.349460
0.325530 0.321110 0.415240
0.421020 0.386020 0.481020
0.516800 0.451800 0.546800
0.612580 0.517580 0.612580
0.358600 0.408600 0.478600
0.454380 0.474380 0.544380
0.550160 0.540160 0.610160
0.645940 0.605940 0.675940
0.741720 0.671720 0.741720
0.487740 0.562740 0.607740
0.583520 0.628520 0.673520
0.679300 0.694300 0.739300
0.775080 0.760080 0.805080
0.870860 0.825860 0.870860
0.616880 0.716880 0.736880
0.712660 0.782660 0.802660
0.808440 0.848440 0.868440
0.904220 0.914220 0.934220
1.000000 0.980000 1.000000
