backend/assets/luts/warm_orange_film.cube
TITLE "Warm Orange Film"
LUT_3D_SIZE 9
0.030000 0.020000 0.000000
0.165000 0.020000 0.000000
0.300000 0.020000 0.000000
0.435000 0.020000 0.000000
0.570000 0.020000 0.000000
0.705000 0.020000 0.000000
0.840000 0.020000 0.000000
0.975000 0.020000 0.000000
1.000000 0.020000 0.000000
0.030000 0.142500 0.000000
0.165000 0.142500 0.000000
0.300000 0.142500 0.000000
0.435000 0.142500 0.000000
0.570000 0.142500 0.000000
0.705000 0.142500 0.000000
0.840000 0.142500 0.000000
0.975000 0.142500 0.000000
1.000000 0.142500 0.000000
0.030000 0.265000 0.000000
0.165000 0.265000 0.000000
0.300000 0.265000 0.000000
0.435000 0.265000 0.000000
0.570000 0.265000 0.000000
0.705000 0.265000 0.000000
0.840000 0.265000 0.000000
0.975000 0.265000 0.000000
1.000000 0.265000 0.000000
0.030000 0.387500 0.000000
0.165000 0.387500 0.000000
0.300000 0.387500 0.000000
0.435000 0.387500 0.000000
0.570000 0.387500 0.000000
0.705000 0.387500 0.000000
0.840000 0.387500 0.000000
0.975000 0.387500 0.000000
1.000000 0.387500 0.000000
0.030000 0.510000 0.000000
0.165000 0.510000 0.000000
0.300000 0.510000 0.000000
0.435000 0.510000 0.000000
0.570000 0.510000 0.000000
0.705000 0.510000 0.000000
0.840000 0.510000 0.000000
0.975000 0.510000 0.000000
1.000000 0.510000 0.000000
0.030000 0.632500 0.000000
0.165000 0.632500 0.000000
0.300000 0.632500 0.000000
0.435000 0.632500 0.000000
0.570000 0.632500 0.000000
0.705000 0.632500 0.000000
0.840000 0.632500 0.000000
0.975000 0.632500 0.000000
1.000000 0.632500 0.000000
0.030000 0.755000 0.000000
0.165000 0.755000 0.000000
0.300000 0.755000 0.000000
0.435000 0.755000 0.000000
0.570000 0.755000 0.000000
0.705000 0.755000 0.000000
0.840000 0.755000 0.000000
0.975000 0.755000 0.000000
1.000000 0.755000 0.000000
0.030000 0.877500 0.000000
0.165000 0.877500 0.000000
0.300000 0.877500 0.000000
0.435000 0.877500 0.000000
0.570000 0.877500 0.000000
0.705000 0.877500 0.000000
0.840000 0.877500 0.000000
0.975000 0.877500 0.000000
1.000000 0.877500 0.000000
0.030000 1.000000 0.000000
0.165000 1.000000 0.000000
0.300000 1.000000 0.000000
0.435000 1.000000 0.000000
0.570000 1.000000 0.000000
0.705000 1.000000 0.000000
0.840000 1.000000 0.000000
0.975000 1.000000 0.000000
1.000000 1.000000 0.000000
0.030000 0.020000 0.110000
0.165000 0.020000 0.110000
0.300000 0.020000 0.110000
0.435000 0.020000 0.110000
0.570000 0.020000 0.110000
0.705000 0.020000 0.110000
0.840000 0.020000 0.110000
0.975000 0.020000 0.110000
1.000000 0.020000 0.110000
0.030000 0.142500 0.110000
0.165000 0.142500 0.110000
0.300000 0.142500 0.110000
0.435000 0.142500 0.110000
0.570000 0.142500 0.110000
0.705000 0.142500 0.110000
0.840000 0.142500 0.110000
0.975000 0.142500 0.110000
1.000000 0.142500 0.110000
0.030000 0.265000 0.110000
0.165000 0.265000 0.110000
0.300000 0.265000 0.110000
0.435000 0.265000 0.110000
0.570000 0.265000 0.110000
0.705000 0.265000 0.110000
0.840000 0.265000 0.110000
0.975000 0.265000 0.110000
1.000000 0.265000 0.110000
0.030000 0.387500 0.110000
0.165000 0.387500 0.110000
0.300000 0.387500 0.110000
0.435000 0.387500 0.110000
0.570000 0.387500 0.110000
0.705000 0.387500 0.110000
0.840000 0.387500 0.110000
0.975000 0.387500 0.110000
1.000000 0.387500 0.110000
0.030000 0.510000 0.110000
0.165000 0.510000 0.110000
0.300000 0.510000 0.110000
0.435000 0.510000 0.110000
0.570000 0.510000 0.110000
0.705000 0.510000 0.110000
0.840000 0.510000 0.110000
0.975000 0.510000 0.110000
1.000000 0.510000 0.110000
0.030000 0.632500 0.110000
0.165000 0.632500 0.110000
0.300000 0.632500 0.110000
0.435000 0.632500 0.110000
0.570000 0.632500 0.110000
0.705000 0.632500 0.110000
0.840000 0.632500 0.110000
0.975000 0.632500 0.110000
1.000000 0.632500 0.110000
0.030000 0.755000 0.110000
0.165000 0.755000 0.110000
0.300000 0.755000 0.110000
0.435000 0.755000 0.110000
0.570000 0.755000 0.110000
0.705000 0.755000 0.110000
0.840000 0.755000 0.110000
0.975000 0.755000 0.110000
1.000000 0.755000 0.110000
0.030000 0.877500 0.110000
0.165000 0.877500 0.110000
0.300000 0.877500 0.110000
0.435000 0.877500 0.110000
0.570000 0.877500 0.110000
0.705000 0.877500 0.110000
0.840000 0.877500 0.110000
0.975000 0.877500 0.110000
1.000000 0.877500 0.110000
0.030000 1.000000 0.110000
0.165000 1.000000 0.110000
0.300000 1.000000 0.110000
0.435000 1.000000 0.110000
0.570000 1.000000 0.110000
0.705000 1.000000 0.110000
0.840000 1.000000 0.110000
0.975000 1.000000 0.110000
1.000000 1.000000 0.110000
0.030000 0.020000 0.220000
0.165000 0.020000 0.220000
0.300000 0.020000 0.220000
0.435000 0.020000 0.220000
0.570000 0.020000 0.220000
0.705000 0.020000 0.220000
0.840000 0.020000 0.220000
0.975000 0.020000 0.220000
1.000000 0.020000 0.220000
0.030000 0.142500 0.220000
0.165000 0.142500 0.220000
0.300000 0.142500 0.220000
0.435000 0.142500 0.220000
0.570000 0.142500 0.220000
0.705000 0.142500 0.220000
0.840000 0.142500 0.220000
0.975000 0.142500 0.220000
1.000000 0.142500 0.220000
0.030000 0.265000 0.220000
0.165000 0.265000 0.220000
0.300000 0.265000 0.220000
0.435000 0.265000 0.220000
0.570000 0.265000 0.220000
0.705000 0.265000 0.220000
0.840000 0.265000 0.220000
0.975000 0.265000 0.220000
1.000000 0.265000 0.220000
0.030000 0.387500 0.220000
0.165000 0.387500 0.220000
0.300000 0.387500 0.220000
0.435000 0.387500 0.220000
0.570000 0.387500 0.220000
0.705000 0.387500 0.220000
0.840000 0.387500 0.220000
0.975000 0.387500 0.220000
1.000000 0.387500 0.220000
0.030000 0.510000 0.220000
0.165000 0.510000 0.220000
0.300000 0.510000 0.220000
0.435000 0.510000 0.220000
0.570000 0.510000 0.220000
0.705000 0.510000 0.220000
0.840000 0.510000 0.220000
0.975000 0.510000 0.220000
1.000000 0.510000 0.220000
0.030000 0.632500 0.220000
0.165000 0.632500 0.220000
0.300000 0.632500 0.220000
0.435000 0.632500 0.220000
0.570000 0.632500 0.220000
0.705000 0.632500 0.220000
0.840000 0.632500 0.220000
0.975000 0.632500 0.220000
1.000000 0.632500 0.220000
0.030000 0.755000 0.220000
0.165000 0.755000 0.220000
0.300000 0.755000 0.220000
0.435000 0.755000 0.220000
0.570000 0.755000 0.220000
0.705000 0.755000 0.220000
0.840000 0.755000 0.220000
0.975000 0.755000 0.220000
1.000000 0.755000 0.220000
0.030000 0.877500 0.220000
0.165000 0.877500 0.220000
0.300000 0.877500 0.220000
0.435000 0.877500 0.220000
0.570000 0.877500 0.220000
0.705000 0.877500 0.220000
0.840000 0.877500 0.220000
0.975000 0.877500 0.220000
1.000000 0.877500 0.220000
0.030000 1.000000 0.220000
0.165000 1.000000 0.220000
0.300000 1.000000 0.220000
0.435000 1.000000 0.220000
0.570000 1.000000 0.220000
0.705000 1.000000 0.220000
0.840000 1.000000 0.220000
0.975000 1.000000 0.220000
1.000000 1.000000 0.220000
0.030000 0.020000 0.330000
0.165000 0.020000 0.330000
0.300000 0.020000 0.330000
0.435000 0.020000 0.330000
0.570000 0.020000 0.330000
0.705000 0.020000 0.330000
0.840000 0.020000 0.330000
0.975000 0.020000 0.330000
1.000000 0.020000 0.330000
0.030000 0.142500 0.330000
0.165000 0.142500 0.330000
0.300000 0.142500 0.330000
0.435000 0.142500 0.330000
0.570000 0.142500 0.330000
0.705000 0.142500 0.330000
0.840000 0.142500 0.330000
0.975000 0.142500 0.330000
1.000000 0.142500 0.330000
0.030000 0.265000 0.330000
0.165000 0.265000 0.330000
0.300000 0.265000 0.330000
0.435000 0.265000 0.330000
0.570000 0.265000 0.330000
0.705000 0.265000 0.330000
0.840000 0.265000 0.330000
0.975000 0.265000 0.330000
1.000000 0.265000 0.330000
0.030000 0.387500 0.330000
0.165000 0.387500 0.330000
0.300000 0.387500 0.330000
0.435000 0.387500 0.330000
0.570000 0.387500 0.330000
0.705000 0.387500 0.330000
0.840000 0.387500 0.330000
0.975000 0.387500 0.330000
1.000000 0.387500 0.330000
0.030000 0.510000 0.330000
0.165000 0.510000 0.330000
0.300000 0.510000 0.330000
0.435000 0.510000 0.330000
0.570000 0.510000 0.330000
0.705000 0.510000 0.330000
0.840000 0.510000 0.330000
0.975000 0.510000 0.330000
1.000000 0.510000 0.330000
0.030000 0.632500 0.330000
0.165000 0.632500 0.330000
0.300000 0.632500 0.330000
0.435000 0.632500 0.330000
0.570000 0.632500 0.330000
0.705000 0.632500 0.330000
0.840000 0.632500 0.330000
0.975000 0.632500 0.330000
1.000000 0.632500 0.330000
0.030000 0.755000 0.330000
0.165000 0.755000 0.330000
0.300000 0.755000 0.330000
0.435000 0.755000 0.330000
0.570000 0.755000 0.330000
0.705000 0.755000 0.330000
0.840000 0.755000 0.330000
0.975000 0.755000 0.330000
1.000000 0.755000 0.330000
0.030000 0.877500 0.330000
0.165000 0.877500 0.330000
0.300000 0.877500 0.330000
0.435000 0.877500 0.330000
0.570000 0.877500 0.330000
0.705000 0.877500 0.330000
0.840000 0.877500 0.330000
0.975000 0.877500 0.330000
1.000000 0.877500 0.330000
0.030000 1.000000 0.330000
0.165000 1.000000 0.330000
0.300000 1.000000 0.330000
0.435000 1.000000 0.330000
0.570000 1.000000 0.330000
0.705000 1.000000 0.330000
0.840000 1.000000 0.330000
0.975000 1.000000 0.330000
1.000000 1.000000 0.330000
0.030000 0.020000 0.440000
0.165000 0.020000 0.440000
0.300000 0.020000 0.440000
0.435000 0.020000 0.440000
0.570000 0.020000 0.440000
0.705000 0.020000 0.440000
0.840000 0.020000 0.440000
0.975000 0.020000 0.440000
1.000000 0.020000 0.440000
0.030000 0.142500 0.440000
0.165000 0.142500 0.440000
0.300000 0.142500 0.440000
0.435000 0.142500 0.440000
0.570000 0.142500 0.440000
0.705000 0.142500 0.440000
0.840000 0.142500 0.440000
0.975000 0.142500 0.440000
1.000000 0.142500 0.440000
0.030000 0.265000 0.440000
0.165000 0.265000 0.440000
0.300000 0.265000 0.440000
0.435000 0.265000 0.440000
0.570000 0.265000 0.440000
0.705000 0.265000 0.440000
0.840000 0.265000 0.440000
0.975000 0.265000 0.440000
1.000000 0.265000 0.440000
0.030000 0.387500 0.440000
0.165000 0.387500 0.440000
0.300000 0.387500 0.440000
0.435000 0.387500 0.440000
0.570000 0.387500 0.440000
0.705000 0.387500 0.440000
0.840000 0.387500 0.440000
0.975000 0.387500 0.440000
1.000000 0.387500 0.440000
0.030000 0.510000 0.440000
0.165000 0.510000 0.440000
0.300000 0.510000 0.440000
0.435000 0.510000 0.440000
0.570000 0.510000 0.440000
0.705000 0.510000 0.440000
0.840000 0.510000 0.440000
0.975000 0.510000 0.440000
1.000000 0.510000 0.440000
0.030000 0.632500 0.440000
0.165000 0.632500 0.440000
0.300000 0.632500 0.440000
0.435000 0.632500 0.440000
0.570000 0.632500 0.440000
0.705000 0.632500 0.440000
0.840000 0.632500 0.440000
0.975000 0.632500 0.440000
1.000000 0.632500 0.440000
0.030000 0.755000 0.440000
0.165000 0.755000 0.440000
0.300000 0.755000 0.440000
0.435000 0.755000 0.440000
0.570000 0.755000 0.440000
0.705000 0.755000 0.440000
0.840000 0.755000 0.440000
0.975000 0.755000 0.440000
1.000000 0.755000 0.440000
0.030000 0.877500 0.440000
0.165000 0.877500 0.440000
0.300000 0.877500 0.440000
0.435000 0.877500 0.440000
0.570000 0.877500 0.440000
0.705000 0.877500 0.440000
0.840000 0.877500 0.440000
0.975000 0.877500 0.440000
1.000000 0.877500 0.440000
0.030000 1.000000 0.440000
0.165000 1.000000 0.440000
0.300000 1.000000 0.440000
0.435000 1.000000 0.440000
0.570000 1.000000 0.440000
0.705000 1.000000 0.440000
0.840000 1.000000 0.440000
0.975000 1.000000 0.440000
1.000000 1.000000 0.440000
0.030000 0.020000 0.550000
0.165000 0.020000 0.550000
0.300000 0.020000 0.550000
0.435000 0.020000 0.550000
0.570000 0.020000 0.550000
0.705000 0.020000 0.550000
0.840000 0.020000 0.550000
0.975000 0.020000 0.550000
1.000000 0.020000 0.550000
0.030000 0.142500 0.550000
0.165000 0.142500 0.550000
0.300000 0.142500 0.550000
0.435000 0.142500 0.550000
0.570000 0.142500 0.550000
0.705000 0.142500 0.550000
0.840000 0.142500 0.550000
0.975000 0.142500 0.550000
1.000000 0.142500 0.550000
0.030000 0.265000 0.550000
0.165000 0.265000 0.550000
0.300000 0.265000 0.550000
0.435000 0.265000 0.550000
0.570000 0.265000 0.550000
0.705000 0.265000 0.550000
0.840000 0.265000 0.550000
0.975000 0.265000 0.550000
1.000000 0.265000 0.550000
0.030000 0.387500 0.550000
0.165000 0.387500 0.550000
0.300000 0.387500 0.550000
0.435000 0.387500 0.550000
0.570000 0.387500 0.550000
0.705000 0.387500 0.550000
0.840000 0.387500 0.550000
0.975000 0.387500 0.550000
1.000000 0.387500 0.550000
0.030000 0.510000 0.550000
0.165000 0.510000 0.550000
0.300000 0.510000 0.550000
0.435000 0.510000 0.550000
0.570000 0.510000 0.550000
0.705000 0.510000 0.550000
0.840000 0.510000 0.550000
0.975000 0.510000 0.550000
1.000000 0.510000 0.550000
0.030000 0.632500 0.550000
0.165000 0.632500 0.550000
0.300000 0.632500 0.550000
0.435000 0.632500 0.550000
0.570000 0.632500 0.550000
0.705000 0.632500 0.550000
0.840000 0.632500 0.550000
0.975000 0.632500 0.550000
1.000000 0.632500 0.550000
0.030000 0.755000 0.550000
0.165000 0.755000 0.550000
0.300000 0.755000 0.550000
0.435000 0.755000 0.550000
0.570000 0.755000 0.550000
0.705000 0.755000 0.550000
0.840000 0.755000 0.550000
0.975000 0.755000 0.550000
1.000000 0.755000 0.550000
0.030000 0.877500 0.550000
0.165000 0.877500 0.550000
0.300000 0.877500 0.550000
0.435000 0.877500 0.550000
0.570000 0.877500 0.550000
0.705000 0.877500 0.550000
0.840000 0.877500 0.550000
0.975000 0.877500 0.550000
1.000000 0.877500 0.550000
0.030000 1.000000 0.550000
0.165000 1.000000 0.550000
0.300000 1.000000 0.550000
0.435000 1.000000 0.550000
0.570000 1.000000 0.550000
0.705000 1.000000 0.550000
0.840000 1.000000 0.550000
0.975000 1.000000 0.550000
1.000000 1.000000 0.550000
0.030000 0.020000 0.660000
0.165000 0.020000 0.660000
0.300000 0.020000 0.660000
0.435000 0.020000 0.660000
0.570000 0.020000 0.660000
0.705000 0.020000 0.660000
0.840000 0.020000 0.660000
0.975000 0.020000 0.660000
1.000000 0.020000 0.660000
0.030000 0.142500 0.660000
0.165000 0.142500 0.660000
0.300000 0.142500 0.660000
0.435000 0.142500 0.660000
0.570000 0.142500 0.660000
0.705000 0.142500 0.660000
0.840000 0.142500 0.660000
0.975000 0.142500 0.660000
1.000000 0.142500 0.660000
0.030000 0.265000 0.660000
0.165000 0.265000 0.660000
0.300000 0.265000 0.660000
0.435000 0.265000 0.660000
0.570000 0.265000 0.660000
0.705000 0.265000 0.660000
0.840000 0.265000 0.660000
0.975000 0.265000 0.660000
1.000000 0.265000 0.660000
0.030000 0.387500 0.660000
0.165000 0.387500 0.660000
0.300000 0.387500 0.660000
0.435000 0.387500 0.660000
0.570000 0.387500 0.660000
0.705000 0.387500 0.660000
0.840000 0.387500 0.660000
0.975000 0.387500 0.660000
1.000000 0.387500 0.660000
0.030000 0.510000 0.660000
0.165000 0.510000 0.660000
0.300000 0.510000 0.660000
0.435000 0.510000 0.660000
0.570000 0.510000 0.660000
0.705000 0.510000 0.660000
0.840000 0.510000 0.660000
0.975000 0.510000 0.660000
1.000000 0.510000 0.660000
0.030000 0.632500 0.660000
0.165000 0.632500 0.660000
0.300000 0.632500 0.660000
0.435000 0.632500 0.660000
0.570000 0.632500 0.660000
0.705000 0.632500 0.660000
0.840000 0.632500 0.660000
0.975000 0.632500 0.660000
1.000000 0.632500 0.660000
0.030000 0.755000 0.660000
0.165000 0.755000 0.660000
0.300000 0.755000 0.660000
0.435000 0.755000 0.660000
0.570000 0.755000 0.660000
0.705000 0.755000 0.660000
0.840000 0.755000 0.660000
0.975000 0.755000 0.660000
1.000000 0.755000 0.660000
0.030000 0.877500 0.660000
0.165000 0.877500 0.660000
0.300000 0.877500 0.660000
0.435000 0.877500 0.660000
0.570000 0.877500 0.660000
0.705000 0.877500 0.660000
0.840000 0.877500 0.660000
0.975000 0.877500 0.660000
1.000000 0.877500 0.660000
0.030000 1.000000 0.660000
0.165000 1.000000 0.660000
0.300000 1.000000 0.660000
0.435000 1.000000 0.660000
0.570000 1.000000 0.660000
0.705000 1.000000 0.660000
0.840000 1.000000 0.660000
0.975000 1.000000 0.660000
1.000000 1.000000 0.660000
0.030000 0.020000 0.770000
0.165000 0.020000 0.770000
0.300000 0.020000 0.770000
0.435000 0.020000 0.770000
0.570000 0.020000 0.770000
0.705000 0.020000 0.770000
0.840000 0.020000 0.770000
0.975000 0.020000 0.770000
1.000000 0.020000 0.770000
0.030000 0.142500 0.770000
0.165000 0.142500 0.770000
0.300000 0.142500 0.770000
0.435000 0.142500 0.770000
0.570000 0.142500 0.770000
0.705000 0.142500 0.770000
0.840000 0.142500 0.770000
0.975000 0.142500 0.770000
1.000000 0.142500 0.770000
0.030000 0.265000 0.770000
0.165000 0.265000 0.770000
0.300000 0.265000 0.770000
0.435000 0.265000 0.770000
0.570000 0.265000 0.770000
0.705000 0.265000 0.770000
0.840000 0.265000 0.770000
0.975000 0.265000 0.770000
1.000000 0.265000 0.770000
0.030000 0.387500 0.770000
0.165000 0.387500 0.770000
0.300000 0.387500 0.770000
0.435000 0.387500 0.770000
0.570000 0.387500 0.770000
0.705000 0.387500 0.770000
0.840000 0.387500 0.770000
0.975000 0.387500 0.770000
1.000000 0.387500 0.770000
0.030000 0.510000 0.770000
0.165000 0.510000 0.770000
0.300000 0.510000 0.770000
0.435000 0.510000 0.770000
0.570000 0.510000 0.770000
0.705000 0.510000 0.770000
0.840000 0.510000 0.770000
0.975000 0.510000 0.770000
1.000000 0.510000 0.770000
0.030000 0.632500 0.770000
0.165000 0.632500 0.770000
0.300000 0.632500 0.770000
0.435000 0.632500 0.770000
0.570000 0.632500 0.770000
0.705000 0.632500 0.770000
0.840000 0.632500 0.770000
0.975000 0.632500 0.770000
1.000000 0.632500 0.770000
0.030000 0.755000 0.770000
0.165000 0.755000 0.770000
0.300000 0.755000 0.770000
0.435000 0.755000 0.770000
0.570000 0.755000 0.770000
0.705000 0.755000 0.770000
0.840000 0.755000 0.770000
0.975000 0.755000 0.770000
1.000000 0.755000 0.770000
0.030000 0.877500 0.770000
0.165000 0.877500 0.770000
0.300000 0.877500 0.770000
0.435000 0.877500 0.770000
0.570000 0.877500 0.770000
0.705000 0.877500 0.770000
0.840000 0.877500 0.770000
0.975000 0.877500 0.770000
1.000000 0.877500 0.770000
0.030000 1.000000 0.770000
0.165000 1.000000 0.770000
0.300000 1.000000 0.770000
0.435000 1.000000 0.770000
0.570000 1.000000 0.770000
0.705000 1.000000 0.770000
0.840000 1.000000 0.770000
0.975000 1.000000 0.770000
1.000000 1.000000 0.770000
0.030000 0.020000 0.880000
0.165000 0.020000 0.880000
0.300000 0.020000 0.880000
0.435000 0.020000 0.880000
0.570000 0.020000 0.880000
0.705000 0.020000 0.880000
0.840000 0.020000 0.880000
0.975000 0.020000 0.880000
1.000000 0.020000 0.880000
0.030000 0.142500 0.880000
0.165000 0.142500 0.880000
0.300000 0.142500 0.880000
0.435000 0.142500 0.880000
0.570000 0.142500 0.880000
0.705000 0.142500 0.880000
0.840000 0.142500 0.880000
0.975000 0.142500 0.880000
1.000000 0.142500 0.880000
0.030000 0.265000 0.880000
0.165000 0.265000 0.880000
0.300000 0.265000 0.880000
0.435000 0.265000 0.880000
0.570000 0.265000 0.880000
0.705000 0.265000 0.880000
0.840000 0.265000 0.880000
0.975000 0.265000 0.880000
1.000000 0.265000 0.880000
0.030000 0.387500 0.880000
0.165000 0.387500 0.880000
0.300000 0.387500 0.880000
0.435000 0.387500 0.880000
0.570000 0.387500 0.880000
0.705000 0.387500 0.880000
0.840000 0.387500 0.880000
0.975000 0.387500 0.880000
1.000000 0.387500 0.880000
0.030000 0.510000 0.880000
0.165000 0.510000 0.880000
0.300000 0.510000 0.880000
0.435000 0.510000 0.880000
0.570000 0.510000 0.880000
0.705000 0.510000 0.880000
0.840000 0.510000 0.880000
0.975000 0.510000 0.880000
1.000000 0.510000 0.880000
0.030000 0.632500 0.880000
0.165000 0.632500 0.880000
0.300000 0.632500 0.880000
0.435000 0.632500 0.880000
0.570000 0.632500 0.880000
0.705000 0.632500 0.880000
0.840000 0.632500 0.880000
0.975000 0.632500 0.880000
1.000000 0.632500 0.880000
0.030000 0.755000 0.880000
0.165000 0.755000 0.880000
0.300000 0.755000 0.880000
0.435000 0.755000 0.880000
0.570000 0.755000 0.880000
0.705000 0.755000 0.880000
0.840000 0.755000 0.880000
0.975000 0.755000 0.880000
1.000000 0.755000 0.880000
0.030000 0.877500 0.880000
0.165000 0.877500 0.880000
0.300000 0.877500 0.880000
0.435000 0.877500 0.880000
0.570000 0.877500 0.880000
0.705000 0.877500 0.880000
0.840000 0.877500 0.880000
0.975000 0.877500 0.880000
1.000000 0.877500 0.880000
0.030000 1.000000 0.880000
0.165000 1.000000 0.880000
0.300000 1.000000 0.880000
0.435000 1.000000 0.880000
0.570000 1.000000 0.880000
0.705000 1.000000 0.880000
0.840000 1.000000 0.880000
0.975000 1.000000 0.880000
1.000000 1.000000 0.880000
