backend/assets/luts/warm_orange_film.cube
TITLE "Warm Orange Film"
LUT_3D_SIZE 33
0.030000 0.020000 0.000000
0.063750 0.020000 0.000000
0.097500 0.020000 0.000000
0.131250 0.020000 0.000000
0.165000 0.020000 0.000000
0.198750 0.020000 0.000000
0.232500 0.020000 0.000000
0.266250 0.020000 0.000000
0.300000 0.020000 0.000000
0.333750 0.020000 0.000000
0.367500 0.020000 0.000000
0.401250 0.020000 0.000000
0.435000 0.020000 0.000000
0.468750 0.020000 0.000000
0.502500 0.020000 0.000000
0.536250 0.020000 0.000000
0.570000 0.020000 0.000000
0.603750 0.020000 0.000000
0.637500 0.020000 0.000000
0.671250 0.020000 0.000000
0.705000 0.020000 0.000000
0.738750 0.020000 0.000000
0.772500 0.020000 0.000000
0.806250 0.020000 0.000000
0.840000 0.020000 0.000000
0.873750 0.020000 0.000000
0.907500 0.020000 0.000000
0.941250 0.020000 0.000000
0.975000 0.020000 0.000000
1.000000 0.020000 0.000000
1.000000 0.020000 0.000000
1.000000 0.020000 0.000000
1.000000 0.020000 0.000000
0.030000 0.050625 0.000000
0.063750 0.050625 0.000000
0.097500 0.050625 0.000000
0.131250 0.050625 0.000000
0.165000 0.050625 0.000000
0.198750 0.050625 0.000000
0.232500 0.050625 0.000000
0.266250 0.050625 0.000000
0.300000 0.050625 0.000000
0.333750 0.050625 0.000000
0.367500 0.050625 0.000000
0.401250 0.050625 0.000000
0.435000 0.050625 0.000000
0.468750 0.050625 0.000000
0.502500 0.050625 0.000000
0.536250 0.050625 0.000000
0.570000 0.050625 0.000000
0.603750 0.050625 0.000000
0.637500 0.050625 0.000000
0.671250 0.050625 0.000000
0.705000 0.050625 0.000000
0.738750 0.050625 0.000000
0.772500 0.050625 0.000000
0.806250 0.050625 0.000000
0.840000 0.050625 0.000000
0.873750 0.050625 0.000000
0.907500 0.050625 0.000000
0.941250 0.050625 0.000000
0.975000 0.050625 0.000000
1.000000 0.050625 0.000000
1.000000 0.050625 0.000000
1.000000 0.050625 0.000000
1.000000 0.050625 0.000000
0.030000 0.081250 0.000000
0.063750 0.081250 0.000000
0.097500 0.081250 0.000000
0.131250 0.081250 0.000000
0.165000 0.081250 0.000000
0.198750 0.081250 0.000000
0.232500 0.081250 0.000000
0.266250 0.081250 0.000000
0.300000 0.081250 0.000000
0.333750 0.081250 0.000000
0.367500 0.081250 0.000000
0.401250 0.081250 0.000000
0.435000 0.081250 0.000000
0.468750 0.081250 0.000000
0.502500 0.081250 0.000000
0.536250 0.081250 0.000000
0.570000 0.081250 0.000000
0.603750 0.081250 0.000000
0.637500 0.081250 0.000000
0.671250 0.081250 0.000000
0.705000 0.081250 0.000000
0.738750 0.081250 0.000000
0.772500 0.081250 0.000000
0.806250 0.081250 0.000000
0.840000 0.081250 0.000000
0.873750 0.081250 0.000000
0.907500 0.081250 0.000000
0.941250 0.081250 0.000000
0.975000 0.081250 0.000000
1.000000 0.081250 0.000000
1.000000 0.081250 0.000000
1.000000 0.081250 0.000000
1.000000 0.081250 0.000000
0.030000 0.111875 0.000000
0.063750 0.111875 0.000000
0.097500 0.111875 0.000000
0.131250 0.111875 0.000000
0.165000 0.111875 0.000000
0.198750 0.111875 0.000000
0.232500 0.111875 0.000000
0.266250 0.111875 0.000000
0.300000 0.111875 0.000000
0.333750 0.111875 0.000000
0.367500 0.111875 0.000000
0.401250 0.111875 0.000000
0.435000 0.111875 0.000000
0.468750 0.111875 0.000000
0.502500 0.111875 0.000000
0.536250 0.111875 0.000000
0.570000 0.111875 0.000000
0.603750 0.111875 0.000000
0.637500 0.111875 0.000000
0.671250 0.111875 0.000000
0.705000 0.111875 0.000000
0.738750 0.111875 0.000000
0.772500 0.111875 0.000000
0.806250 0.111875 0.000000
0.840000 0.111875 0.000000
0.873750 0.111875 0.000000
0.907500 0.111875 0.000000
0.941250 0.111875 0.000000
0.975000 0.111875 0.000000
1.000000 0.111875 0.000000
1.000000 0.111875 0.000000
1.000000 0.111875 0.000000
1.000000 0.111875 0.000000
0.030000 0.142500 0.000000
0.063750 0.142500 0.000000
0.097500 0.142500 0.000000
0.131250 0.142500 0.000000
0.165000 0.142500 0.000000
0.198750 0.142500 0.000000
0.232500 0.142500 0.000000
0.266250 0.142500 0.000000
0.300000 0.142500 0.000000
0.333750 0.142500 0.000000
0.367500 0.142500 0.000000
0.401250 0.142500 0.000000
0.435000 0.142500 0.000000
0.468750 0.142500 0.000000
0.502500 0.142500 0.000000
0.536250 0.142500 0.000000
0.570000 0.142500 0.000000
0.603750 0.142500 0.000000
0.637500 0.142500 0.000000
0.671250 0.142500 0.000000
0.705000 0.142500 0.000000
0.738750 0.142500 0.000000
0.772500 0.142500 0.000000
0.806250 0.142500 0.000000
0.840000 0.142500 0.000000
0.873750 0.142500 0.000000
0.907500 0.142500 0.000000
0.941250 0.142500 0.000000
0.975000 0.142500 0.000000
1.000000 0.142500 0.000000
1.000000 0.142500 0.000000
1.000000 0.142500 0.000000
1.000000 0.142500 0.000000
0.030000 0.173125 0.000000
0.063750 0.173125 0.000000
0.097500 0.173125 0.000000
0.131250 0.173125 0.000000
0.165000 0.173125 0.000000
0.198750 0.173125 0.000000
0.232500 0.173125 0.000000
0.266250 0.173125 0.000000
0.300000 0.173125 0.000000
0.333750 0.173125 0.000000
0.367500 0.173125 0.000000
0.401250 0.173125 0.000000
0.435000 0.173125 0.000000
0.468750 0.173125 0.000000
0.502500 0.173125 0.000000
0.536250 0.173125 0.000000
0.570000 0.173125 0.000000
0.603750 0.173125 0.000000
0.637500 0.173125 0.000000
0.671250 0.173125 0.000000
0.705000 0.173125 0.000000
0.738750 0.173125 0.000000
0.772500 0.173125 0.000000
0.806250 0.173125 0.000000
0.840000 0.173125 0.000000
0.873750 0.173125 0.000000
0.907500 0.173125 0.000000
0.941250 0.173125 0.000000
0.975000 0.173125 0.000000
1.000000 0.173125 0.000000
1.000000 0.173125 0.000000
1.000000 0.173125 0.000000
1.000000 0.173125 0.000000
0.030000 0.203750 0.000000
0.063750 0.203750 0.000000
0.097500 0.203750 0.000000
0.131250 0.203750 0.000000
0.165000 0.203750 0.000000
0.198750 0.203750 0.000000
0.232500 0.203750 0.000000
0.266250 0.203750 0.000000
0.300000 0.203750 0.000000
0.333750 0.203750 0.000000
0.367500 0.203750 0.000000
0.401250 0.203750 0.000000
0.435000 0.203750 0.000000
0.468750 0.203750 0.000000
0.502500 0.203750 0.000000
0.536250 0.203750 0.000000
0.570000 0.203750 0.000000
0.603750 0.203750 0.000000
0.637500 0.203750 0.000000
0.671250 0.203750 0.000000
0.705000 0.203750 0.000000
0.738750 0.203750 0.000000
0.772500 0.203750 0.000000
0.806250 0.203750 0.000000
0.840000 0.203750 0.000000
0.873750 0.203750 0.000000
0.907500 0.203750 0.000000
0.941250 0.203750 0.000000
0.975000 0.203750 0.000000
1.000000 0.203750 0.000000
1.000000 0.203750 0.000000
1.000000 0.203750 0.000000
1.000000 0.203750 0.000000
0.030000 0.234375 0.000000
0.063750 0.234375 0.000000
0.097500 0.234375 0.000000
0.131250 0.234375 0.000000
0.165000 0.234375 0.000000
0.198750 0.234375 0.000000
0.232500 0.234375 0.000000
0.266250 0.234375 0.000000
0.300000 0.234375 0.000000
0.333750 0.234375 0.000000
0.367500 0.234375 0.000000
0.401250 0.234375 0.000000
0.435000 0.234375 0.000000
0.468750 0.234375 0.000000
0.502500 0.234375 0.000000
0.536250 0.234375 0.000000
0.570000 0.234375 0.000000
0.603750 0.234375 0.000000
0.637500 0.234375 0.000000
0.671250 0.234375 0.000000
0.705000 0.234375 0.000000
0.738750 0.234375 0.000000
0.772500 0.234375 0.000000
0.806250 0.234375 0.000000
0.840000 0.234375 0.000000
0.873750 0.234375 0.000000
0.907500 0.234375 0.000000
0.941250 0.234375 0.000000
0.975000 0.234375 0.000000
1.000000 0.234375 0.000000
1.000000 0.234375 0.000000
1.000000 0.234375 0.000000
1.000000 0.234375 0.000000
0.030000 0.265000 0.000000
0.063750 0.265000 0.000000
0.097500 0.265000 0.000000
0.131250 0.265000 0.000000
0.165000 0.265000 0.000000
0.198750 0.265000 0.000000
0.232500 0.265000 0.000000
0.266250 0.265000 0.000000
0.300000 0.265000 0.000000
0.333750 0.265000 0.000000
0.367500 0.265000 0.000000
0.401250 0.265000 0.000000
0.435000 0.265000 0.000000
0.468750 0.265000 0.000000
0.502500 0.265000 0.000000
0.536250 0.265000 0.000000
0.570000 0.265000 0.000000
0.603750 0.265000 0.000000
0.637500 0.265000 0.000000
0.671250 0.265000 0.000000
0.705000 0.265000 0.000000
0.738750 0.265000 0.000000
0.772500 0.265000 0.000000
0.806250 0.265000 0.000000
0.840000 0.265000 0.000000
0.873750 0.265000 0.000000
0.907500 0.265000 0.000000
0.941250 0.265000 0.000000
0.975000 0.265000 0.000000
1.000000 0.265000 0.000000
1.000000 0.265000 0.000000
1.000000 0.265000 0.000000
1.000000 0.265000 0.000000
0.030000 0.295625 0.000000
0.063750 0.295625 0.000000
0.097500 0.295625 0.000000
0.131250 0.295625 0.000000
0.165000 0.295625 0.000000
0.198750 0.295625 0.000000
0.232500 0.295625 0.000000
0.266250 0.295625 0.000000
0.300000 0.295625 0.000000
0.333750 0.295625 0.000000
0.367500 0.295625 0.000000
0.401250 0.295625 0.000000
0.435000 0.295625 0.000000
0.468750 0.295625 0.000000
0.502500 0.295625 0.000000
0.536250 0.295625 0.000000
0.570000 0.295625 0.000000
0.603750 0.295625 0.000000
0.637500 0.295625 0.000000
0.671250 0.295625 0.000000
0.705000 0.295625 0.000000
0.738750 0.295625 0.000000
0.772500 0.295625 0.000000
0.806250 0.295625 0.000000
0.840000 0.295625 0.000000
0.873750 0.295625 0.000000
0.907500 0.295625 0.000000
0.941250 0.295625 0.000000
0.975000 0.295625 0.000000
1.000000 0.295625 0.000000
1.000000 0.295625 0.000000
1.000000 0.295625 0.000000
1.000000 0.295625 0.000000
0.030000 0.326250 0.000000
0.063750 0.326250 0.000000
0.097500 0.326250 0.000000
0.131250 0.326250 0.000000
0.165000 0.326250 0.000000
0.198750 0.326250 0.000000
0.232500 0.326250 0.000000
0.266250 0.326250 0.000000
0.300000 0.326250 0.000000
0.333750 0.326250 0.000000
0.367500 0.326250 0.000000
0.401250 0.326250 0.000000
0.435000 0.326250 0.000000
0.468750 0.326250 0.000000
0.502500 0.326250 0.000000
0.536250 0.326250 0.000000
0.570000 0.326250 0.000000
0.603750 0.326250 0.000000
0.637500 0.326250 0.000000
0.671250 0.326250 0.000000
0.705000 0.326250 0.000000
0.738750 0.326250 0.000000
0.772500 0.326250 0.000000
0.806250 0.326250 0.000000
0.840000 0.326250 0.000000
0.873750 0.326250 0.000000
0.907500 0.326250 0.000000
0.941250 0.326250 0.000000
0.975000 0.326250 0.000000
1.000000 0.326250 0.000000
1.000000 0.326250 0.000000
1.000000 0.326250 0.000000
1.000000 0.326250 0.000000
0.030000 0.356875 0.000000
0.063750 0.356875 0.000000
0.097500 0.356875 0.000000
0.131250 0.356875 0.000000
0.165000 0.356875 0.000000
0.198750 0.356875 0.000000
0.232500 0.356875 0.000000
0.266250 0.356875 0.000000
0.300000 0.356875 0.000000
0.333750 0.356875 0.000000
0.367500 0.356875 0.000000
0.401250 0.356875 0.000000
0.435000 0.356875 0.000000
0.468750 0.356875 0.000000
0.502500 0.356875 0.000000
0.536250 0.356875 0.000000
0.570000 0.356875 0.000000
0.603750 0.356875 0.000000
0.637500 0.356875 0.000000
0.671250 0.356875 0.000000
0.705000 0.356875 0.000000
0.738750 0.356875 0.000000
0.772500 0.356875 0.000000
0.806250 0.356875 0.000000
0.840000 0.356875 0.000000
0.873750 0.356875 0.000000
0.907500 0.356875 0.000000
0.941250 0.356875 0.000000
0.975000 0.356875 0.000000
1.000000 0.356875 0.000000
1.000000 0.356875 0.000000
1.000000 0.356875 0.000000
1.000000 0.356875 0.000000
0.030000 0.387500 0.000000
0.063750 0.387500 0.000000
0.097500 0.387500 0.000000
0.131250 0.387500 0.000000
0.165000 0.387500 0.000000
0.198750 0.387500 0.000000
0.232500 0.387500 0.000000
0.266250 0.387500 0.000000
0.300000 0.387500 0.000000
0.333750 0.387500 0.000000
0.367500 0.387500 0.000000
0.401250 0.387500 0.000000
0.435000 0.387500 0.000000
0.468750 0.387500 0.000000
0.502500 0.387500 0.000000
0.536250 0.387500 0.000000
0.570000 0.387500 0.000000
0.603750 0.387500 0.000000
0.637500 0.387500 0.000000
0.671250 0.387500 0.000000
0.705000 0.387500 0.000000
0.738750 0.387500 0.000000
0.772500 0.387500 0.000000
0.806250 0.387500 0.000000
0.840000 0.387500 0.000000
0.873750 0.387500 0.000000
0.907500 0.387500 0.000000
0.941250 0.387500 0.000000
0.975000 0.387500 0.000000
1.000000 0.387500 0.000000
1.000000 0.387500 0.000000
1.000000 0.387500 0.000000
1.000000 0.387500 0.000000
0.030000 0.418125 0.000000
0.063750 0.418125 0.000000
0.097500 0.418125 0.000000
0.131250 0.418125 0.000000
0.165000 0.418125 0.000000
0.198750 0.418125 0.000000
0.232500 0.418125 0.000000
0.266250 0.418125 0.000000
0.300000 0.418125 0.000000
0.333750 0.418125 0.000000
0.367500 0.418125 0.000000
0.401250 0.418125 0.000000
0.435000 0.418125 0.000000
0.468750 0.418125 0.000000
0.502500 0.418125 0.000000
0.536250 0.418125 0.000000
0.570000 0.418125 0.000000
0.603750 0.418125 0.000000
0.637500 0.418125 0.000000
0.671250 0.418125 0.000000
0.705000 0.418125 0.000000
0.738750 0.418125 0.000000
0.772500 0.418125 0.000000
0.806250 0.418125 0.000000
0.840000 0.418125 0.000000
0.873750 0.418125 0.000000
0.907500 0.418125 0.000000
0.941250 0.418125 0.000000
0.975000 0.418125 0.000000
1.000000 0.418125 0.000000
1.000000 0.418125 0.000000
1.000000 0.418125 0.000000
1.000000 0.418125 0.000000
0.030000 0.448750 0.000000
0.063750 0.448750 0.000000
0.097500 0.448750 0.000000
0.131250 0.448750 0.000000
0.165000 0.448750 0.000000
0.198750 0.448750 0.000000
0.232500 0.448750 0.000000
0.266250 0.448750 0.000000
0.300000 0.448750 0.000000
0.333750 0.448750 0.000000
0.367500 0.448750 0.000000
0.401250 0.448750 0.000000
0.435000 0.448750 0.000000
0.468750 0.448750 0.000000
0.502500 0.448750 0.000000
0.536250 0.448750 0.000000
0.570000 0.448750 0.000000
0.603750 0.448750 0.000000
0.637500 0.448750 0.000000
0.671250 0.448750 0.000000
0.705000 0.448750 0.000000
0.738750 0.448750 0.000000
0.772500 0.448750 0.000000
0.806250 0.448750 0.000000
0.840000 0.448750 0.000000
0.873750 0.448750 0.000000
0.907500 0.448750 0.000000
0.941250 0.448750 0.000000
0.975000 0.448750 0.000000
1.000000 0.448750 0.000000
1.000000 0.448750 0.000000
1.000000 0.448750 0.000000
1.000000 0.448750 0.000000
0.030000 0.479375 0.000000
0.063750 0.479375 0.000000
0.097500 0.479375 0.000000
0.131250 0.479375 0.000000
0.165000 0.479375 0.000000
0.198750 0.479375 0.000000
0.232500 0.479375 0.000000
0.266250 0.479375 0.000000
0.300000 0.479375 0.000000
0.333750 0.479375 0.000000
0.367500 0.479375 0.000000
0.401250 0.479375 0.000000
0.435000 0.479375 0.000000
0.468750 0.479375 0.000000
0.502500 0.479375 0.000000
0.536250 0.479375 0.000000
0.570000 0.479375 0.000000
0.603750 0.479375 0.000000
0.637500 0.479375 0.000000
0.671250 0.479375 0.000000
0.705000 0.479375 0.000000
0.738750 0.479375 0.000000
0.772500 0.479375 0.000000
0.806250 0.479375 0.000000
0.840000 0.479375 0.000000
0.873750 0.479375 0.000000
0.907500 0.479375 0.000000
0.941250 0.479375 0.000000
0.975000 0.479375 0.000000
1.000000 0.479375 0.000000
1.000000 0.479375 0.000000
1.000000 0.479375 0.000000
1.000000 0.479375 0.000000
0.030000 0.510000 0.000000
0.063750 0.510000 0.000000
0.097500 0.510000 0.000000
0.131250 0.510000 0.000000
0.165000 0.510000 0.000000
0.198750 0.510000 0.000000
0.232500 0.510000 0.000000
0.266250 0.510000 0.000000
0.300000 0.510000 0.000000
0.333750 0.510000 0.000000
0.367500 0.510000 0.000000
0.401250 0.510000 0.000000
0.435000 0.510000 0.000000
0.468750 0.510000 0.000000
0.502500 0.510000 0.000000
0.536250 0.510000 0.000000
0.570000 0.510000 0.000000
0.603750 0.510000 0.000000
0.637500 0.510000 0.000000
0.671250 0.510000 0.000000
0.705000 0.510000 0.000000
0.738750 0.510000 0.000000
0.772500 0.510000 0.000000
0.806250 0.510000 0.000000
0.840000 0.510000 0.000000
0.873750 0.510000 0.000000
0.907500 0.510000 0.000000
0.941250 0.510000 0.000000
0.975000 0.510000 0.000000
1.000000 0.510000 0.000000
1.000000 0.510000 0.000000
1.000000 0.510000 0.000000
1.000000 0.510000 0.000000
0.030000 0.540625 0.000000
0.063750 0.540625 0.000000
0.097500 0.540625 0.000000
0.131250 0.540625 0.000000
0.165000 0.540625 0.000000
0.198750 0.540625 0.000000
0.232500 0.540625 0.000000
0.266250 0.540625 0.000000
0.300000 0.540625 0.000000
0.333750 0.540625 0.000000
0.367500 0.540625 0.000000
0.401250 0.540625 0.000000
0.435000 0.540625 0.000000
0.468750 0.540625 0.000000
0.502500 0.540625 0.000000
0.536250 0.540625 0.000000
0.570000 0.540625 0.000000
0.603750 0.540625 0.000000
0.637500 0.540625 0.000000
0.671250 0.540625 0.000000
0.705000 0.540625 0.000000
0.738750 0.540625 0.000000
0.772500 0.540625 0.000000
0.806250 0.540625 0.000000
0.840000 0.540625 0.000000
0.873750 0.540625 0.000000
0.907500 0.540625 0.000000
0.941250 0.540625 0.000000
0.975000 0.540625 0.000000
1.000000 0.540625 0.000000
1.000000 0.540625 0.000000
1.000000 0.540625 0.000000
1.000000 0.540625 0.000000
0.030000 0.571250 0.000000
0.063750 0.571250 0.000000
0.097500 0.571250 0.000000
0.131250 0.571250 0.000000
0.165000 0.571250 0.000000
0.198750 0.571250 0.000000
0.232500 0.571250 0.000000
0.266250 0.571250 0.000000
0.300000 0.571250 0.000000
0.333750 0.571250 0.000000
0.367500 0.571250 0.000000
0.401250 0.571250 0.000000
0.435000 0.571250 0.000000
0.468750 0.571250 0.000000
0.502500 0.571250 0.000000
0.536250 0.571250 0.000000
0.570000 0.571250 0.000000
0.603750 0.571250 0.000000
0.637500 0.571250 0.000000
0.671250 0.571250 0.000000
0.705000 0.571250 0.000000
0.738750 0.571250 0.000000
0.772500 0.571250 0.000000
0.806250 0.571250 0.000000
0.840000 0.571250 0.000000
0.873750 0.571250 0.000000
0.907500 0.571250 0.000000
0.941250 0.571250 0.000000
0.975000 0.571250 0.000000
1.000000 0.571250 0.000000
1.000000 0.571250 0.000000
1.000000 0.571250 0.000000
1.000000 0.571250 0.000000
0.030000 0.601875 0.000000
0.063750 0.601875 0.000000
0.097500 0.601875 0.000000
0.131250 0.601875 0.000000
0.165000 0.601875 0.000000
0.198750 0.601875 0.000000
0.232500 0.601875 0.000000
0.266250 0.601875 0.000000
0.300000 0.601875 0.000000
0.333750 0.601875 0.000000
0.367500 0.601875 0.000000
0.401250 0.601875 0.000000
0.435000 0.601875 0.000000
0.468750 0.601875 0.000000
0.502500 0.601875 0.000000
0.536250 0.601875 0.000000
0.570000 0.601875 0.000000
0.603750 0.601875 0.000000
0.637500 0.601875 0.000000
0.671250 0.601875 0.000000
0.705000 0.601875 0.000000
0.738750 0.601875 0.000000
0.772500 0.601875 0.000000
0.806250 0.601875 0.000000
0.840000 0.601875 0.000000
0.873750 0.601875 0.000000
0.907500 0.601875 0.000000
0.941250 0.601875 0.000000
0.975000 0.601875 0.000000
1.000000 0.601875 0.000000
1.000000 0.601875 0.000000
1.000000 0.601875 0.000000
1.000000 0.601875 0.000000
0.030000 0.632500 0.000000
0.063750 0.632500 0.000000
0.097500 0.632500 0.000000
0.131250 0.632500 0.000000
0.165000 0.632500 0.000000
0.198750 0.632500 0.000000
0.232500 0.632500 0.000000
0.266250 0.632500 0.000000
0.300000 0.632500 0.000000
0.333750 0.632500 0.000000
0.367500 0.632500 0.000000
0.401250 0.632500 0.000000
0.435000 0.632500 0.000000
0.468750 0.632500 0.000000
0.502500 0.632500 0.000000
0.536250 0.632500 0.000000
0.570000 0.632500 0.000000
0.603750 0.632500 0.000000
0.637500 0.632500 0.000000
0.671250 0.632500 0.000000
0.705000 0.632500 0.000000
0.738750 0.632500 0.000000
0.772500 0.632500 0.000000
0.806250 0.632500 0.000000
0.840000 0.632500 0.000000
0.873750 0.632500 0.000000
0.907500 0.632500 0.000000
0.941250 0.632500 0.000000
0.975000 0.632500 0.000000
1.000000 0.632500 0.000000
1.000000 0.632500 0.000000
1.000000 0.632500 0.000000
1.000000 0.632500 0.000000
0.030000 0.663125 0.000000
0.063750 0.663125 0.000000
0.097500 0.663125 0.000000
0.131250 0.663125 0.000000
0.165000 0.663125 0.000000
0.198750 0.663125 0.000000
0.232500 0.663125 0.000000
0.266250 0.663125 0.000000
0.300000 0.663125 0.000000
0.333750 0.663125 0.000000
0.367500 0.663125 0.000000
0.401250 0.663125 0.000000
0.435000 0.663125 0.000000
0.468750 0.663125 0.000000
0.502500 0.663125 0.000000
0.536250 0.663125 0.000000
0.570000 0.663125 0.000000
0.603750 0.663125 0.000000
0.637500 0.663125 0.000000
0.671250 0.663125 0.000000
0.705000 0.663125 0.000000
0.738750 0.663125 0.000000
0.772500 0.663125 0.000000
0.806250 0.663125 0.000000
0.840000 0.663125 0.000000
0.873750 0.663125 0.000000
0.907500 0.663125 0.000000
0.941250 0.663125 0.000000
0.975000 0.663125 0.000000
1.000000 0.663125 0.000000
1.000000 0.663125 0.000000
1.000000 0.663125 0.000000
1.000000 0.663125 0.000000
0.030000 0.693750 0.000000
0.063750 0.693750 0.000000
0.097500 0.693750 0.000000
0.131250 0.693750 0.000000
0.165000 0.693750 0.000000
0.198750 0.693750 0.000000
0.232500 0.693750 0.000000
0.266250 0.693750 0.000000
0.300000 0.693750 0.000000
0.333750 0.693750 0.000000
0.367500 0.693750 0.000000
0.401250 0.693750 0.000000
0.435000 0.693750 0.000000
0.468750 0.693750 0.000000
0.502500 0.693750 0.000000
0.536250 0.693750 0.000000
0.570000 0.693750 0.000000
0.603750 0.693750 0.000000
0.637500 0.693750 0.000000
0.671250 0.693750 0.000000
0.705000 0.693750 0.000000
0.738750 0.693750 0.000000
0.772500 0.693750 0.000000
0.806250 0.693750 0.000000
0.840000 0.693750 0.000000
0.873750 0.693750 0.000000
0.907500 0.693750 0.000000
0.941250 0.693750 0.000000
0.975000 0.693750 0.000000
1.000000 0.693750 0.000000
1.000000 0.693750 0.000000
1.000000 0.693750 0.000000
1.000000 0.693750 0.000000
0.030000 0.724375 0.000000
0.063750 0.724375 0.000000
0.097500 0.724375 0.000000
0.131250 0.724375 0.000000
0.165000 0.724375 0.000000
0.198750 0.724375 0.000000
0.232500 0.724375 0.000000
0.266250 0.724375 0.000000
0.300000 0.724375 0.000000
0.333750 0.724375 0.000000
0.367500 0.724375 0.000000
0.401250 0.724375 0.000000
0.435000 0.724375 0.000000
0.468750 0.724375 0.000000
0.502500 0.724375 0.000000
0.536250 0.724375 0.000000
0.570000 0.724375 0.000000
0.603750 0.724375 0.000000
0.637500 0.724375 0.000000
0.671250 0.724375 0.000000
0.705000 0.724375 0.000000
0.738750 0.724375 0.000000
0.772500 0.724375 0.000000
0.806250 0.724375 0.000000
0.840000 0.724375 0.000000
0.873750 0.724375 0.000000
0.907500 0.724375 0.000000
0.941250 0.724375 0.000000
0.975000 0.724375 0.000000
1.000000 0.724375 0.000000
1.000000 0.724375 0.000000
1.000000 0.724375 0.000000
1.000000 0.724375 0.000000
0.030000 0.755000 0.000000
0.063750 0.755000 0.000000
0.097500 0.755000 0.000000
0.131250 0.755000 0.000000
0.165000 0.755000 0.000000
0.198750 0.755000 0.000000
0.232500 0.755000 0.000000
0.266250 0.755000 0.000000
0.300000 0.755000 0.000000
0.333750 0.755000 0.000000
0.367500 0.755000 0.000000
0.401250 0.755000 0.000000
0.435000 0.755000 0.000000
0.468750 0.755000 0.000000
0.502500 0.755000 0.000000
0.536250 0.755000 0.000000
0.570000 0.755000 0.000000
0.603750 0.755000 0.000000
0.637500 0.755000 0.000000
0.671250 0.755000 0.000000
0.705000 0.755000 0.000000
0.738750 0.755000 0.000000
0.772500 0.755000 0.000000
0.806250 0.755000 0.000000
0.840000 0.755000 0.000000
0.873750 0.755000 0.000000
0.907500 0.755000 0.000000
0.941250 0.755000 0.000000
0.975000 0.755000 0.000000
1.000000 0.755000 0.000000
1.000000 0.755000 0.000000
1.000000 0.755000 0.000000
1.000000 0.755000 0.000000
0.030000 0.785625 0.000000
0.063750 0.785625 0.000000
0.097500 0.785625 0.000000
0.131250 0.785625 0.000000
0.165000 0.785625 0.000000
0.198750 0.785625 0.000000
0.232500 0.785625 0.000000
0.266250 0.785625 0.000000
0.300000 0.785625 0.000000
0.333750 0.785625 0.000000
0.367500 0.785625 0.000000
0.401250 0.785625 0.000000
0.435000 0.785625 0.000000
0.468750 0.785625 0.000000
0.502500 0.785625 0.000000
0.536250 0.785625 0.000000
0.570000 0.785625 0.000000
0.603750 0.785625 0.000000
0.637500 0.785625 0.000000
0.671250 0.785625 0.000000
0.705000 0.785625 0.000000
0.738750 0.785625 0.000000
0.772500 0.785625 0.000000
0.806250 0.785625 0.000000
0.840000 0.785625 0.000000
0.873750 0.785625 0.000000
0.907500 0.785625 0.000000
0.941250 0.785625 0.000000
0.975000 0.785625 0.000000
1.000000 0.785625 0.000000
1.000000 0.785625 0.000000
1.000000 0.785625 0.000000
1.000000 0.785625 0.000000
0.030000 0.816250 0.000000
0.063750 0.816250 0.000000
0.097500 0.816250 0.000000
0.131250 0.816250 0.000000
0.165000 0.816250 0.000000
0.198750 0.816250 0.000000
0.232500 0.816250 0.000000
0.266250 0.816250 0.000000
0.300000 0.816250 0.000000
0.333750 0.816250 0.000000
0.367500 0.816250 0.000000
0.401250 0.816250 0.000000
0.435000 0.816250 0.000000
0.468750 0.816250 0.000000
0.502500 0.816250 0.000000
0.536250 0.816250 0.000000
0.570000 0.816250 0.000000
0.603750 0.816250 0.000000
0.637500 0.816250 0.000000
0.671250 0.816250 0.000000
0.705000 0.816250 0.000000
0.738750 0.816250 0.000000
0.772500 0.816250 0.000000
0.806250 0.816250 0.000000
0.840000 0.816250 0.000000
0.873750 0.816250 0.000000
0.907500 0.816250 0.000000
0.941250 0.816250 0.000000
0.975000 0.816250 0.000000
